/* XPM */
static const char *xpm_[] = {
/* columns rows colors chars-per-pixel */
"32 30 194 2 ",
"   c #61A4BE",
".  c #72ABBF",
"X  c #34AFDA",
"o  c #3DB3DB",
"O  c #3BB7EA",
"+  c #48AFDC",
"@  c #52ABD3",
"#  c #47B0DF",
"$  c #49B0D9",
"%  c #57B5D9",
"&  c #59B6DC",
"*  c #56B3D5",
"=  c #5AA5C5",
"-  c #68AFCF",
";  c #70AEC7",
":  c #66B7D4",
">  c #65B6DC",
",  c #65BCDD",
"<  c #6ABBDF",
"1  c #70BCDC",
"2  c #45B8E7",
"3  c #4CBDE7",
"4  c #43B6EB",
"5  c #49B7EA",
"6  c #45BAEB",
"7  c #4CBBEC",
"8  c #46B5E2",
"9  c #56B7E2",
"0  c #57B8E5",
"q  c #56BDEA",
"w  c #47BAF2",
"e  c #4ABCF2",
"r  c #68BBE2",
"t  c #70BEE2",
"y  c #6FC0DD",
"u  c #4BC2EA",
"i  c #5DC2E6",
"p  c #54C0EF",
"a  c #5AC2EC",
"s  c #4AC0F0",
"d  c #54C3F4",
"f  c #59C3F2",
"g  c #62C0E6",
"h  c #6FC1E7",
"j  c #69C6E8",
"k  c #64C8EF",
"l  c #6EC9ED",
"z  c #60C3EC",
"x  c #7DC6E6",
"c  c #69C8F2",
"v  c #73CBF3",
"b  c #77D1F6",
"n  c #A6AAAD",
"m  c #A6ACB3",
"M  c #A8ABB2",
"N  c #ADB2B7",
"B  c #AFB3BB",
"V  c #B1B0B6",
"C  c #B3B7BB",
"Z  c #B8B9BE",
"A  c #B5B9BC",
"S  c #84B1C3",
"D  c #83BDD5",
"F  c #A2BDCE",
"G  c #B4BFC6",
"H  c #BCBDC2",
"J  c #C0BFC4",
"K  c #87C9DF",
"L  c #8FC8DC",
"P  c #8DC5DC",
"I  c #AFC0C7",
"U  c #BFC0C5",
"Y  c #B4C3CC",
"T  c #BBC6CD",
"R  c #A9C5D0",
"E  c #B4CEDC",
"W  c #B9CBD6",
"Q  c #B6D0DF",
"!  c #84CCEC",
"~  c #89CEEF",
"^  c #81C4E1",
"/  c #94CCE2",
"(  c #8FD2EF",
")  c #9CD3E3",
"_  c #95D3EE",
"`  c #82CFF4",
"'  c #8ECDF0",
"]  c #94CFF1",
"[  c #85D3F6",
"{  c #88D1F1",
"}  c #87D5FC",
"|  c #9CD9F3",
" . c #9BD4F2",
".. c #B1CFE3",
"X. c #AFD3E6",
"o. c #AFDEE6",
"O. c #A6D6ED",
"+. c #B2D1E4",
"@. c #B5DAEC",
"#. c #BBDBED",
"$. c #B2D5E8",
"%. c #A2D7F6",
"&. c #A5DBF5",
"*. c #BCE4F5",
"=. c #BBE7FB",
"-. c #BDEBFC",
";. c #B3E2FC",
":. c #C3C4C6",
">. c #C4C5CA",
",. c #C9C4CE",
"<. c #C5C9CC",
"1. c #CACACD",
"2. c #CCCED2",
"3. c #C5CFD9",
"4. c #CDCED9",
"5. c #D2CED3",
"6. c #D0CED9",
"7. c #CDD0D6",
"8. c #C4D7DE",
"9. c #CBD3DB",
"0. c #CFD8DF",
"q. c #D3D3D5",
"w. c #D8D8D6",
"e. c #D4D5DB",
"r. c #D9D7DB",
"t. c #D5DADD",
"y. c #DBDBDD",
"u. c #E0D7DA",
"i. c #E1DDDF",
"p. c #DAE2DE",
"a. c #E2E3DF",
"s. c #CCD6E1",
"d. c #C7D9E3",
"f. c #CFD9E2",
"g. c #C5DFEA",
"h. c #C8DFED",
"j. c #D4D6E0",
"k. c #D8D6E3",
"l. c #D4DBE3",
"z. c #DBDDE3",
"x. c #DDDDE9",
"c. c #D5DDEA",
"v. c #E2DDE3",
"b. c #E8DEE6",
"n. c #C2E3EE",
"m. c #CEE3EE",
"M. c #DDE1E5",
"N. c #D5E2EA",
"B. c #DDE2EA",
"V. c #DCE9EE",
"C. c #C2E5F4",
"Z. c #C9E6F2",
"A. c #C3E8F5",
"S. c #CBEAF6",
"D. c #C2E7F9",
"F. c #C3EBFB",
"G. c #CBEDFA",
"H. c #D3E7F3",
"J. c #DAE7F0",
"K. c #D3ECF5",
"L. c #DCEBF4",
"P. c #D3EEFB",
"I. c #DBEFFB",
"U. c #CEF0FC",
"Y. c #DCF3F6",
"T. c #D5F3FC",
"R. c #DBF3FB",
"E. c #D1FFFF",
"W. c #DCFAFF",
"Q. c #D3F5F6",
"!. c #E3E3E4",
"~. c #EBE3E6",
"^. c #EAEAE6",
"/. c #E4E4EB",
"(. c #EAE5EB",
"). c #E3E9EB",
"_. c #EBEAEC",
"`. c #E3E5F2",
"'. c #E3ECF3",
"]. c #ECEDF3",
"[. c #F1EEF7",
"{. c #F2EFF8",
"}. c #E3F3F7",
"|. c #EBF3F4",
" X c #E3F4FB",
".X c #EBF4FB",
"XX c #E4FBFF",
"oX c #ECFBFE",
"OX c #F2F4F4",
"+X c #F8F2F6",
"@X c #FAF9F7",
"#X c #F3F6FA",
"$X c #F2FDFF",
"%X c #FAFDFF",
/* pixels */
"/.>.9.9.9.9.9.9.9.9.9.j.s.9.9.9.9.9.9.s.s.9.4.e.e.9.9.9.9.9.T B.",
"B.N m B Y Y W E E +...+.+.@.@.X.@.$.X.@.+...#.+.+.E Y I G m C z.",
"'.<.M G W F S ; - > h h < , , , % * * > > r < =   . S R T N 2./.",
"B.9.C <.3.h.-.| 1 @ # 5 7 8 o o X X 6 7 f q & [ ( -.F.h.f.H z.).",
"L.l.C 2.q.2.t.R.E.( 9 4 5 4 4 4 7 s d 7 7 9 ^ W.XXL.c.l.j.H z./.",
"'.0.C q.u.~.^.p.T. .0 e w w w e 4 7 6 4 5 & P P.].+X[.z.y.:.l.'.",
"`.z.:.w.i.~.^.|.P. .+ O 4 6 5 7 e 7 2 7 7 % / W.|.OXOX!.i.:.z.V.",
"`.j.:.y.v.]._.).R.%.$ 6 4 5 7 7 d p f a f r L W.|.@X|.M.!.<.M.V.",
"/.r.:.y.v._._.).I.O.* u 3 3 7 7 a k k c k < / T..X#X{./.v.5.N.J.",
"/.y.<.y.v.(._.).'.@.: i i i a z g j l b v t ) T.|.#X[./.b.5.z.J.",
"!.w.<.z.B.)._.!.).g.D x ! ! ` [ } ` v v l y ) Q.|.OXOX/./.6.x./.",
").t.<.z./._._.!.!.}.*.-.=.;.&.| ] ' ~ { ! K o.Y.|.OX|././.6.x.`.",
"V.t.<.y.!._.^.a.p.%X$X$XXXR.F.*.=.-.F.*.@.+.m.L.|.OX|.B.M.2.x.`.",
"B.t.:.i.a._._.!.y.%X%X%X%X$XXXW.T.T.XXXXXX X.X`.].#X].B.M.2.z.`.",
"/.y.,.z.!._._./.M.%X#X%X%X%X$XoXW.T.R. XoX.X$X`.].]._.v.v.2.z.!.",
"/.r.,.y.r.M.z.t.z..X.X.X.X.X$X$XY.K.R. X.X.X#X`./.(.(.v.z.2.y.M.",
"B.l.>.z.y.y.y.M.z.V.I.K.K.K.XXXXXXR.Y.Y.XXXXB.)./.(.(.!.!.2.z.M.",
"B.j.U y.!.!.!./.9.8.S.n.Z.S.S.R.XXXXW.W.T.P.s.j._.(._.(./.1.l./.",
"B.e.U y.!.!./._.s.d.Z.n.A.F.C.S.P.P.S.G.Z.Z.d.c.]._._._./.1.t.B.",
"B.e.:.y.y.q.e.e.c.H.Z.A.D.*.F.C.C.C.*.*.#.n.m.L.z.z.y.y.!.2.t./.",
"z.e.:.q.q.5.q.2.f.L.Z.A.D.*.D.*.*.*.*.*.*.n.H.N.e.y.e.q.y.<.t.B.",
"z.e.U q.q.y.z.e.s.L.S.A.A.D.A.A.*.*.=.*.*.n.K.N.z./.!.w.y.<.e.M.",
"M.e.H q.q.y.v.e.9.L.K.S.A.A.A.D.F.-.-.-.A.Z.R.N.z./.!.q.e.<.e.B.",
"z.7.H q.q.r.v.e.9.}.K.W.T.S.G.S.F.F.D.G.A.S.R.c.z.!.y.q.e.<.e.z.",
"z.2.A 2.2.y.r.e.7.'. XXXW.T.K.P.P.G.U.U.P.K.}.l.y.!.!.q.e.:.e.x.",
"t.2.C 2.1.2.1.1.q.'.'.R.R.Y.Y.R.R.T.T.T.Y.L..Xz.e.r.y.q.q.H 4.j.",
"t.2.N <.1.1.1.2.e.|.|.}.Y. X X}.}.}.R. X}. X.X!.r.q.q.2.2.C 6.k.",
"e.2.N 2.2.1.1.2.e.]..X|.}.}..X.X.X.XXXXXXX.X.X/.y.q.q.e.e.Z 4.e.",
"q.,.n H >.,.2.e./.#X$XoXoXoXoX$X$XoXoXoXoX$X#X].z.q.1.1.1.V ,.q.",
",.H Z z.].#X%X%X%X%X$X$X$X$X$X$X$X$X$X$X$X$X$X$X%X@XOX].!.J :.,."
};
