/* XPM */
static const char *xpm_[] = {
/* columns rows colors chars-per-pixel */
"32 32 233 2 ",
"   c #372A21",
".  c #382B22",
"X  c #392F25",
"o  c #3B2E25",
"O  c #382F26",
"+  c #392F26",
"@  c #3C2F26",
"#  c #3A3027",
"$  c #3F3327",
"%  c #3E3128",
"&  c #3C3228",
"*  c #3D3329",
"=  c #3C332A",
"-  c #3D332A",
";  c #3E342A",
":  c #3E342B",
">  c #3F352B",
",  c #3F352C",
"<  c #3F362D",
"1  c #403229",
"2  c #40332A",
"3  c #40332B",
"4  c #41342B",
"5  c #44362B",
"6  c #41342C",
"7  c #42352C",
"8  c #43352C",
"9  c #40362C",
"0  c #40362D",
"q  c #41372D",
"w  c #43362D",
"e  c #40352F",
"r  c #40372E",
"t  c #41372E",
"y  c #43362E",
"u  c #45372C",
"i  c #44362D",
"p  c #44372E",
"a  c #45372E",
"s  c #45362F",
"d  c #41382F",
"f  c #42382E",
"g  c #42382F",
"h  c #43392F",
"j  c #45382F",
"k  c #463A2E",
"l  c #473B2F",
"z  c #413630",
"x  c #423930",
"c  c #433930",
"v  c #423B31",
"b  c #453830",
"n  c #463930",
"m  c #473930",
"M  c #463931",
"N  c #443A30",
"B  c #443A31",
"V  c #453B31",
"C  c #473A31",
"Z  c #453B32",
"A  c #473A32",
"S  c #453C33",
"D  c #443D33",
"F  c #463C32",
"G  c #463C33",
"H  c #473D33",
"J  c #463D34",
"K  c #473D34",
"L  c #473E35",
"P  c #473C36",
"I  c #483A31",
"U  c #483B32",
"Y  c #493B32",
"T  c #483B33",
"R  c #493C33",
"E  c #4B3D32",
"W  c #493C34",
"Q  c #4A3D34",
"!  c #4B3D34",
"~  c #4A3D35",
"^  c #483E34",
"/  c #483E35",
"(  c #493F35",
")  c #4B3E35",
"_  c #483F36",
"`  c #493F36",
"'  c #4B3E36",
"]  c #4D3F34",
"[  c #4C3E35",
"{  c #4C3F36",
"}  c #4D3F36",
"|  c #4D3E37",
" . c #4A3F39",
".. c #494037",
"X. c #4A4036",
"o. c #4A4037",
"O. c #4B4137",
"+. c #4D4037",
"@. c #4E4037",
"#. c #4A4138",
"$. c #4B4138",
"%. c #4B4239",
"&. c #4A4339",
"*. c #4D4038",
"=. c #4E4138",
"-. c #4E4139",
";. c #4C4238",
":. c #4C4239",
">. c #4D4339",
",. c #4F4239",
"<. c #4C433A",
"1. c #4D433A",
"2. c #4F423A",
"3. c #4B443A",
"4. c #4D443B",
"5. c #4E443A",
"6. c #4E443B",
"7. c #4F453B",
"8. c #4E433D",
"9. c #4E453C",
"0. c #4F453C",
"q. c #4D463C",
"w. c #4F463D",
"e. c #4F443E",
"r. c #50413A",
"t. c #50433A",
"y. c #51423B",
"u. c #50433B",
"i. c #504438",
"p. c #51443B",
"a. c #51443C",
"s. c #52453C",
"d. c #50463C",
"f. c #50463D",
"g. c #51473D",
"h. c #53463D",
"j. c #50453F",
"k. c #50473E",
"l. c #51473E",
"z. c #53463E",
"x. c #54453E",
"c. c #54473E",
"v. c #51483F",
"b. c #52483E",
"n. c #52483F",
"m. c #56483D",
"M. c #55483F",
"N. c #514640",
"B. c #534940",
"V. c #534842",
"C. c #554840",
"Z. c #564940",
"A. c #564941",
"S. c #544A41",
"D. c #574A41",
"F. c #544B42",
"G. c #554B42",
"H. c #574A42",
"J. c #554C43",
"K. c #564C42",
"L. c #564C43",
"P. c #574D43",
"I. c #554A44",
"U. c #564D44",
"Y. c #574D44",
"T. c #574C46",
"R. c #584B42",
"E. c #584B43",
"W. c #594D41",
"Q. c #5A4C41",
"!. c #594C43",
"~. c #5A4C43",
"^. c #5A4B44",
"/. c #594C44",
"(. c #5A4D44",
"). c #5B4D44",
"_. c #5B4C45",
"`. c #584E45",
"'. c #594F45",
"]. c #5B4E45",
"[. c #584D47",
"{. c #594F46",
"}. c #5B4E46",
"|. c #5C4F46",
" X c #5C4F47",
".X c #5A4F49",
"XX c #5E4F48",
"oX c #595047",
"OX c #5A5046",
"+X c #5A5047",
"@X c #5B5147",
"#X c #5D5047",
"$X c #5B5148",
"%X c #5B5249",
"&X c #5B504A",
"*X c #5D5048",
"=X c #5E5148",
"-X c #5F5049",
";X c #5C5248",
":X c #5C5249",
">X c #5F5249",
",X c #5C534A",
"<X c #5D534A",
"1X c #5E544B",
"2X c #5D524C",
"3X c #5E534D",
"4X c #5E554C",
"5X c #5F554C",
"6X c #5F544E",
"7X c #60534A",
"8X c #60534B",
"9X c #61544B",
"0X c #62554C",
"qX c #60564C",
"wX c #60564D",
"eX c #61574D",
"rX c #63564D",
"tX c #60554F",
"yX c #60574E",
"uX c #61574E",
"iX c #63564E",
"pX c #64574E",
"aX c #62584F",
"sX c #63594F",
"dX c #685A4F",
"fX c #625751",
"gX c #655850",
"hX c #675950",
"jX c #645A51",
"kX c #675A52",
"lX c #655C53",
"zX c #685B53",
"xX c #6D6057",
/* pixels */
"2.z.o.B.Y.A.A.$XaX5X2.Z `.:XXX| 4 z.x.p.@.@.| u.Z Z z.Z ` K ` 6.",
"A.E.o.o.$.z.A.+X`.A.Z t u.^.XXx.2.Q.`.E.m.m.2.z.A.z.L.` $.$.$.2.",
"u.z.Z K K ` ` Z t G t c ` z.A.u.`.A.z.2.2.A.z.E.L.A.L.o.z.z.2.2.",
"A.2.t ` 2.o.6.` Z 0.0.z.2.C.8XwX`.m.x.p.z.`.p.z.6.z.z.` A.`.Y.A.",
"Y.n.Z K Z - Z , c 2.2.$.c 2.L.$X@.2.x.z.z.`.2.z.0.0.2.G 2.B.B.z.",
"t 2.o.o.K : ` c : K K g , Z Z t t R R j Z R j u.o.` ` G ` 2.6.` ",
"` :X:X$XY.` B.z.B.`.L.` ` 2.$.` u.A.z.E.#XA.` x.` Z Z ` $.z.A.2.",
"K +X:XwX1XK 2.$.z.`.L.c Z ` $.$.R @.Z `.xXpXz.Q.:Xz.K K c ` 2.c ",
"$.:X:X:X1Xo.Z t K ` 6.g t Z Z t Z t 4 p.wXwXz.@.6.6.Z c g g K c ",
"Y.5XY.z.6.Z ` Z , , Z t t t : - t I R | p.A.| j t c G Z Z K G G ",
"wXwX:XL.0.` z.6.Z t p t ` R j 2 Z Q.I   @ Z j p.A.z.z.2.0.A.0.0.",
"6.` 0.z.` t K c @ @ 4 t Z 2 o . ` E.p @ | u.Z | 2.` Z t c $.$.2.",
"0.G 0.n.6.2.z.` t I @.I I 2 t Z ` z.| R 4 j 2.x.G 6.0.6.2.6.L.Y.",
"3.c $.$.z.`.A.Z t Z I I | p p j R 2.R | I ` @.Z t 2.z.n.z.6.A.z.",
"$.c $.2.L.$Xz.I p I | Q.dXQ.| p j z.` @.@.` I R , K 2.0.z.n.z.2.",
"g o c G 0.$.t t - t I Q.dXm.` Z j Z 4 ` Z t Z j # t 6.$.` o.c t ",
"Z G K 2.6.Z , t G t x.:X`.Z p p j : G Z g : g t t ` $.6.z.` $., ",
"` ` 2.E.B.$.$.2.2.G p.9XzX`.u.2.o.g G o.n.o.g Z A.`.+XkXlX+XL.$.",
"` Z ` 6.` $.z.0.`.z.` 6.A.A.z.Q.G - t G 2.` Z ` o.$.$.A.A.$.G t ",
"2 t K ` ` 6.$.g z.2.` K R ` 2.z.2.: ` 6.` o.u.Z t G Z ` Z g - - ",
"c Z K Z ` 0.6.z.Z c 6.o.` ` u.Z o.: ` m.z.A.z.j ` 2.6.6.` ` t Z ",
"t t o.2.0.6.2.$X`.z.`.B.m.E.8X2.g : j | 2.@.t t I I G c g t o g ",
"` c $.o.K o.6.$XA.6.A.L.L.L.`.| | 2.2.2.| ` 4 p ` ` 2.t , - o Z ",
"6.` n.2.K 0.0.z.K o.A.:X+XL.A.x.p.z.E.`.E.wX#Xp.u.|.kXz.$.K c 2.",
"Z z.B.n.K $Xn.o.0.K A.A.n.n.m.u.R R p.`.z.#XA.z.A.kXzX2.G ` ` ` ",
"g o.2.2.g z.0.2.$.g G Z Z ` R 2 ` Z 2.` p ` u.@.E.kXkX2.G ` Z K ",
"o.6.z.B.o.n.I.8.z t G g Z | ` 4 Z t R Z t 2.Q.x.u.:XwX`.A.n.K 0.",
"L.+X`.L.n.`.3X0. .z.L.6.u.z.z.I t t Z u.` `.|.z.2.z.A.+X`.L.2.:X",
"m.E.L.A.B.A.`. .z.Y.Y.0.m.Q.Q.p.: t g 6.o.+X|.p.$.o.2.z.z.z.K B.",
"@.| ` ` ` Z K K $XfX:X0.u.` j $ - - 4 t t ` z.` , t Z Z Z $.K o.",
":XA.2.` 2.0.N..XY.wX`.u.u.Z 5 $ o 4 j o.n.`.aXwX0.` 0.` ` A.:X:X",
"m.p.` ` n.+XN.B.3X5Xz.` z.@.R j R p.6.+X:XwX+XL.B.K z.2.` 6.L.L."
};
