/* XPM */
static const char *xpm_[] = {
/* columns rows colors chars-per-pixel */
"128 128 256 2 ",
"   c #2A1B05",
".  c #2A1E15",
"X  c #271D16",
"o  c #321A00",
"O  c #362507",
"+  c #2C2116",
"@  c #2D231B",
"#  c #282418",
"$  c #32251C",
"%  c #33291E",
"&  c #3A2B1D",
"*  c #362614",
"=  c #352914",
"-  c #2E2721",
";  c #322621",
":  c #352B23",
">  c #392D24",
",  c #3C2E29",
"<  c #352C28",
"1  c #3C3126",
"2  c #3D332B",
"3  c #3A362A",
"4  c #3E3932",
"5  c #3D3532",
"6  c #493719",
"7  c #533C19",
"8  c #4B330E",
"9  c #423426",
"0  c #42362C",
"q  c #44392D",
"w  c #4A3B2C",
"e  c #493A25",
"r  c #423631",
"t  c #453B33",
"y  c #4A3D34",
"u  c #4A3E39",
"i  c #463C38",
"p  c #513F35",
"a  c #513F3B",
"s  c #543E29",
"d  c #58451A",
"f  c #56430E",
"g  c #664B1A",
"h  c #77591B",
"j  c #6F5014",
"k  c #4A422D",
"l  c #564429",
"z  c #474134",
"x  c #4B4136",
"c  c #464239",
"v  c #4D433A",
"b  c #4E493E",
"n  c #524236",
"m  c #52453C",
"M  c #58463D",
"N  c #54493E",
"B  c #5A493D",
"V  c #5A4835",
"C  c #5A5238",
"Z  c #674B24",
"A  c #685326",
"S  c #755827",
"D  c #675536",
"F  c #735C36",
"G  c #664D32",
"H  c #7C632A",
"J  c #786335",
"K  c #4D4541",
"L  c #4E4942",
"P  c #4F4D49",
"I  c #534641",
"U  c #594741",
"Y  c #554B43",
"T  c #5A4C44",
"R  c #554D49",
"E  c #5B4E49",
"W  c #50474A",
"Q  c #5B5046",
"!  c #56514A",
"~  c #5C524B",
"^  c #585548",
"/  c #5D5551",
"(  c #5D5953",
")  c #604E45",
"_  c #614F4A",
"`  c #625246",
"'  c #62544C",
"]  c #64594D",
"[  c #6A594C",
"{  c #695749",
"}  c #635651",
"|  c #645A53",
" . c #6B5B53",
".. c #695C57",
"X. c #715C4D",
"o. c #6C615A",
"O. c #736258",
"+. c #7A6648",
"@. c #736961",
"#. c #A13B00",
"$. c #8A580D",
"%. c #B85700",
"&. c #B14800",
"*. c #946B18",
"=. c #A86B01",
"-. c #AB7704",
";. c #B57A02",
":. c #B17115",
">. c #856928",
",. c #977936",
"<. c #90702F",
"1. c #9C6C2B",
"2. c #C75501",
"3. c #CC5307",
"4. c #C66A01",
"5. c #D76901",
"6. c #CD7C02",
"7. c #C87704",
"8. c #D37D01",
"9. c #DC7D03",
"0. c #D97407",
"q. c #CB7813",
"w. c #E96B05",
"e. c #F16D02",
"r. c #E87804",
"t. c #F27402",
"y. c #F87A03",
"u. c #E77815",
"i. c #977A46",
"p. c #8B7149",
"a. c #B98508",
"s. c #B78815",
"d. c #9D833B",
"f. c #B08C33",
"g. c #CA8801",
"h. c #D58301",
"j. c #DB8401",
"k. c #D48B00",
"l. c #DD8B01",
"z. c #D8890A",
"x. c #CC9408",
"c. c #DC9202",
"v. c #D89802",
"b. c #C98914",
"n. c #C99817",
"m. c #D39817",
"M. c #D98A15",
"N. c #E28D01",
"B. c #E98605",
"V. c #FA8704",
"C. c #E39303",
"Z. c #E49B02",
"A. c #EA9B03",
"S. c #E89608",
"D. c #F89705",
"F. c #EB9218",
"G. c #D7A517",
"H. c #DCA408",
"J. c #E9A705",
"K. c #F7A708",
"L. c #EEB405",
"P. c #F6B906",
"I. c #E9A917",
"U. c #F3A817",
"Y. c #EBB415",
"T. c #F6B918",
"R. c #CB9729",
"E. c #EB9626",
"W. c #D8A726",
"Q. c #D7AB32",
"!. c #E9B627",
"~. c #F8BB28",
"^. c #E8B736",
"/. c #F5BC35",
"(. c #EBAB2D",
"). c #F5C402",
"_. c #F9C303",
"`. c #F9C70B",
"'. c #FDC21B",
"]. c #FBC918",
"[. c #F5CA19",
"{. c #F5C323",
"}. c #FCC423",
"|. c #FDCC24",
" X c #FCC42B",
".X c #FDCB2C",
"XX c #F6C829",
"oX c #FCD225",
"OX c #FED32D",
"+X c #FED72D",
"@X c #FDCC34",
"#X c #FDCD3B",
"$X c #F9C636",
"%X c #FED533",
"&X c #FFD934",
"*X c #FDD43B",
"=X c #FEDA3B",
"-X c #F6D238",
";X c #ECC332",
":X c #9B8452",
">X c #A88747",
",X c #B79756",
"<X c #B08F4C",
"1X c #B09365",
"2X c #BBA674",
"3X c #D9A646",
"4X c #D7AA56",
"5X c #D6B659",
"6X c #CCAA4F",
"7X c #E4AB47",
"8X c #E9B64B",
"9X c #E8BA54",
"0X c #F3B849",
"qX c #D2B16A",
"wX c #E4BC66",
"eX c #CB9E4D",
"rX c #ECC349",
"tX c #F8C946",
"yX c #FDD443",
"uX c #FEDA44",
"iX c #FDD44B",
"pX c #FEDB4C",
"aX c #F6D447",
"sX c #ECC557",
"dX c #F8CA56",
"fX c #FDD552",
"gX c #FDDB53",
"hX c #FDDD5B",
"jX c #FBD55A",
"kX c #FEE25C",
"lX c #FEE256",
"zX c #FFE14A",
"xX c #E9C867",
"cX c #F5CD66",
"vX c #FDDC62",
"bX c #FDDC6C",
"nX c #F7D566",
"mX c #FBDA73",
"MX c #ECD271",
"NX c #FEE264",
"BX c #FEE46C",
"VX c #FFEA69",
"CX c #FDE574",
"ZX c #FEE879",
"AX c #DBC269",
"SX c #FFEA83",
"DX c #FEEB8C",
"FX c #FDE583",
"GX c #FEEB93",
"HX c #FDE996",
"JX c #FFF397",
"KX c #FFF089",
"LX c #FFF6A8",
"PX c #FEF2AF",
"IX c #E3CF91",
"UX c #CEB384",
/* pixels */
"m m m m m m m m v v : t Q m v m v I U T T I U I I U U T E E E E  .}  .O.O... .E m m m v $ u Q v m m m T E E _ E _ ' ' ' E E m % 0 T N Y Q |  .| | ....| | ....| ~ Q ' ] Q Q ~ ' | ' } ' Q ~ } Q m v m Q Q m $ ' @. .T T I y v v m m v v y y x v v x v v v N M m ",
"m m m m m m m m m I 1 t ~ I m v m Y I T T M m m U U U T E E _ ' } ' }  .} _ ' U m m m m $ t Y m M E E ' ' ' ' E U E T U m m m > % 2 2 t y t t x x v Y Y N m N N Y v y t 0 0 q q I T E T U I I m t y y m y 2 X 0 T I m m m v m m m m v y t t t t t t v m v v m m ",
"m m m m m m m I m T 1 t ~ Y I v m I I U T I m m U U T E E ~ _ ' ' ' ' ' E U T M m m m y $ 0 I m v I I U E E E I m U E E T m U > $ $ > : @ $ + @ @ @ @ @ @ @ @ @ $ @ $ $ @ @ $ $ @ ; @ @ ; ; ; ; @ $ @ % $ @ @ $ @ $ $ $ : : : , T m v x t t t t t t v m m x u m ",
"m m m m m m m U m T > t Q N I v m m m I T I I I T T E E ' ' _ _ E _ ' ' _ U U M m m m v % 0 v t m m I T E T E E E E _ ' ' E E > > y I T T Q I T Y T Q R Y Y Y T m m I I m y y y v y $ $ t t r r r t 2 0 t y v t y y y t q 0 $ : I t t v y q t y t t t x v y y v ",
"m m m M M m m m m T > t ~ m I m m m m m I I T T R R E E E E E ' T T E Q E U U U m U M v % 1 y t x v U Y Y Y T E Q E _ ' E E E > 2 T E ' ] ' Q | ..~ Q ~ | | ~ T I U U T U U T ' ..~ > 0 ~ ' ~ ' Q Q Q Q ' Q E T Q Q ' ' ' I > : m 0 2 v v y t t t x x y y y y m ",
"m M M M M m m m I U 1 y ~ N I m m M m m m I T T T R E E E E E E T U T T U U m I U m v y @ 2 m x x v U I R ' Q E T E _ ' U E E > 0 ' I m M I Q ~ N Q | | ~ I v v U I m m U U U Q o.| 2 r ' R Y T I I T I I M m U m m U ' ' Q 2 > U u t v N m x r r x v v x v m M ",
"m m M U U M U U I I 1 t Q Y m m m M m m M I T T E Q Q R E Q ' Q T U E E I U U I m u v y : q I y v v m I E } Q T E E ' ' E _ ' > 0 ' U m m m I m ' ' ' T m v m T U U U U U I U T ' ' , t ~ R T T R T T Y I I I T T I I Q E E r > T I m m v v t 0 t v v v u v m m ",
"m m M U U U U U I I 1 2 Y I m m m I m M T E ' ' ' ' E I I E ' } T U ' | E U U U m u m y @ 2 I x v v T R Q ~ E ' } ' ' ' ' '  .> w T m U U m U T T T T M v y v m U E U U m m m U T Q , r ~ T R Y Y Y I Y I Y R T R T I R I T r : Q Q T I v t r y m v v v v m I m ",
"m m m I U U U m I T 1 @ : 1 2 2 0 2 2 0 0 0 q t y 0 2 , 0 y t r q t y t 0 0 q 2 1 , : > @ ; t t 5 r r I m m v m v m u u m T y % 0 M U M m u p m x m m m m m x m m U E U m m m I T ' > r ~ Y Y T Y T T Q o.' U T E T I T I T 0 > Q Y T I x u t v Y v v v v m I m ",
"m m m m m m m m m Y : @ : $ % $ % $ $ $ $ $ $ $ @ $ : : ; ; $ @ . . $ @ @ $ $ @ @ @ $ $ . @ : @ @ : @ X $ : $ $ $ % $ $ $ % % $ m ) T B U M M m m M m m m m m m m m m m m m U T Q ' , t } T T T Y I I T ' T I I m U m I I T 0 : R Y T Y m m v Y Y m m v v m m v ",
"m m m m v v m m m N 1 2 m x I T v v v v v v v v Y Y m Y I I m y $ 2 v v v I U E v t x t 2 y u v Y ~ Y ; T ' U T E E ' ' ' ) E ) ' { ` ` ' ' ` B B B m m m m m m M M m v v m T T Q ' 1 t } R T Y Y Y M m I m I m m m m U I T 0 : T U T T Y Y I T T Y I v v x v x ",
"m m v x x v u u x m : q Y x T Q v v v v v v v m N I v v v m I m @ r Y m m T E ' T y v v u v K R R | ~ ; ~  .Q ' | ' ' ' ' [ ' [ ` ` { { ' ` ` T B m m m m m m m m U U m m m I T Q ' 1 t } R T I v N M m m U U m m U m m m T 0 : R I T T T R Y Y Y T T v v t x v ",
"v v m v x v v u x I : r v t y y v x x v v v v v v m v v m m U m $ q v t y N m U T v x v v v v K Y ~ R @ I | ' ' ' ' ' ' ' ) ' ' ` ` ' T M T T B M m m M m m m n u m U M m I T Q Q ' > t ' T T I t v m m m m m m m U m m m I 0 : ~ T T T T T Y I Y Y T I Y u y x ",
"v m m m x x v v x m @ r x t y x v v v v v x v v v x y x m I I u @ 0 t t x v v I E T I m u u I Y Y Q Y : v ' ' Q ' ' | O. .' ) ' ' ' E p w M T M m n m M m m n x x m m I I T T T T E : t ~ Y Y m t v v m m m m m m m m m m I 2 : ~ R T T T T Y Y Y Y Y T Y Y v x ",
"N Y M m v v v v m Y @ q v t y v x x x x x y x x x v m v x m m m @ x m v v y x v v I Y Y x i K K K Y v : y m M m B B T { [ ' ' ' ) T B w 0 n n p m p n m m m m x m m m I T T U I T T : t Q N I I m m x m m m m m m m m m m M 0 : E E T T T T T T Y Y Y T v T Y Y ",
"Q Y m v v m v y x y @ 0 m t t x x x x x t r t y y t v y y x y t @ m m y x x v y v x v v v y t i x v r , u y m M I T ) ) ) _ _ ) E U T M n n p p M n m M m m M m m m m I T U U T T T : t Q m I Y Q m x M m m m m M m m m m m 1 : T R T T T T R T Y R Y Y t Y R R ",
"R Q T Y Y I K K I r @ r v t x t x x x y t r r y t t t 0 0 t y t @ m m u y v m y v v v v v x t t c c t : v v M U T T E Q Q _ E E U M M M n p n n M M M B B M m m M m m U U E Q T T T : y Q I Y I Y N v v m v v m y y y m m I 1 % y y v m T T T R R Y Y Y v Y R ~ ",
"Q ~ Q T R R Q R I v @ t v r t t y t t t t t t t r r t r 0 0 t t $ m m u v u u m t v v v v x x t t x r : v v m T T T T E E T E T M m n n n n n M T T B B n n M m m y m E E E E U T T : t Q I m Y v v v v v v v v v y y m m U 1 % u u v m T T R R Y m v R R ~ R R ",
"R ~ Q T T R Q Y T m @ r Q x x x t q r t r t t r r 5 r r r r t y @ m I v v v y x v m v v x x x x u u r > m m m I T T E T T U M M M m m n n m m U B B B B n M m m m m m E T T T T T E : t ' Y v m v v v v v v m m v y u m v m 2 > m I Q ' R T E R R E R Q T R R ~ ",
"Q ~ Q Q Q Q Q T I v @ r Q Y v v v v v y r r r r t r 2 r t t t t @ v Y m Y I v v v v v m m x x x u u t > T N Y T Q Q E E E U B N m m v v n m M T T T ) ` B T M M U m m T T E ' | o.' > t ~ m v m v m m v v v m m v y y v m T q % m U ' | Q T Q Q Y T Y R Q R R R ",
"< 1 , 1 1 : : : : % # @ 1 : : : : : : : : : : : : : : : : : ; @ @ : 1 q r r r t x x t t t r r r y r 0 % v z m Y Y W I I I v x x t t y y y u m m B B T E m m u y y t y u v v I Q T u @ y ' v v m m m m v x v m m v y y v m U 0 : $ $ % : $ $ ; % $ $ $ $ @ . $ : ",
"X ; ; : : : : 1 2 1 0 2 2 2 4 0 r r 2 1 : @ # @ : 1 2 1 , , : : # X X @ X @ @ @ X @ @ . # - @ # @ @ @ + % $ $ ; : ; ; ; ; ; % @ @ @ $ $ $ $ % % $ * $ + + $ $ % % $ $ % $ $ $ $ % @ X y ' v m v m m v x x x v v y t u m I U I T I v y t 0 q y u y y r t v v t X ",
": t v m T T Q ~ ~ Q ~ Q ~ ~ ~ R Y Y v Y v 1 < t L R Q R T Y Y v t x y t r x i r Y R Y Y T I 2 @ 4 t t t t x t 0 r r 0 r r r r 0 0 0 0 q 0 0 0 0 0 , > . & 0 y v v v x x y y y y 2 2 @ t Q v m m m v y y y y y y m y t y u t x Y T U U m m m T ' E ' Q T E ' ' 0 ",
": Y T T Q Q T Q Q Q T T ~ Y T K v v Y Q Y < < L L Y T Y Y Y K v v N m v Y Q R ~ o.~ K Y ~ T r : L c c t v Y Q m v x u u u u v x x v m m M m M M B m x % 0 n U Q T T N v v m m m v v : 0 Q m m m m y t w t t t y y y y u t r u v m m m m U U T E E U T T U I T t ",
": T N T Q Q Q T Q Q Q R Q Q T b T R T Y K 4 3 R Y R R Y Y Y I v v m m m Y Q / | ~ R v i I ~ r : Y v t x v n n w w x m x x y y v m m m T Q ' ` ` ` { ` $ M [ B m T I v v N m m Y m Y 1 r ' m m m y q y q 0 y t y t r t t t r t v m m m m I T T T E T T U I I E y ",
": Y m I Q Q Q Q T T Q ~ T T ~ ~ T R T L K 3 < ! T R Y L K K v v m m m Y Q ~ Q T L K v K T ~ r : v x u i t w k k q x x t k z y y u m M T ' ' { [ ` [ ` $ M  .' ' T T T I N v v v N m : r ' m m m y q w q t y t t t r r r r r t x x v v m m m m v m m I I I m m > ",
": I v m Y Q ~ Q v v T ~ ! Q | @.Q T L v v 3 < ~ L K v v v v v v m m m T ~ ~ T v K K K Y I Y 1 : I y r t x t q z i r c x t t t r x x z z x m B ` ` ] ` * n  .{ ' ' Q E U m I Y v Y Y : r ' v v v v t t t t y t t t r r r r t t u u u y x v v v y y y u v m m m 2 ",
": I v m Y Q Q Q Y Y R Q ! ! / ..Q R b v R 5 < ~ v v v v v v v v m m I E R T Y K K K Y Y v x : : v y t t i i x t q 9 w x x t t 2 t z y y w w y x T ` T $ M  .[ ] | ' ' Q T Q Q Y y I : r ~ Y Q Y I v v v x t y t t t r r r t t t t y t t y y y y v x y y y u m 2 ",
": I v v I Q ~ Q ~ ~ ~ Q ! R ! T Q Q T Q ~ t < T v x v v v x x v v m U E R Y K K v v x I m v > : Y t q t t v x & D F l 8 w v t 4 t x x x x t t w y x u . m  .| | ] ]  .o.' Q Q T x T : t | Q / T T T Y Y v x v x t t r q r t t t t u u u y x v y v x v y y y v > ",
": I v v I Q ~ ~ ~ ~ ~ Q ! ~ ~ ! Q Q ~ ~ ~ 4 : R x c u x x x x x m m m I Y I K K | ~ v x x v : : v t x r v q 8 <.qXwXqX,.d 6 z z v t q q t t t t t y t + m |  . .| |  .o.| ' ~ Q ~ ~ 1 t o.~ ~ R T T T T Y Y v x y t t 0 2 r r t r r r r q y v v y y y u y u v 1 ",
": I v N Y Q ~ ' / ~ ~ Q Q ~ ( ~ ~ ~ Q ~ ! 2 : Y t t t t t x x x m m m m m m K I o.o.Y x v v > > x x r x & f <XxXrX/./.rX6X>.6 q t t t t x z t t t t r # v ~ ' |  .[ ] | | | | ' | ~ < t ..~ ~ ~ T R ~ T L Y v x x x t t 4 4 r t i i t r t v Y Y y u u y y y v > ",
": Y v I T Q Q ~ } ~ ~ ~ ~ | | | | Q Q ~ ~ t : v c x x t y x x y m m m I I K K K v Q v v v v : : m q w = A 6XsX^.~.~.}.~.rXsX,XA 6 w x v x t t z t t t $ m ~ ' | |  . .| | | | | | / 3 2 ^ R R P Y Q | Q v L v v x x z z t 4 4 r r r r r y v x t y y y y y x v > ",
"$ T m Q Q E ' ~ Q Q Q ~ ..| ~ | Q ~ | ( | t % T b c v v x x y u y v v I T L K L K K v L L Y 1 : M e 7 <.9XrX$X X X X}.}.XX$XrX9X,.d 6 x x z c t t x y . I ' T ~ ' ] | ] | ( | | | } 2 2 ~ Q R R T Y N N N v x x x c i t t t t t r t 0 t q q r t t t t x y x v 1 ",
": Y m Q E U ' Q Q Q ~ ~ o.~ ~ ~ ~ Q ~ ( ..x : T T v v v m I N m y m I W Y K Y L K R b b Y Y : & 7 Z <XxX;X X@X X X}.XX.X*X$X~.$XsX6XH 8 e q z x t x t @ v ~ R Y Q ~ ~ / ( ( ( | | } 2 2 ' Q Y Y Y Y Y N v v v v L v x i t t t t t r t t t t t t t x x x t x v : ",
": Y m T U M ' ' ' Q ' Q o.Q Q T T T Q Q | v @ 2 x 0 2 1 2 t t w q t v K v Y R I Y v Q T U T $ o >.5XrX$X$X$Xn.W. XXX#X!.n.^.#X@X$XrXsXf.g 6 0 r q 3 > % Y Y m v R E E / / / ~ ~ ~ / 2 2 Q Q Q Q Q Q T Y T T T Y N v v x x y u x x u v x x v v x v v x x v I v : ",
"$ Q E M T T ) ' ' Q Q T Q I I I Y Y Y T ~ x X @ 1 : @ @ $ % $ $ @ @ - - : : @ ; $ $ $ $ & O O <.sXtX$X.X!.G.;.-.!.yX!.n.^.a.G.yX@X*XtXsXwX,.O     # # # L Y v Y R R R E Q ~ ~ Q ~ Q : - y x y w w 0 2 2 0 r 2 1 2 2 2 r r 2 0 2 2 2 2 2 2 q t q t q r t t t r : ",
"> Q ` T ' ' ) ' { ' U T m M m U T m m Q ~ t @ t t q q t u t q 0 0 q t i t 1 @ y m m m n 6 g eXrX$X X.XG.a.;.m./.tX(.dXn.W.(.x.yX*X*XyXfXfXdX6Xh 7 k 4 X m N q x K W W m M E Q Q T / 3 X $ . . $ X + # # # # # # # # @ : % $ % @ @ @ # @ @ X + @ @ @ @ @ @ # # X ",
"M Q ' ` ' ' { ` ' ` T U U m U U m v v Y Y 2 : Q v x t x m m u u t t t u v 2 @ Y m w 9 8 >.5XtX@X.X'.XX!.n.(././.m.-.b.0Xa.n.yXyXyXyXyXyX#XiXjXxX,XJ l = n N v x K K x y x M T U T Q < : v m u q y y y t t t t t t t t x x x v r @ u t t y x v v m m v m Y T T Y ",
"' Q ' ' ' _ ' ' ' Q Q T T I U U 0 y v v I 0 : T m m y t y y u y y t 0 q t 5 # x t w 8 ,.rXtX.X|.'.|.{.%X@XyX$XG.^.R.s.s.m.yXiXiXyXyXyXyXyXiXfXjXnXxX,.8 e T x v c c x x v m U U T E > 2 T T u u U m x v m m v v v v v m m m I t : | Y v v v v v v v v v x v Y T ",
"m Q ' ' ' ' ` ' ' Q E E T U m m t y t m Q t : T v I m y y y y y t t w w 0 2 @ x 1 d ,XdX$XXX|.|.|.|.|.XX!.g.$Xn.^.^.R.fXiXiXtXs.W.yXyX*XyXyXiXiXiXfXcX6X<.l e z z z v N I I T T E ` & 0 Q m q y x y y v m x x v v m v I I Y T t - | v I I v v Q T v y v x x x Y ",
"v Q ~ ' } ~ ' ' Q Q Q Q ~ Y m I v v u m I t : E m I m m m x y y w q y q t 1 @ w 8 6XaX=X%X.XXX|.XX|.].OX;.Q.0X-.-.W.$XyXiXQ.a.W.^.-XpXuX=XaXyXyXyXgXfXjXxX<Xg * 1 2 y z z x x y y y % 9 E x 0 y w q y m m m v m m v v m Y Y T r : } T Y v v v T Y v y y x x x x ",
"R ....~ Q / | Q Q Q T ! ~ Q Y K m v m M I q : Q m I U I M x u y y y 0 t q & $ 6 ,.jX{.oX=X&XOXXX{.OX[.OX!.a.R.-.R.hXyX-Xn.=.n.tXyXyX=X-XyXuXyXyXiX#XyXpXiXnX5X,.O o   * @ @ # @ % + . q B w w p U M U E T m x m x y x m Y m I t @ ~ Y T Y m x x v x x x x y t z ",
"^ ( ( ~ ~ ~ / ( ! ! ! ! ! / ~ Y v y v m I 0 $ Q m I M m m u x u y q q 9 q & * f 5XlX[.L.T.OX&X&XOX{.XXXX$X$XW.Q.iXyX*X%XG.G.*X*XuXyX*X*XyXyXyXyX*X*XuXuXaXiXjXcX6XH 8 6 0 t z z z q + 9 B w p ' T U I U m v v v v x x v v v N r : | I m m m v v v v x x x c x v ",
"! / / ~ Q R R R ! ! ! ! R ! / Q I u v m T t @ T m I M m u y m x q 0 w 9 q 9   H NX{.].P.L.P.{.&X&X%XXXXX.X*X*XiX*X-X*X%XuX*X%X=X%X*X*XyXyX*X*X*X*X*X*X=XyXyXyXpXvXMX<Xg 6 w y x I v % 0 T M T U m m I m m m m v y y y y x v N t @ Q I m Y Y m v m v v v x x v K ",
"L P ! ! ~ ~ ! ! ! P ! R L R Q R I N v m T t @ T v m m m u x m y 0 w q q 0 9 o ,XpX[.`._._.L.L.Y.OX&X&XXXXX.X*X*X*X%X%X*XyX@X%X%X%X%X*X*X*X*X*X*X%X*X*XyXyXiXpXyXgXfXjX5Xd.f 9 E T I & 1 E B B p m U I U I m m m v m m v v m I t : Q I N N Y Y Y v v Y Y Y K v v ",
"..( ( ( / ~ R ~ ( ^ ^ ~ ! Q ~ Q I T N v m q : Y y v m m m m m y q y w q q O g mX;X`.P.L.L.P.L.J.J.XX&X=XOXOX%X@X*X%X*X*X@X*X*X&X%X%X*X*X%X%X&X%X=X*X#X*XiXyXyXuXyXiXpXgXcXqX<.6 e V & 1 ' U M ) T U U T U M m I m Y T m m m v r # y m I T T T Q Q Q ~ ~ | | ( ( ",
"4 4 4 3 3 5 < < < < < < 1 < : > > 1 > > : @ X : : : : : > > : $ > > % $ & o f.fXY.L.P.P.L.L.J.J.J.J.L.|.&X&X%X%X%X%X%X%X%X%X&XOX%X%X%X&X%X%X&X%X%X%XyXuX*X*XuX*XyXyXiXiXfXvXxX<Xj 7 O % 2 ; : $ % : ; % $ $ $ $ @ @ : @ ; $ @ # X @ @ @ @ % $ : : % - : < < < < ",
"< : < 3 3 - # < 4 t 4 4 t t t t t r t y q t t q t t 0 0 q 2 > > > : # & & 8 sX{.L.L.L.L.L.J.J.J.A.K.Z.J.T.OX*X=X%XOX&X%X%XOX&X%X*X%X%X%XOX%X%X%X&X%X*XyX*X*X*X*X*XyXyXiXiXiXgXnXxXd.7 8 w m U I m m r % $ , t y y q q 2 2 1 2 2 2 1 2 2 0 r 2 0 r r 2 5 t 4 2 3 ",
"R R L L R v - v ~ ^ ^ ^ / ! ! ~ ~ Y T T m t m m x m m U T M u y y 0 # e 6 >XtXY.L.L.L.L.J.J.J.J.Z.A.Z.v.v.J.{.&X&X&XOXOX%X%X%X%X%X%X%XOXOX%X%X%X%X%X*X*X*X*X*X*X*X*XyXyXiXiXiXfXjXnX4X<.Z V ' E ' { ' ; 0 Q Q ' } Q M m M I U I T Y T I Q T Y ~ ~ Q Q ~ ~ ~ / Q ",
"! R R L R c - c L L L L P P R R Y Y N N u y p m n M U U U m y y r 2 $ e 7 5X/.J.J.J.J.J.K.A.J.A.A.Z.C.C.c.c.v.Y..X&X&X+XOX%X%X%X%X%XOXOX+X+X%X+X%X%X%X%X*X*X*X*X*X*X*XyXiXiXiXyXyXpXvXcX,XS l n B m T > q ' ' U E U m m M M M m m Y I m T I T Y I I Y Y Y T Q Q ",
"R L L L L c - v R L L L L L L L I v t t y m u u m U T B m v y y v z . 6 ,.dXI.J.J.L.L.L.K.K.J.J.A.A.C.C.N.l.l.l.Z.T.%X&X&X%XOX+X+X+XOXOXOXOXOX+XOX+X%X%X*X*X*X*X%X*X*X*XyXyXyXyXyXiXaXjXnXwXd.g w r m & 9 ` E T U m n n n n n x x m m m I m I I R R ~ Q R R ~ ~ ",
"b v v v b c - c R L L L L L K K v t t m m m u U U U M m m v y w k 9 . 7 6X(.J.J.J.P.P.P.K.K.K.K.D.D.S.S.B.B.B.B.N.N.J.}.%X=X%XOXOXOX+X+XOX.XOX%XOXOX%X%X%X%X%X%X%X%X*X*X*X*X*XyXyXpXyXiXgXNXcXqX<.6 6 = 9 E T m m m M p n n n n m x m y n M m U I Y ! ! Y v v v ",
"c c c v v t @ i Y L L Y Y Y K v x v m v v m m T T I m m m y w 0 0 q   J dXI.J.Z.L.P.T.K.K.D.D.D.D.V.B.B.B.B.V.y.B.B.N.C.Y..X%X&XOXoXOXoXOX+XOXOXOXOXOX+X+X%X%X%X%X%X*X*X*X*X*X*X*XyXyXyXyXaXgXvXMX<XS O & T m m n V m p n m M B u n M w y m m M m Y ! ~ R K K K ",
"c z c c x t @ t K v K L Y Y v v v Y I m m I E U T T U m v w 0 w w 1 . A R.W.Z.J.P.P.K.K.D.D.V.B.V.y.r.r.r.t.t.t.y.V.B.j.l.J.~.%X&X+XOXoXOXOXOXOXOXOXOXOX+X+X%X%X%X%X*X*X*X*X*X%XyX*XyXyXyXyXuXaXfXbXxX<.7 l n n n n m n n M U T m m n M B y x m m Y T ~ ! P P K ",
"v c c x x t @ t v v x v x x v x x m U O.} I Y E R T I m u w w w w 9 $ e g *.m.Y.T.K.K.D.D.D.D.V.V.V.y.y.y.t.t.t.y.r.t.y.r.9.C.U.|.OX+XOXOXOXoXoXoXoXOXOXOX+XOXOX%X%X%X%X*X*X%X%X%X*X*XyXyXyXuXyXpXiXgXnX5X>.7 w x m M n n n M m m m v Y R y v I m m M Q ! R P L ",
"L x x x c t @ t v v x x x x v v x m v  .' T R R E T m x y w q q q q X m s 8 j R.~.U.K.D.D.D.D.V.V.V.y.t.y.y.y.y.y.y.y.y.w.4.7.l.Z.T..X%X+XOXoXoXoXoXOXOXOXOXOXOX%X%X%X%X%X%X*X*X*X*X*XyXyXyXuX*XyXyXyXiXvXMX,XS 7 l n n M M m m m m I u m m v m m m M T Q R R L ",
"v c v x x q @ t v v v v m m m v y m m m T Q ~ E E Y v x y w q w q 0 + a m e 6 8 *.W.U.D.D.D.D.V.V.V.V.V.y.y.y.y.t.t.t.t.w.2.%.h.l.k.J.}.%X+XOXoXoXoXoXoXOXOXOX%X%X%X+X+X%X%X*X*X%X%X%X*X*X*X*X*X*XyXiXiXfXjXnXxX>Xg e n m m m m m M m x I T m m I M m N m v v v ",
"v v L x x t @ t v v v v y t t y m I I T T Y R R R Y v t w w w 0 q 0 $ u m u t w 8 j b.E.F.V.V.V.V.V.V.y.y.t.t.t.t.t.t.t.w.2.2.0.j.N.c.v.J.|.&X&XOXoXoXoXOXOXOX%X%XOXOX+X+X%X%X%X%X%X%X%X*X*X*X*X*XyXyXiXiXiXiXjXbX5X<.d w M m I M m M m m v m m m m m v u x x z ",
"z z x t x t @ t m x v v v y y v N v v T ' ~ Q Q T v t q q w y y y 0 $ u x q q y ` 6 8 1.E.D.V.V.V.V.V.V.y.t.t.t.t.t.e.w.w.2.2.0.9.j.N.C.k.v.T.|.+XOXOXoX.XOXOXOX+XOXOXOX%X%X%X%X%X%X%X%X%X%X*X*X*X*X*XyXiXiXiXpXgXjXmXeXH 7 n m U M m I I m I m U I a u u u x t ",
"v v x t v r @ t v y y v m m m m m Y Y Q Q Y T ~ v t r t y t w y y 0 $ u v q 0 t K t w 8 $.M.B.V.V.V.y.y.y.y.t.t.t.t.e.w.w.2.2.0.9.N.N.N.C.k.k.J.|.OX%X+XOX.XOX+XoXoXOX%X%X%X%X%X%X*X%X*X&X&X*X*X*X*X*XyXyXiXiXyX*XyXgXbXxX<XA s V M m M m m I m U m y y t u u i ",
"x z x y v q @ t m v x v N I M m N I T T T Y m Y x t t v v y y y u q @ t v q k 0 i v q 7 d $.:.M.B.V.V.y.y.y.y.t.t.t.e.w.w.3.2.0.r.9.j.N.j.N.c.k.v.Y..X%XOXOXOX|.oXoXOX%X%X%X%X%X%X%X*X*X*X*X*X*X*X*XyX*X=XyXyXyXyXpXyXaXvXnXwX<.g s V M m m v m m y y y y y u x ",
"z z y x v 0 @ r v m m m m N M m I Y T Q ~ Q v t t t t t y y y y u 0 @ v N 9 6 6 * 6 8 A p.<X9XtXF.B.r.y.y.y.t.t.e.e.e.w.w.2.2.0.9.9.9.j.N.l.l.C.k.k.v.T.OX+XOX+XoXoXOXOXOXOX+X%X%X%X*X*X*X*X*X*X*X*X*X*X*X*XyXyXyXyXpXpXaXgXvXmXqXS 7 l n m Y m y t q y x y t c ",
"x t t t t 2 @ 2 v v v v v v v v m T ~ ~ ~ T x t x x t t y u u y u > # 1 e 6 f g <.f.5XxXmXbXfXiX#XU.B.r.y.y.t.e.e.e.e.e.w.2.%.0.9.9.j.j.j.j.N.j.N.C.k.k.J.|.+X+X+X+XOXOXOXOX+X%X%X+X%X%X%X%X%X%X&X*X*X*X*X*X*XyXyXyXW.iXiXfXiXgXBXMX<Xg d M U I v y w x x x v c ",
"@ @ @ @ @ @ X $ @ @ @ @ @ $ $ $ : ; : < < : @ % : : % & & * O O o O 8 A i.2XwXmXmXvXgXpXaXaX*X*X*XyX/.F.r.t.t.e.e.e.e.e.w.2.%.9.r.9.9.9.j.j.j.N.j.l.N.c.k.k.Y.OX%X%XOXOXOXOX%X%X+X+X%X%X%X%X%X%X%X%X%X*X*X*X*X*XiX^.n.W.tXiXpXpXpXhXCXAX,.7 6 q , > % % % : : < ",
"@ @ @ $ @ % % : ; ; : > % > > : : < < - - @ ; ; @ + .     O 8 h d.eXxXmXbXvXjXiXyXyX*X-X#X#X#X@X@X@X#X$XU.r.5.r.w.e.e.w.5.&.2.r.r.r.9.9.j.j.j.j.l.j.j.N.C.l.k.v.'.+X&X+XOXOXOX&X%X+X%X%X%X%X%X%X%X&X%X*X*X=X=XyX;Xs.n.^.;XpXyXyXpXgXhXNXmXeXf o + $ $ % $ $ @ @ ",
"I m v m x N m v I I T U B T T Q ^ P ~ m q k e & 7 l J i.,XqXMXbXvXhXiXyX#X-X%X@X%X%X@X@X.X.X.X.X.X}.{. X X~.F.5.r.w.e.e.3.&.5.r.r.r.9.9.8.8.j.j.h.l.N.j.N.N.c.k.g.J.}.%X&X%XOX&XOXOX%X%X%X*X*X%X&XOX%X*X*XyXpXtXW.-.n.tXiXyXgXpXiXgXpXpXhXbXMX<Xl 6 w x x w : t ",
"E T n N M B m U U U U U T Y Y ! R N k 6 f g >.<X6XsXjXhXhXjXaXtXyX#X#X@X@X@X@X.X.X X.X.X}.}.'.'.'.'.{.T.~.~.~.U.9.r.w.w.3.&.5.r.r.9.9.j.8.8.h.h.h.l.l.j.N.N.l.c.c.g.k.Y..X&X&XOXOX&X&X%X%X%X%X%X%X%X*X*X*XyXQ.W.tX^.yXyXyXyXW.fXgXiXuXpXhXvXmXmXAX,.d V B q > R ",
"m m w w y m m m U M B V V l l V F J i.,X5XxXbXjXgXuX-XOX%X@X@X@X$XXX.X.X|.}.}.}.}.}.}.}.}.'.'.'.T.'.}.}.~.~. X~.~.B.w.u.3.&.r.r.r.r.9.j.8.8.8.h.h.h.h.l.l.l.l.C.l.S.k.g.H.'.+X&X%X+X%X%X%X%X%X%X-X&X-X=XyX^.m.;.x.#XuX*XpXQ.n.Q.n.pXyXyXgXhXjXNXBXmXqXF n y > Q ",
"I y y y y r u t 9 e 7 d h >.f.6XsXjXjXfXyX#X@X@X.X.X.X.X.X.X|.}..X|.}.'.'.'.'.'.'.}.}. X X X X X.X.X X X~.T.U.U.F.F.u.5.3.2.u.r.r.9.9.9.8.8.8.8.h.j.l.j.l.l.l.l.N.N.C.c.k.k.J.|.&X&X%X%X%X%X%X%X-X-X-X%XyXb.b.m.!.=X*XpX^.s.s.n.W.pXiXgXhXhXgXgXvXZXLXIXV q : ] ",
"y y y w y 9 6 7 A <.<X6XsXsXdXtX$X!.!.!. X|.T.'.T. X@X X}.'.}.'.'.'.'.'.'.'.'.'.'.}..X@X@X@X$X$X~.U.F.S.j.8.8.6.4.4.%.#.#.2.u.r.r.r.r.9.8.6.6.6.8.j.j.j.j.l.N.j.N.S.N.l.S.k.g.v.Y.|.&X&X%X%X%X-X=X=X&X*Xa.b.a.W.uX&X*X^.s.s.a./.pXyXpXfXfXgXhXhXbXDXLXIX` w $ ~ ",
"y w q w 9 7 *.R.rXiXyX@X$X X X/.;.m.m.;.m.~..XY.g.x.(.$X}.'.'.'.'.}.}.}. X@X@X@X*X%X.X~.T.U.C.N.9.0.5.5.5.5.5.5.0.9.j.9.7.%.2.u.r.r.r.9.6.7.7.6.6.9.j.j.j.j.j.N.l.N.N.N.C.C.l.k.h.J.T.OX%X%X&X&X=X-X=X*X$XG.^.uX*XyXpXn.s.a.^.pX*XuXpXpXhXfXNXnXGXLXLX1XV q : Q ",
"p y x q 7 ,X9Xm.v.P.'.'.'.'.}. XG.n.m.W.a.=.~.@X/.a.-.m.T.}.|.}.|..X@X*X*X#X$X~.I.I.v.c.l.l.j.9.8.0.0.M.F.E.E.(.0X0XtXyX$XM.&.&.0.r.r.9.7.7.;.7.6.8.9.j.j.j.j.N.N.l.N.N.N.N.N.C.N.h.k.J..X%X&X%X*X&X*X*XyXyXuX*X=X;XW.rXR.Q.gX*X=XuXpXpXgXhXnXSXLXPXqXJ k z @ ~ ",
"m y t 9 d qXmX/.H.J.T.T.'.'.H.g.m.tX!.a.;.m.m.x.@X}.H.G.{.XX%X*X*X#X#X X~.U.U.S.S.A.S.C.N.N.C.S.(.^.dXcXmXFXDXGXJXSXNXyX XS.%.#.&.4.u.u.4.4.7.7.7.8.8.h.h.h.j.l.l.l.l.l.N.N.N.N.N.C.l.h.v.T.OX&X%X&X%X%X*X=X*X*X*X-X!.W.^.aXuXuXuXuXpXuXgXvXFXLXLXqX:XG k 3 @ R ",
"y t r q d qXcXhX@XI.Y.T.T.'.Y.g.-.x.!.G.x.W.m.;.x.H. X X*X@X*X-X#X#X#X~.I.A.A.A.S.S.F.U.(.$XfXjXCXZXDXJXJXJXJXLXJXGXBXyX}.Z.4.&.&.&.%.0.7.%.4.4.7.6.h.h.h.h.z.h.l.l.l.l.N.N.N.N.N.N.S.c.k.k.J.}.%X&X&X%X-X*XyXuXuXpXyXtXyXpXuXuXpXuXuXpXhXCXJXLXwX,Xp.k k 3 $ v ",
"m y t 9 d eX4XdXvXiX!.Y.T.T.}.@Xx.g.G.@X$Xx.g.n.b.=.$XiXtXyX#X*X@X.X XT.J.J.U.T.$XtXjXmXZXDXJXJXJXJXJXGXJXJXGXHXHXDXCXiX}.Z.4.%.&.%.%.%.0.4.%.7.7.7.7.6.6.6.z.j.j.l.l.l.l.N.N.N.N.N.N.S.C.k.k.k.Y.}.%X&X&X=XuXuX*X=X=XuXuXuXyXuXuXuXpXgXCXJXLXIX<X<XX.w x 2 X m ",
"m 0 t 9 A qX4X8X9XvXhX$XY.Y.T..X*X@X#X$X*X$X!.!.(.tXiX#X#X$X@XXX X{. X X$X#XpXhXNXCXSXKXJXJXLXLXJXGXHXHXGXDXGXGXHXDXCXgX}.Z.7.4.%.;.4.4.6.M.7.=.7.7.6.g.6.6.8.j.j.j.j.l.l.l.l.N.C.N.N.N.S.S.C.l.h.v.Y..X&X&X*XpX=X=X=X=XuXuXuXuXyXpXhXCXJXLXIX<X,Xi.l w r 2 % y ",
"% $ ; = g 5X7X7X8X9XbXBXiX~.T.P.T..X@X#X@X@X*X%X@X@X{.{.{.}.'.{.-XaXgXvXCXSXKXKXJXJXJXDXGXGXHXHXGXGXGXGXDXDXDXDXDXSXCXlX{.v.6.4.6.7.k.m.I.tXjX8X=.=.q.7.6.8.8.9.j.j.j.j.j.l.l.l.N.C.N.l.l.N.S.S.C.k.k.v.}.&X&X&X*XuXpXuXuXuXuXuXpXjXmXJXLXHX<X<X1X+.* . , $ X @ ",
", m ; = h 4X7X7X8X8X9XcXBXfX~.T.T.T.~.~.{.{.{.{.[.{.{.XX@X@X*XzXkXVXZXSXKXGXGXGXGXDXDXDXDXDXDXDXDXDXDXDXDXDXDXSXZXZXCXlX{.v.h.h.z.I./.#XgXkXBXCXbXs.=.;.6.6.6.8.8.j.j.j.j.j.l.l.l.N.C.N.N.C.C.C.S.S.c.k.k.J.{.&X=XuXuXuXuXyXyXpXgXCXGXPXPX,X>X,Xp.V > 1 > 2 r 1 ",
"t ~ < O H qX4X7X7X9XrXrXdXbXBXtXT.Y.Y.T.'.{.XX.X@XyXyXgXNXVXZXZXZXSXSXSXSXSXDXDXDXDXSXSXSXSXSXSXSXSXFXSXSXFXFXZXZXCXCXhXXXY.I.!.tXgXkXBXBXBXBXCXCXZX3X-.=.q.h.6.8.8.h.h.j.j.j.l.l.N.C.N.l.C.Z.C.C.C.S.Z.c.k.v.Y.@X&X&X=XpXuXiXhXCXDXPXPX,Xd.,X<X+.B q t 4 t 0 0 ",
"r 5 <   <.4X3X7X7X8X8XsXsXsXmXCXyX{.T.OXOX%X*XuXgXlXVXVXBXZXZXZXZXZXZXZXZXSXSXZXSXSXZXZXZXZXZXZXZXZXZXZXZXZXCXCXCXBXBXNXyX*XpXlXlXNXBXBXBXBXBXNXBXBXZXmXR.=.;.g.6.8.8.h.h.j.j.j.l.l.N.N.C.C.C.Z.C.S.C.Z.A.Z.k.k.H.{.%X&XuXpXgXNXDXLXPXqX>X<X,Xi.D q z 3 t t t t ",
"3 i 4   >.5X3X3X3X7X8X9XsXsXcXnXVXhX~..XpXlXkXNXlXlXlXlXNXNXBXBXBXBXBXBXBXCXCXCXZXCXCXCXCXCXCXCXCXCXCXBXCXBXBXBXBXNXNXNXkXkXNXNXkXNXNXNXNXNXNXkXkXNXNXNXCX8X;.=.7.6.6.8.9.h.j.j.l.l.l.N.N.C.C.C.C.C.C.C.S.A.A.Z.k.k.J. X%XpXvXSXPXPXqX>Xd.>X<Xp.9 q 3 3 4 t t i ",
"5 x 4 = ,.4X3X3X3X7X8X9XsXsXdXcXnXBXG.v.*XlXpXgXpXpXpXpXgXhXkXkXNXNXNXNXNXBXBXBXBXBXBXBXBXBXBXBXBXNXBXNXNXNXNXNXNXNXkXkXkXhXvXhXhXhXhXNXlXgXgXlXkXhXvXBXbXmX5X*.$.:.q.q.6.8.h.j.j.l.N.N.N.N.C.C.C.C.C.C.S.A.A.Z.Z.c.h.v.Y.#XBXJXPXUX>X>X,.>Xp.G $ 0 t 4 4 4 t 5 ",
"r K > * >X4X4X3X3X7X8X8X9XsXsXcXcXbXx.g.{.&X-X*X*X*X=XuXuXpXgXgXlXlXkXNXNXBXBXBXNXNXNXNXNXNXNXNXkXhXhXlXkXkXhXhXlXlXpXgXlXgXpXpXpXpXyXuXpXpXgXgXgXjXsX6X>X,.J A g h *.:.q.6.8.8.j.j.j.l.l.l.C.Z.Z.C.C.Z.A.A.A.A.A.K.D.l.k.m.BXLXIX>X>X>X,.>XD 9 $ q t r 2 2 r 3 ",
"t v > 8 <X5X3X3X3X3X7X8X9XrXsXsXcXvXm.g.T.oXOXOX%X%X&X&X=XuXpXpXpXgXgXhXvXvXvXkXhXhXlXhXhXhXlXhXgXgXgXgXgXpXpXpXpXpXpXpXpXaXuXpXuXuXpXgXgXjXrX3Xf.*.>.h A G V n n G S $.:.q.7.8.h.j.j.l.z.c.C.C.C.C.C.A.A.A.A.A.A.A.S.D.A.v.rXxX<X>X<Xp.i.F 9 0 > 2 t 2 3 2 4 4 ",
"v t ; 6 ,X4X3X3X3X3X7X8X9X9XsXsXsXbXm.g.T.oXoX[.OXOX%X%X&X&X=X=XuXuXpXpXgXhXhXgXgXpXgXgXgXpXpXpXpXpXpXuXuXuXuXuXuXuX=XuX=X=XuXuXpXiXdX8XR.d.>.H F D l l V n M m M n V G S *.:.q.8.h.h.k.k.c.N.C.C.C.C.S.A.A.A.A.A.A.A.A.J.~.b.:.>X,Xi.p.+.e 0 y < < r 2 2 q 1 t ",
"x r - e qX4X3X3X3X3X7X7X8X9XrXsXsXvXm.7.Y.].].].|.|.OXOXOX%X%X&X&X&X=XuXuXpXpXpXuXuXpXpXuXuXuX=X=X=X=X=X*X*X*X*X*X*X*XuXpXgXfXrXQ.f.1.>.h A 6 * ` M m T I I U U m I m m V Z $.:.q.b.z.h.l.l.l.C.C.C.S.S.A.Z.A.A.A.Z.J.J.L.I.=.f.<X:X:XF w 1 t t : < 0 q 2 2 2 x ",
"4 t < w 1X4X4X3X3XQ.3X7X8X9X9XrXrXjXE.g.L.`.`.`.].].].].|.|.OX+XOX%X*X*X*X=X=X&X&X=X=X=X*X*X%X%X&X%X%X%X%X%X%XOX%X*XyXrX3Xf.d.>.A A D l e s 6 * 9 1 y y v R I K v U T M n V G Z 1.:.b.z.j.l.l.C.C.Z.C.Z.Z.Z.A.A.A.A.J.J.T.g.:.<X,X1X+.k 1 3 3 4 - < 2 4 5 5 r x ",
"q 4 < * Z ,XqX4X3XQ.3X7X7X8X8XrXrXfXW.g.L.`._.`.`.].].`.].].|.oXoXOXOX+X%X%X%X%X%X%X%X%X+XOXOXOX+XOXOX%X*X*X*XtX^.R.s.1.>.S Z 8 . X @ # . $ . . . + . + @ # @ @ @ $ * * $ + X * 8 h :.b.M.l.l.l.N.C.Z.Z.Z.A.A.A.A.J.Z.K.U.=.f.1X2Xp.6 + # @ # # X 1 1 4 4 5 i r ",
"2 z : @ * 6 i.qX3XQ.7X7X7X8X8X0XrXfX(.g.L._._._._.`._.`.`.].].[.|.|.|.oXoXOXOXOXOXOXOXoX|.oXoX|..X@X*X#X^.Q.f.,.>.H F D V l l * * q w y y y u u m m m v m x q q w w & * n M m w & 7 Z 1.:.M.z.j.N.N.C.S.S.S.A.A.Z.Z.J.T.b.*.,X2X1Xl : 1 3 4 : : & 1 2 5 5 4 4 5 ",
"q Y 2 X 2 & 6 :X4X3X3X3X7X7X8X0XrXdX(.g.L._._.).).)._._._.`.`.].].].].].].].oX|.|.].].|.|.OX%X$X$XQ.R.s.*.>.H F D B T T I M M & q B T T T T U T U E T M M M M M B [ n * { O.E v x t e 7 $.:.b.M.l.C.C.C.C.S.A.A.Z.A.K.U.=.f.qX2XD w u v t r 2 w 0 q t 5 5 5 5 5 ",
"t Y r : Y T v l >.eX4X3X^.^.0X7X9XdX^.g.J.P._._.`._._._._.`.`.`.).`.).`.`.`.`.].].].].OXXX!.R.f.,.>.H J F G l w ) T E E U U m % w T I U U m m m m m M M m v v m m ' M * M n y r x r 0 6 7 j *.:.M.C.l.Z.S.C.Z.Z.A.A.U.z.:.qX2XD 1 q v t r t 0 0 0 2 5 5 4 4 4 4 ",
"t } 5 , Y x v k 6 S ,X4X3X^.7X8X9XdX/.g.J.P._.).).)._._._.).).).).).).).`.`.[.XXXX!.G.s.s.*.>.>.F D D ` Q Y W I } E E E I I U % y Q I m I U M I U U M M m m m E Q E m > B v m x y r t y w 6 g $.:.b.M.C.C.C.Z.Z.A.A.U.=.<XUX+.. z b v r 5 r 0 0 0 r r i t 2 2 4 ",
"/ / r 2 I y k k x l D <X4X7X8X7X8XrX/.g.J.P.P.P._._._._._.).).`.).`.`.`.'.!.W.R.f.d.<.J D D D D ` { ] ' T R E ~ R R T Y N M U % w Q m m I N M M m I m y y m T E _ ' m % ] ] { ` m m m u y w k l Z <.s.M.S.C.Z.C.Z.U.b.*.qX:Xl = Q N v x t r 0 2 2 r i i t 5 t v ",
"Y ^ t , I v q q N M n G i.4X9X8X8X0X/.k.J.P.P.).P.P.P.P.P._.[.[.XX!.!.G.n.s.*.h A D ` Q ~ / } ' ~ Q ' T T T T m m Y Y M N B T % t Q m N Y N N N m I U m U E ) T E | M %  .[ [ [ { ' _ T m x c x t 7 j :.M.m.C.C.A.~.$.>X1XD n % Q x y v y r q 2 t r r r t x Y Q ",
"P ^ , 1 m y x y y m U n 7 H eX9X8X0X/.k.J.P.P.P.P.).P.P.P.T.!.Q.R.f.,.>.g l 7 e k m T R ~ E E Q Q E E E E m u 0 y n n M B T ' > y ' m m M m m m m m E ' ' ' T T ` ] n &  .[ [ [ [ ` ` ' E m v K v 9 7 Z 1.R.M.S.U.b.$.1XD C u ; m y n m t 5 r x m x r 0 t v Y R ",
"L R 1 > z q v v I m Y v x 7 g ,XwX8XtXk.J.K.L.Y.T.T.Y.Y.G.n.:.*.h S l 6   x v v v Y R R ~ T I T Y Y R T m m B ` n B B B ) ` [ > t ' m x m y u m m m U U T T T T B { n 9 X.X. .[ { { { ` U v u K K t U B Z >.:.R.^.$.S X.V Q y : m u x u u i t z m v y r 0 t v L ",
"v x : : Y t v v I Y I i T y l Z i.wXtXv.J.P.U.!.Q.R.f.,.>.S d 6 7 e w w + T ~ Y K T Q R T Y Y I I I m m m m U U T B B T T T T & y Q y y y y y y v m U U T E ) E B { M &  . .' [ ' ' ' E I v v Y E ~ ' ` D F >.i.<Xg D V [ ` y > I u y y y t q 2 q t t t t t x v ",
"r t : 2 Y x x v Y v T T T u Y n 7 S 4XQ.!.W.R.s.1.S Z s e 0 2 0 m y U y @ Y v x v Y Y Y Y Y I K v v v v m m U U M M M B M B B $ w T t y y t t x v m m U U E E ) { [ M &  .O.{ ` ' T U I U v v m E ' ' E ) ` { +.+.{ [ V ` ` 0 % I v y w q q t t y t r t x v x t ",
"z z : 2 Y v x Y Q Y R Y x v R y M = 8 :X>X>.F D V V n u y t w w u M o.I X m v v x v v v K K v v v v v v m m M M m m m M m m n $ w Y t t y t t y y v m m I T E E Q ] M % ] | ` Q T m m m v v v I R E E u w B { X.{ { { B { ' q $ y y t t t t t y q q r t t y t t ",
"x v : 1 T v v R R ~ Y i r x Y Y L q + C V N ! ! ! K t t y u n m ` O.| y $ I v v x x x x v v v I v v v v m m m m U U m m n n n $ q T t t t t t t y x m m M M m m n T n % E T M T m v m v x v v T I Y E U M ` X.X.{ { { { T U t $ y v x t t t t t x v x x t r t y ",
"t N : 2 ~ I Y Q ~ Y r x T Q T Y b 1 & v Y R ! ! L v v m m p n B [ ' T y + E T v v x x x x v v m v v v v m m m M m m n n n m x % 2 T y t t t t t y x v m m v y w y n w % T m x m y y v v v v v Y R I T |  .[ [ { ` { ` [ M Q N @ t v v v v N v N m v x x y y x x ",
"x Y 1 2 } T T Y v v I Q Q Y Y Y b 3 % N / ~ o.( Y Q E m m T { [ T ` ] x X T I v v v v x v v v v v v v m m m m M B m m M m m y % 2 T y t t t t t t t y y u y w q y x 0 % T x y x y y v m m m x v T U T ' ' [  .{ ` ` T ` ' ' I @ v N I N N v x x x t t y x x x x ",
"t t : : x x t r r x Y Y Y K v t z : @ q ~ Q ^ ~ N Q Y I R ..o.]  .' ] v @ v m t v m m v v v v v v v m v m x x x m m M n y 0 1 @ r T t t y t t t t t t t y t y y y z 0 % I u x u m v m I I I v x v U E ' ' | O.[ { { ' { ' T m % v v v x x v v m m m Y Y v y t y ",
"# # % @ # ; @ @ @ - @ @ : @ - - # # @ @ + @ @ + @ @ @ @ @ # @ $ % $ + $ @ X X @ X @ % $ @ @ @ @ @ @ $ $ $ $ + + + . $ $ + + $ @ x T r t t t t t t t y y y t y y y y 1 $ M v m v m m M I I I m m m m U ' ' | O. .[ ` ' ' ' ' E > @ @ % : % : 1 : : : > > : @ # @ ",
"x x v v v x v v Y Y Y v v L v x r t u I R R E I T T Q T T E 0 $ ; 0 0 0 0 q 0 q t 0 0 > : # 2 r 2 t 1 0 y x y y y x x q > 1 t x Y x t t t t t y t t t t t t t q 0 0 > + U M m m m m U T U U U m x n m T ` [  .[ { { ' ` ' ' Q I m v x x v v v v t @ 1 Y I x y x ",
"Y Y v Y T R Q ! R R R R Q ! Y x v v Y ~ | | ..| | | { ' | | m ; 0 y y x t v x v x Y v y 2 @ m T x m x m m M M M m m n y w w r r t r t t y t w w 0 t t t t t 0 2 2 v x > U m m M m m U T U U I m m n m M T ' [ { [ { ` E ) ` ' ' Q Q T T T T T Y ~ 2 x ' ~ T T Q ",
"m v v Y R Q R R Y R ~ ! R R Y I v v v R ^ ^ / Q Q T Q Q Q m t ; t q t y r x t y x Q v N 0 @ m v v m v m n x n m n n m x y w w w q q t y t w q q t y t q t t r t v m t : Q U m m I T E E I U T I x m M B M U ` { { { ' ` ) ) Q ' ~ Q Q T T T T Y I : y ' Q T I m ",
"v N Y R T Y Y Y Y R ! R R R T T Y I Y P ! ^ ~ T y y M T Q N 4 - v v x x y x t x x T v T y $ T v v v v m m n n p n n x x y q 0 w t t t w 0 0 0 0 m M v t t t r x v y 2 @ ' E I U T T E U U U T U v m M M m M T Q ) ` ' ` ` Q Q T Q Q Q T T T T T T : x ~ T Q E U ",
"T T T Y Y Y R ~ Q T R R R Q ! Y Y Y L L L R Q m , u T Q C ^ z # b T t t u t t u m Y U Q t $ Q I v v m m m m M n M n n x y w q 0 0 w w 0 0 0 9 9 y x x t y t t x y v r @ ~ E T Y Y T T T Y Y U v m v v m m m I M T Q Q T E Q Q Q T Q Q Q Q Q T T Y $ y ' I T T I ",
"T I I I Y Y T R ~ T Y Y L R R L Y Y L v b T E m U } | | ^ ( Y % Y ] v x v u x x I T ~ ..v $ Q I u v I m m y y n n M M n y w w w q 0 0 9 0 0 9 9 1 w q t y y y x v N t - | R T Q E T T Y I I m v v x v v v v M N T T T T T Q Q T T T ! Q Q T T T I % y ' T Q E U ",
"Y Y I Y T T R R ~ R R Y v b R R b Y L K v I E U ....! / ~ ~ W ; v ~ Y v I I v x v m E | v $ ' v v m I m M y y n n B B n w w w w w q 0 9 9 0 0 0 0 w t t t y x x x v t : | R ~ ..} ~ R Y I v v v x x v v x x m N N I Y Q Q T Y I R ! ! ! Q R T T T : t Q T Q ' Q ",
"Y Y Y T T T T T Q Y Y Y b Y T v b b v m m m E E E R / R R R K ; t T R T Y ~ R I Y Q }  .m $  .m t t u v M u w n T T B n n n y w 0 0 0 0 0 0 0 0 9 0 t y x v m v v R x : ..~ R R / ~ ~ R I v v x x x x v v v v v N v N Y T I I T ! ! Q ! Q ! T Q Y : t ] ' Q Q T ",
"N I T T Y Y T T T Y v Y v Y Y m v m M m m M T T R R ~ R R Q I @ u R Y x v Y ~ R Q Q T ..y ; ' m t v 0 y T m m B ) ` ) ) n y w w 9 9 9 w 0 9 0 0 0 w y v m m m m m Y t % | ~ Y / / ( ~ Y x x x y x x v x x v v v N v v N Y Y Y N K Y T Q T T T T N % 0 | ~ ~ Q M ",
"T T I I T T T T Y T Y Y Y I N Y M M m m M I T Q Q Y Q Q Q Q v @ v Q Q Y v v v v u x y T y $ ' Q T I m m U T ' m a ' ' ) B w 9 9 9 9 9 q 0 0 0 0 w y y y x m m m m m y $ | E Y E ( ( / ! I x t t y x v x v x x v v v v v N N m v v v v N Y I Y v N : t o.Q I N Y ",
"N N Y I T T Y Y Y Y N N N Y m I M m m m N I T Q ~ Q Q ~ T Y x - v T Q Q / ~ R Y T T I ~ m ; | } T I T ' T '  .p p { { ' T n w w 9 9 9 0 0 0 w w t t y y v v m m v E m $ o.' Y ~ / ~ Q T I x y y t x v x v x v v v v v v v v v v x x x v v v x t v : 2 T v v v N ",
"x v I T Y Y Y Y Q Y Y Y I Y Y N M M I I I Y Y T Y T Y Y v Y t - t Y Q ~ ~ ~ / } ' E ~ } m > | ' } ~ E Q E E E m m U T B m m M y w q 9 9 0 0 w w t y y x v m m m m ] I $ ..' Y R | / Q T Y v y y x x v x x x m x v v v v v v v v v v x x t z v v v : 1 v x v v x ",
"N Y T T Y T Q ~ ~ Q ~ ' Q T Y m I T E T Q T T T Y T Y Y v Y t : v T R Q ~ / } } ' ' } ..' > U m } ' Q ' ' T U E T m m M v m I x x z w w t t t t y y t t u v m N m m y $ m E } ........| ' ~ T m v x v x v v N x x x x x x x v v K K Y v x t x v t : t ' ~ I u m ",
": : : : : : 1 1 1 > : 1 1 : : : : : > : : : : : : : : : @ @ @ # ~ ~ R Q | ..| ~ Q } ' ..' . ; > > : , 2 > > > > , , > > 1 > > : : > > % : : : : : : % % ; : : : % % % $ > 2 , , r r 0 2 2 0 0 > > : : : > > : 1 1 : : : : : : > : : : : : : ; : , . @ > > : : 2 ",
"v y r r t t t r t t : > v t t t r r r q 0 q 0 q 2 2 q q 2 2 v Y ~ ~ Q Q ~ E E R ' } ' } T > 0 0 0 , 2 , > , 0 2 , 1 , > 0 , > $ + % % % % % % : > : > > > > : : % > > > > , , r 2 2 , > > > > > : : : : > % X t v x t t r r r r x r q r v Y T Q Y m v v v v u u ",
"' T N v m I Y Y m Y 1 2 | Q N N N m v v v v v v v v v x v I ' ' Q ~ R ~ ' E ~ ' ' ' } } m y [ E m m U M U M m m m u x u y y y % % 1 0 2 2 2 0 t u y y y y u v m x m E E m E E R R T T Q E T U T m N x x x 2 @ | Y Y v v v x x x v x x Y R Q Q Q ~ R Q Q ' ' ~ } ",
"' Q T T E T T T T Q 1 q Y v v t y x x x v v v x v t t v Y Y T Q Q ~ ~ Y ' Q ' } } ' ' ..m u ' U m m m M M m u w w w 0 0 w 0 0 : > 0 0 0 1 0 w w x x y u v m m m m I T U U U I T E ' } ' ' ' | ' M m x y y t @ I v v v x x x y x x x x y I T Y Q / ~ Y R E ~ } } ",
"' Q Q E T I m m v Y 1 q Y x x x v v v v v v x x v v N T Q Q Q ~ ' Q T Q E } ' ' ' ' ' ' y u ' m m m n x y w 0 9 0 0 0 0 w 0 0 $ % 0 0 0 9 0 0 q y u n m v x m m m m m m U U T E E E } } ' ' | } U I m v v t @ T m x x x x v x v x t x v x Y R Y R R Y R R T Q ' ",
"Q Q Q E U I I T Y T 1 t ~ v x v x x x x x v v Y Y N v I E Q Q Q ' I Y ..' ' E E E ' E T , u ' m M m m x y q 0 9 9 0 0 q w q 0 $ & 0 9 9 9 0 9 9 0 y m m n x m M U I U T E E _ ' ' '  . .| ' ' _ T T m v v t # Y N v v x y v x y x v v v x m T Y R R R } / R R ~ ",
"Q E T T E T I m v Y : q N 2 2 2 r t y v b Y T Q N v N I U U T E E v T | } T ~ ' Q ' T m % u ' v m M m M n w 0 9 9 9 9 9 0 0 0 $ % 0 9 9 9 9 9 9 w y y q w x T Q ~ ' ' ' E U E ' ' ~ } ' E E ' ' Q Q I m v t @ T v x v v y x x v x v x y x v Y I R R R ~ } ~ R R ",
"I U U I M m m m I m 1 t N 0 r r r t v T Q T R Q T Y I T Q Q E E u m Q R Q E } ' Q T m U $ u Q v m m M m n y q 0 0 0 q 0 0 0 q $ % w 0 0 w w w y w 0 0 0 w t y x v T } ' E E ' } } } } ~ E ~ } T Q Q m m m y @ Q I y y v x t t v v y y x t v ~ I R R Y R R R ~ R ",
"m I I M m v m M v y $ t Y y v x v N Y Q Q Q R R Y I I U I v y 0 y T ' Q Q ' ~ T T I m I % u E m m m m m x y y w y w w 0 0 w y % > y y m T T x w 1 9 y Y T v t y v I ' } ' } } ' ' } } E ' | ..~ I M v v m y @ ~ Q v x x x m m x v y y y y v T Y Y R R R R R R T ",
"I m m U T M y t q t : t N t v Y Y Y Y T T T T Y v v m v y u T | ~ ' ' ' ' } ~ R I m m I $ y Q m m m m v u u p p n y y w y u m : : v M Q ] Q u w y v U | | ' ~ | | } ' ~ R ~ } ~ } } R u u u m u v m v m U u $ ' Q v x x v T Q v y x y t y y t I W R Y R Y Y Y m ",
"I m m m v y x m v m 1 t T t x v m Y Y T T T Y v Y m m I E Q E T } } } | ..@...R U I U m $ y ' m U U m m m M m M M M M U T E U > > I T m u y v Q ' ' ] ] ] | | ] | ~ ' ' E E ' E ~ } ~ I R R R T y m v m T v @ ' | m v I m v v x x y x x y y y I R Y I Y Y Y Y I "
};
