/* XPM */
static const char *xpm_[] = {
/* columns rows colors chars-per-pixel */
"128 128 252 2 ",
"   c #020101",
".  c #0A0201",
"X  c #0A0905",
"o  c #0C0B0B",
"O  c #060807",
"+  c #150705",
"@  c #17120D",
"#  c #141413",
"$  c #1A1513",
"%  c #1B1B19",
"&  c #0D0F11",
"*  c #250702",
"=  c #23120C",
"-  c #251C14",
";  c #2B1F16",
":  c #231D1B",
">  c #2A1F19",
",  c #38180E",
"<  c #1F241D",
"1  c #2C2017",
"2  c #2D231B",
"3  c #27231C",
"4  c #32251C",
"5  c #33281F",
"6  c #372619",
"7  c #1E2221",
"8  c #242423",
"9  c #2B2622",
"0  c #2D2924",
"q  c #2B2C2A",
"w  c #332721",
"e  c #352B23",
"r  c #3A2D25",
"t  c #352D2A",
"y  c #3A2E29",
"u  c #382620",
"i  c #3B3127",
"p  c #36312B",
"a  c #3D332B",
"s  c #3A352A",
"d  c #3C3631",
"f  c #3E3833",
"g  c #383837",
"h  c #2E312F",
"j  c #1F1D20",
"k  c #4D291C",
"l  c #682E1B",
"z  c #462C25",
"x  c #522E22",
"c  c #423326",
"v  c #42362C",
"b  c #49362D",
"n  c #44392E",
"m  c #4A3A2E",
"M  c #4B3225",
"N  c #55382C",
"B  c #413731",
"V  c #453B33",
"C  c #4A3D34",
"Z  c #443E39",
"A  c #4A3E39",
"S  c #503E35",
"D  c #583E34",
"F  c #67392D",
"G  c #49140B",
"H  c #4B4037",
"J  c #46413A",
"K  c #4D433A",
"L  c #494339",
"P  c #524236",
"I  c #52453C",
"U  c #59463D",
"Y  c #53483F",
"T  c #5A493E",
"R  c #5A4335",
"E  c #7B452D",
"W  c #674839",
"Q  c #794A39",
"!  c #3E3F43",
"~  c #483F40",
"^  c #3C4243",
"/  c #4C4541",
"(  c #4E4943",
")  c #4D4C4A",
"_  c #454443",
"`  c #534741",
"'  c #594741",
"]  c #554A43",
"[  c #5A4C44",
"{  c #554E49",
"}  c #5B4E49",
"|  c #52474B",
" . c #5B5047",
".. c #56514B",
"X. c #5C524B",
"o. c #575148",
"O. c #5C5651",
"+. c #5D5953",
"@. c #5D5C5A",
"#. c #545555",
"$. c #515150",
"%. c #624E44",
"&. c #614E4A",
"*. c #694C44",
"=. c #635146",
"-. c #62544C",
";. c #6A564B",
":. c #62584E",
">. c #6C594D",
",. c #6A5346",
"<. c #725A4D",
"1. c #74574A",
"2. c #635551",
"3. c #635A53",
"4. c #6B5B53",
"5. c #645D5A",
"6. c #6A5D59",
"7. c #695652",
"8. c #725E53",
"9. c #775E54",
"0. c #734B45",
"q. c #65615B",
"w. c #6A625C",
"e. c #696057",
"r. c #736155",
"t. c #72635B",
"y. c #7B655B",
"u. c #6C6662",
"i. c #6D6A65",
"p. c #6C6C6B",
"a. c #646464",
"s. c #746C68",
"d. c #76736D",
"f. c #797876",
"g. c #6F7374",
"h. c #864B37",
"j. c #8B5948",
"k. c #876758",
"l. c #956858",
"z. c #96664E",
"x. c #AA765B",
"c. c #AA6D5A",
"v. c #8A6C62",
"b. c #867167",
"n. c #977669",
"m. c #837C79",
"M. c #967066",
"N. c #A77767",
"B. c #B47E66",
"V. c #A87D72",
"C. c #7C837C",
"Z. c #86837D",
"A. c #9A8478",
"S. c #A98676",
"D. c #BA8A77",
"F. c #B58872",
"G. c #C28B75",
"H. c #C9967B",
"J. c #C68D73",
"K. c #7F8382",
"L. c #898887",
"P. c #968C87",
"I. c #95928D",
"U. c #9C9C9B",
"Y. c #969694",
"T. c #8B9191",
"R. c #A98A82",
"E. c #AB9487",
"W. c #B79886",
"Q. c #AB9C95",
"!. c #A4A29D",
"~. c #BAA597",
"^. c #A8A8A6",
"/. c #B4B2AD",
"(. c #B8B7B5",
"). c #B4AEA9",
"_. c #9CA19B",
"`. c #CA9885",
"'. c #D59C88",
"]. c #C3958C",
"[. c #D7A68A",
"{. c #C8A898",
"}. c #D8A794",
"|. c #D0AA95",
" X c #E3A994",
".X c #E3B49B",
"XX c #EAB89C",
"oX c #E6AE93",
"OX c #C9B4AB",
"+X c #DCBAA7",
"@X c #C5BCB8",
"#X c #CCB3AC",
"$X c #EDBEA4",
"%X c #E6BAA6",
"&X c #F5BEA5",
"*X c #E9BFB1",
"=X c #BDC2BB",
"-X c #F0C19E",
";X c #C3C1BE",
":X c #DAC3B6",
">X c #ECC2A7",
",X c #F3C4A5",
"<X c #F3C4AB",
"1X c #FBC5AB",
"2X c #F5CAAC",
"3X c #FBCAAD",
"4X c #F8C6A6",
"5X c #E9C5B4",
"6X c #F4CCB4",
"7X c #FDCCB3",
"8X c #F9CBB7",
"9X c #F6D2B4",
"0X c #FBD3B6",
"qX c #F5D4BA",
"wX c #FBD5BB",
"eX c #FDD9BC",
"rX c #F6D9B9",
"tX c #BBBEC0",
"yX c #BDC1C2",
"uX c #CCCCCA",
"iX c #C7C7C5",
"pX c #D7CBC9",
"aX c #CCD1CB",
"sX c #D1D2CE",
"dX c #DDD6CC",
"fX c #D4D4D2",
"gX c #D5D9D4",
"hX c #DBDAD5",
"jX c #DCDDDC",
"kX c #D9D7D5",
"lX c #D0D1D0",
"zX c #E4D5CE",
"xX c #FDD5C2",
"cX c #FEDBC3",
"vX c #FBDAC7",
"bX c #E3DCD9",
"nX c #EECFCB",
"mX c #DDE0DB",
"MX c #FEE1CB",
"NX c #FEE2C7",
"BX c #E5E2DC",
"VX c #FAE3D8",
"CX c #E3E4E2",
"ZX c #ECECEB",
"AX c #E8E8E5",
"SX c #F5EDE9",
"DX c #F8F2ED",
"FX c #F4F5F3",
"GX c #FEFEFC",
"HX c #FAF8F5",
"JX c #F0EEEC",
"KX c #DFE4E7",
/* pixels */
"P P P P P P P I P K r V o.` K K K ' ] o.[ ' Y ' ' I ' [ [ } } &.7.2.7.6.6.6.4.[ I I I P 4 A X.P ' I U [ &.&.[ [ -.:.&.-.} [ I e i } I I X.2.3.3.3.3.3.3.7.3.3.3.X.X.-.:.o. .X.-.7.7.2.X.X.-.X.X.I K I X.X.P 4 :.s.4.' } [ A K P P P K H A A H I K K K K K I I I ",
"P P I I I I I I I ' i V X.] ` K I ' ' [ [ ' I I I I ' [ [ [ &.-.7.2.7.4.2.-.-.' I I I P 4 V [ I I ' } -.-.-.-.&.' [ [ ' I P I r 5 v v V A A Z K K K Y ` ` ` I K ` K A V v v B B ' [ } [ ' ' ' I V A A I A a > v [ ' P I ' K I I I I K V m V V m V A K I K K K I ",
"I I I I I I I ' I [ i V X.' ' K I ' I ' [ ' I K I ' ' } } } -.-.-.2.-.-.} ' ' ' I I I K 4 n ` K I ' ] { } } [ I I I ' ' [ ' ' r 4 4 e e 2 2 2 2 2 2 2 2 2 2 2 4 4 2 4 4 4 2 2 4 4 w 4 4 4 w w 2 2 4 2 5 4 2 2 2 2 4 4 4 5 e e r ' I K C V V V n V A K I Y K A I ",
"I I I I I I I ' ' [ r V o.` ` K K Y I ' [ ] ' ' ' ' [ } -.-.-.} } &.-.-.&.' ' ' I I I H 5 v K V K K ` ] [ ] [ [ } } &.-.-.} [ 5 r V ' [ [ X.{ { { ] ] ] { { [ { I I ' ' P A A A A V 4 u V V V B n V v v V V K A A A A n v v 4 e Y V V A V V V V V V V A K A V P ",
"I I I I U I U I I [ r V X.` ] I I I I I ' ' [ [ } [ [ [ } X.} } [ } } X.} [ ' ' ' ' I K 4 i A V A K ` ' ] ] } X.} } &.&.&.&.&.z v [ X.-.7.-.-.-.7.-.X.X.:.2.-.X.' ' ' [ ' ' [ -.6.-.y v -.-.} X. .o.X. .-.X.} } X.} X.-.-.' e e I v v K K A V V V H A V A A C P ",
"I ' U U ' U ' ' ' [ i A X.` ' ` I Y I I I ' [ [ ' [ X. .} } } } [ ] [ [ ' ' ' ' ' I P A 4 a K A I ' ' ] } 2.-.} &.-.-.2.' [ [ r v -.' I ' ' X.X.Y  .:.3.:.[ K K ' ' I I ' ' ' X.w.7.r a -.} ] X.' ` ] ' [ ' P ' ' I ' -.-.[ a r [ A C I Y I K V V K K K H K I Y ",
"I I U ' U U ' ' ' [ i V o.' ' I I Y I I ' ' [ [ [ X.X. .} X.X.X.[ ' } } ' ' ' ' ' A K V 4 v ' A A K K ' } 7.-.[ } } -.7.} X.-.r a -.' P I I ' I -.:.:. .I A I [ ' ' ' ' ' ' ' ' -.-.y B X.{ ] [ } { { ] ` ` ` ] [ ' ' X.X.} B r [ ' I K K K V v V K K K A P I I ",
"I I Y ' ' U ' ' ' ' r a ' ' ' I I ' I ' [ [ X.X.:.-.[ ' ' X.-.-.[ ' 7.7.} ' ' ' I K I A 2 a ' A K Y { X.X.&.-.-.2.-.7.:.-.-.-.e n } I ' ' I Y [ [ [ [ Y H C K Y ' [ ' ' ' I I ' [ [ y V X.[ } ' ] ] ] ] I ' } [ [ [ ] [ ' [ B u [ } [ ` K V V V I K K K K I Y I ",
"I I I Y T U U I ' [ i 2 e i a a v a a v v v v V V a v a v A V v n V C V v v n a a y 5 e 4 w V V v a V K K K I K K P A m Y T m 1 c [ R ' I P A P P I I I I P K I ' ' ' [ Y I I '  .-.r n :.{ { } ' [ [ X.w.X.' [ [ ' ' [ ' [ v r X.' [ ` K A V I ` ` K K P P I I ",
"I I Y I I I I I I ' r 2 r 4 5 4 e 4 4 5 4 4 4 e 4 4 e 5 4 4 4 4 ; ; 4 2 2 4 4 2 2 2 4 4 > 2 w 2 2 4 4 - 4 2 2 2 4 1 6 6 1 6 6 6 R %.U T T T U T U U I I I I I I I I P P I I ' } X.-.y V :. .{ { ] ] ' [ -.' ' ' I I I ' ' [ v e [ ` { ' I I K ' ' ` K K I K K K ",
"K I I P P K P P I I r a I H ' [ H K K K K K K K Y Y I I I I I A 4 a K K K ' ' } K V A V a A A K ' X.' w ' -.[ [ [ %.*.W 1.S.n.V.n.9.1.W ;.%.[ I [ Y I P I P P I I U I H H Y [ [ X.:.i V :. .{ ' ] ` I I ' I ' I I I I ' ' [ v e { ` { ] { ] ` { ] ] ` K K K K K ",
"K K H H K K H A K K w v ' K [ X.H K K K K K I K Y ' ' ' I I ' I 2 V { I I [ } -.' A K K A K / } } 2.X.w X.4.-.;.,.1.W V.|.8XvXxX+XA.k.1.,.>.%.[ Y I I I I I P I P ' [ I P I [ [ X.-.i V :. .{ Y K Y Y I I I ' I I ' I I I [ v e [ ' ] { [ [ ' ] ] [ [ K I A A K ",
"K K K K K K H A K ` 5 V K V H A K K K K K K K K K I K P P I ' P 4 n K V A Y I ' [ P A K K K K / { { { w } 7.*.*.0.k.{.xXvXwXwXwXMX5XM.k.R R [ ' I I I I I I I I A I ' ' I I [  .} X.r V -.[ { Y V K I I I I I ' I ' I I I ' v e o.{ ] { { { ' ' ] { [ ' ` A A K ",
"K Y Y I K H K K H I 2 n K V A H K K K K K K K K K K A K I ' ' A 2 v V V H K K ' [ } ` K A A ` | { ..{ 2 A 7.7.*.n.5XVXxXqXeX0X9X0XNX].W M U T Y I P I I P P P S K P I ' ' ' [ [ [ X.r V X.' ] I V I K I I I I ' I I I I I ' a e X.[ ] { { { ] ] ] ] ] [ ] ` K K ",
"Y ] ' I K K K K I ` 4 n K V A K K K K K H V H K H K I K K I I K 2 H I K K A H K K ] ] ` K V K / / ( / y A { r + ;.:XMXvXqXqXwXwXwXxX5Xk.W N C K K H H P I I P C I I I ' [ [ [ ' [ [ e V X.Y ' I I I H I I I I I I I I I I Y a e } [ [ [ [ [ { ] { { ] { K { ] ` ",
" .] Y K K K K A H H 2 a K V V K H H H H V n V H A A K V V K A V 2 Y I A H H K C K K K K K A V A / ~ _ p 9 @ . . . 1 Q.MXvXqXeX9X0XwXcXS.W W S v A Z V K { } [ I H P I Y ' [ [ ' [ ] e V X.` ' '  .I H ' P I Y I I I P I I I a e [ [ [ [ [ [ { { | { ] | V ` o.{ ",
"{ o.{ Y ' ` I I ` V 2 V K V H V V H A A V n V V V V V V B V A V 1 I I H C H K V H K K K K A A A A | 0 X         . . + b.vXNXrXrX9XeXwX%XQ F t.m.f.d.d.d.p.#.K o.[ K K ' [ X.} ' [ [ r V X.' ' ] { ` K K I I I I H C C I I Y i 5 V A K I [ [ [ } } } [ | K ] } X.",
"o.X.o.{ } o.{ } { K 9 V Y V V V V V V V V V V V V B B B a a V V 2 Y K H H C H K H K K K K A A A / $   .           O . . ;.:XNXrXrX9X<XwXG.W VXGXHXFXFXZXKXiX^.d.3.{ K ' ' } ' X.[ [ r V X.Y Y ' K K K K K I I P H C C H I ' v 4 A A K I [ [ } } ] ` I } X.X.[ } ",
"o.X.o.o.{ { { { { / 2 V o.K H V V n V V n V V V V d B V B B V V 2 Y I H P P A A K K K K K A K K f   .   .             . . r {.VXxX2X$X1X&Xl.SXHXGXGXGXGXGXGXGXHXZ.2.K X.[  .' ' [ [ r V -.` I I K I I P P P I P I A A Y I P i r I ' X.-.} [ } } X.[ [ -.[ [ X.X.",
"o.o.X.X.o.o.o.} ` K w V o.` K K K K K V n V V V V B B B V V V V 2 K ' I I Y I I I K K K K K V J J X   .                 . . = A.nX6X2X,X7XF.E.).Y.L.m.m.L.^.uXGXd.3.| X.' } :.4.t.-.r V X.K P I I I I I K P I I A A V A I ' v 4 P ' -.7.X.[ X.X.[ ] ' } } [ [ [ ",
"r y i i r r r r w 0 2 2 y r r y r r r e w r r p r r w 9 w r w 2 3 e a V v v B A V K V V V V V Z d . .       O               . . ;.:X8X,X7X`.G = .       . O # ) O.u.` V K K I -.[ K 2 V -.K K I P I I K H K I I H H A K ' ' V 5 4 4 5 e 4 4 u 4 2 e 4 ; 4 ; 2 r ",
"> 2 w w w e r r a s a a a a a a V a a i r 5 3 2 e s a i i i e 5 2 - > 2 > 4 4 2 2 2 2 3 3 2 3 3 t X           $.g               . v {.xX7X`., . .   O           /.!./ 3 4 4 4 5 4 4 - A -.K H P P P K H A A A K C m C I ' P I } ' K A V v v A A C V V V A P A - ",
"e V K ` { o.o.X.X.o.X.X.o.X.X.{ { K K K K i 5 V K { X.o.o.{ K K V C A V B K Z B { { ` { { ` a 0 d O   O     #.iX$.          O     . = S.xX}.* * : % # % % @   % FXfX5.K V A V V a a 2 V X.K K I I K C C A V V A P A A A A V K ` [ ' ' I K I [ -.X.} -.X.' :.4.a ",
"r K } } X.o.{ o...X.{ o.o.` ] ` ( K ` ..` i 0 ( ( { { | { ` K I I I Y I ` } { O.5.O./ { o.} V w /       o L.ZX^.h       . .       . . + M.V.N W @XbXCXjXfXuXp.) GXFXp.{ V K P I I K 4 V [ I ' I I A m m V V V C V V A A A B V K I I I I ' ' ' } [ [ ' [ } I ' V ",
"r { Y [ X.X.o.o.o.o.o.{ o.o.{ ` ..{ { ` K a r { | | | | | ` I K I I P K { X.O.5.+./ K K K -.V r [ u.8   T.GXGX@X. . . = 6 6 + . . . . . + N {.E.n.HXGXGXGXGXyXK.GXGXY.+./ K I I I I y V o.` I K A v V V V V V A V V V V V V V K I I I ' ' [ [ [ } [ [ ' ' ' } C ",
"e ' K '  .o.o.o.{ o.o.o.} { o.X.{ ..{ ( K s t ..{ { | ( K K K K I P Y [ { X.O.( K ` K I ' 7.v c &.;XL.& U.GXCX/ . 5 A.{.+X|.~.R.k.b @ . + M.VXVXn.#XHXGXGXHXT.Y.GXGX(.+.| ` Y I I K w B X.K K K A V V V V A V V V n v V V B V A A A K P I I I K I I Y ' I I I y ",
"e ' K I ] o.o.o.K K { o.o.o.3.i...{ ` K K s r X.` / / K K K K K I I I o.X...{ / ( K P I I U 6 6 ;.P.5.X q C.g . r {.vX0X9X9X0X6X6X5XW.9.x 5X.X.X`.S.VXHXGXGXp.tXGXGXAXi.+.K Y K Y ' e V X.K K K A V V V V H H V V n v B V V V A A A A A K K K A C C A K P I I i ",
"4 ' K I ] o.X.o.` ` { o.o.o.X.e.X.{ ( K ` V r o.K K K K K K K K I I I  .o.{ K I C U >.,.*.R D W 1.v.U . . . . R 5XqX%XwX0X7X3X3X2X6XqXqX+X%Xx.'.}.V.zXjXFXHXg.iXFXGXGXZ.3.{ { ] A ' r V 2.` o.] K K K K A H K V V V B B V V A A A A A V A A A A H A A A A H I i ",
"e ' K K ' X.X.X.X.X.X.o.....{ ..o.o.{ { X.V e { K K K K K K K K H I ' } ' [ I A ,.k.E.W.].{.{.W.S.l.j.F F G G V.`.N.}.xXwXwXeXwX0X0X,X,X7X`.H.7X}.n.zXaXCXlXg.fXZXGXGX(.u.2.X.[ K [ y Z 3...O...{ { ` ` K K K H V V V B B V V V V A A A A H K H H A H A A A K r ",
"e ' K K ' o.X.X.o.X.X.o.X.X.X.X.X.X.X.X.X.V w { K K J J K H H H I I I I ' I C <.#XqXcXxXcXcXxXvXxXwX7X&XoX'.c.h.j.D.wXeXqXwXwX0XeX2X,X4X7XF.x.1X}.S.BXjXAX(.p.jXCXGXGX;X{ w.X.o.X.X.y Z e.X.X.{ } ] { { ` ` K K A V V B a B V V B V B v B V K K C A A A A A P y ",
"e ' K Y ]  .X.X.X.X.X.X.X.+.+.O.O.X.o.X.o.d w ] J J Z V V H K K Y I K I ' S U ~.vXcX0XeXwXwX0XwX0XwX2X3X1X3X7X,XwXcXwXqXeXwXwXxXwX0X4X-X4XF.B.}.}.k.P.f.L.p.d.hXjXGXGX@.@ s.X.7.2.-.y V 5.......{ { X.{ ` ` K K H A V V V B V V Z Z V V V K ` Y H H A A C A P y ",
"e ' K ]  .o.X.X.2.X.X.X.O.3.3.3.3.o.o.X.X.V w K J J Z V A K K K K K K ` I P 9.xXxXwX0X0X0X9X0X0XwX9X6X,X,X,X,X3X0XrXrXrXqXwXwXwXxX6X4X,X1XXXXX`.}., .       d.bXfXGXsX  . w.3.2.2.2.a s X.{ { { { o.3.o.K ( K K K H A V V V a B B V V V A K K V V V A A A A P r ",
"5 [ K [ X. .X.X.X.X.[ :.3.3.X.2.X.X.2.2.3.J 5 { K A K I K A H A K Z / / ' S S.cXrXrXqXwXqX9X0XwXwX0X7X>X4X-X<X2XwX9XrXrXrXqX6XwXwX<X3XoX[.0X[.`.D.+ .       q.jXfXJX#.  . 5.i.+.O.5.i i X.X.{ { { ` K K K K K K K K V V V A V V a V B n v V V A C V V A H A K i ",
"e ` I -.[ ' -.X.X.X.:.X.w.2.X.X.X.o.X.2.3.K w { { K K K I ' ' Y A / / ` I R |.NXrXrXrXrXqXwXwXwXwXwX>X2X,X4X2X,X0XwXeX9XrXNX'.}.7X,X3X.Xx.4X1X&XF . .       g jXmXU.    a.Y.i...+.2.y a X.X.{ { ' ' ` Y I K K K K K A A V A V A V V V A V V V C V A H A A H K r ",
"e ' ' } Y I  .=.-.} :. .6.o.o.{ { { o.o.2.K 2 a H n a a v V V m V V / I S 1.%XeXwXqXwXwXwXwXwXwXqX9X<X,X4X4X<X<XwXwXqXwXxXwXj.F.7X4X2X7Xz.h.'.N.U ` Z Z g 8 % iXjX0   # jX(.i.+.X.2.a a X.o.o.o.X. .[ { [ [ ] ` K K K K H K A K K A K K H K K K K K H H I ` K e ",
"4  .[ U [ [ [ -.-.=.} [ X.[ ' ' ] ` { } -.K - 2 r w 4 4 5 5 5 4 4 ; w 2 6 1.8XxXwXwXwXwXqXwXwXwXeX>X<X,X,X1X,X,X,X0XwXxX$Xh.l '.3XXX,X0Xc.E l.v.pXkXhXiXuX;Xd f.f.    L.GXfXd.q.X.o.e 4 A K A V V v a a v V v i a a a n v a a a a i a a a n V V m m V V V V n w ",
"r =.%.[ -.-.=.,.-.=.[ ' I Y I ' { K I [ X.V 2 V V n v V C V n m n C V V M k.xXwXwXwXxXwXwXwXwXwX2X<X,X,X7X[.G.&X<X8X7X}.F h. X7X&X1X,X7Xj.N.nXzXhXkXhXkXhXAXL.# #   9 CXGXGXL.d.` X.a ; 4 > ; ; 1 1 2 2 > 1 2 2 2 2 2 4 5 4 w 2 2 2 2 2 2 > 1 2 2 1 2 2 2 1 2 - ",
"I =.-.=.,.,.-.,.,.%.%.T ' I ' ' K K K ` ] a e  .K H V A P P A A m A V V m n.xXwXwXwXwXwXwXwXwXwX2X,X<X3X Xh.J.1X1X7XD.l z.1X3X&X1X,X1X7Xh.V.VXkXfXfXfXfXfXgXfXq   X U.FXGXGX^.d.{ [ y e H I A V H V A A V V A V V V V K K H K V 2 K V V V K K K I I I K Y ]  .` ",
"-.-.-.-.-.-.-.-.-.} -.' } Y ' I n A K I ' v r [ P I A V A H C V C v V v b E.xXwXqXqXwXwXwXwX0X6X1X,X7X XE G.7X1X1Xc.l G.7X1X4X1X,X,X7X'.k {.zXfXfXfXfXgXgXaXBXm.  L.jXjXGXGXL.+.+.[ r i [ [ P H ' K K I I I I K K K K I I I ' V 9 2.` K K I K K K K I H K K ` { ",
"I } X.X.:.-.-.-.-. . .[ [ ' ' K V A V I X.V r [ P ' I C V A A C m C n a c S.cX9XrXwXwXwX0X0X6X<X,X7X Xh.G.7X1X&Xj.E  X7X1X1X,X4X4X3X Xl 1.zXhXfXfXfXfXsXfXgXfXuX0 U.CXfXGX(.o s w. .r v =.I b C P V A I K H K K K I Y ` ' ' [ V 9 O.K ] ] K K o.] H H H K H K Y ",
"K } X.-.2.X.X.X.o.o. .o.X.] K ` K A K P ' V e } I ' I P P A C V b m n V z E.cXrXwXrX0XwX0X9X$X2X7X`.l N.wX7X XE j.XX7X4X4X4X>X4X0X|.l 0.:XbXaXgXfXfXfXfXfXkXjXjX_ ..jXCX/.%   : e.V 4 v [ S b m n n V P I P K K I K K I I ' [ V e O.[ ] ` K K ] ` K H K K K K K ",
"{ 5.3.o...X.3.X.X.o.o.o.X.o.| K K K K Y ' n e  .I ' ' ' T P A V C V n v z W.NX0XeX9XeXwX2X>X8X2XS.N.z.c.wXH.E F.1X3X&X4X,X,X4X0X'.x j.nXzXsXgXaXsXfXgXjXjXuXU.g o % fX(.%     t 3.2 - m R m m S ' Y ' } [ I K K K H H I I I [ V 2 O.{ ` ` ` K K K K K H H A J K ",
"X.+.O.X.X...+.3...{ { { ..X.X.` K A A ' ' v 5 [ I ' I I I H P A S v v b x W.eX2X3X0X2X2X,X2X$XN.n.S.l.h.B.h.'.7X3X4X1X,X4X4X0X[.F V.VXbXkXgXhXhXmXhXmXiXL._ O       f.g   O +.uXi.V 2 v T C A -.[ ' ' ' I K K K K H K K K K ' V e O.` ` ' I I K K K K K H J K K ",
"..O.O.X.....{ ....{ ..{ { X.O.o.I K A I [ V 4 [ I I I P A A P A b b V c x `.0X,X,X,X2X2X8X.Xz.N.n.k Q l z.XX7X,X,X<X,XH.oX3X[.l 0.#XOX@XiXiXyX=X/.I.@.q             o     $.FXGXm.X.4 v [ I T I P U ' I I I I K A A A A H K I V w o.K K ` K I Y K K Y K K K K K ",
"( { ..............{ { { ( { ....' I I I [ A 2 { K ` ' I P P I C v b V b F [.3X,X,X,X8X8XS.k.n.W ,.S.Q B.4X4X3X$X$X3X1XoX-X0Xl.* * = : % 8 7 8 3 % X       O       o     #.gXGXGXP.X.2 a } Y [ I I ' ' ' I I I P K I I K K K ` V 2  .[ Y ' ` ` K K K ` ` ( Y / ( ",
"5.@.+.+.+...{ X.O.X.......o...o.] ] ' K K V 4 ` V K P K P P P V C V n b F '.3X,X1X7X%Xl.M.n.N M 9.v.|.0X4X4X,X,X>X.XXX4X4X,XS.D . .                           : ) U.@._ gXjXZXGX/.O.w v -.Y I } [ ' ' [ ' I I ' I ' { I I I K B 2 H I Y { {  .X.X.X.X.X.+.2.+.+.",
"f Z Z d s d s s i i r p i i y i y i r r w 2 > e e r e r r r r 5 5 r 5 1 x G.wX3X1XH.l.k.*.6 r u z S.NX3X4X-X,X<X<X$X&X1X,X|.~.).X         .       O     X p L.(.sXFXU.#.jXlXZXGXbX5.r 2 e 5 r 5 5 u u 5 4 4 4 4 2 2 w 2 w 4 2 2 - 2 4 5 w 2 2 e w 5 0 w t y e e ",
"y 0 y s s w 3 e V Z V f V V V V V V n H V V A v V V v v n a r r i 2 1 5 x j..X.XN.l.n.N 6 a a a z M.wXeX4XoX>X<X,X>X1X4X3X`.A.DX_ ^ q % @ @ $ 8 h h _ p.^.uXjXjXfXZX^.# iXjXZXJX!.5.K a I H I I P P B u 4 y V V A n B a a i i a a i v a n V v n n v a a f f d s ",
"{ { ( ( { K 9 K X.X.O.O.O.X...X.o.] [ [ I V P P P P I ' } I A V A a 2 m R ,.k.n.M.9.D m P H K K S W +XcX0X$X1X1XXX.X<XXX7XF.Q.GXT.f.sXP.R n.).=XaXaXjXjXgXgXfXkXlXZX/.o ^.uXf.) . f w.I } } -.} -.} -.r v -.-.:.:. .I I ' ' ' [ [ [ } [ [ [ { X.X.o.o.X.O.X.X.X.",
"..{ ( ( ( J 9 K ) ( ) { ) { { { | ` ' ' A C S P S U ' ' ' I A A n a 4 m C S ;.y.U m b C n i v v S R S.6XwX2XXX1X,X>X2XXX1Xn.VXGXfX( dX~.W.W.BXhXhXhXfXfXgXgXfXfXfXZX(.) ) g .     3 f.K I [ ' T ' I [ e n :.-.-.%.' P P I I I ' I ' I I ' [ [ I I I ` { { o.X...",
"( ( ( ( { J 9 J { ( ( ( ( ( { ` ` K V V V I P A U [ [ U I P A C P C 4 V P b b v C C m V C C V V S N j.<XwX2X.XXXXX1XXX7X'.M.DXGXFXs.R.E.vXD.#XE.E.pXkXfXlXaXgXfXuXHX/.Y.8       0 J I.' I P P A A A I 5 n :.} [ ' I H H H H P P K I P I I I ' Y ' [ o.o.{ o.X.X.",
"L K K K ( J 2 J { ( ( ( ( ( ( / K A A P I P A ' [ ' I U I A V V V m ; A I b b b b S S H P C V H I R W }.xX7X7X[.$X3X$XG.E +XGXHXDX@X*.S.MX.XM.].R.*XbXgXjXgXgXmXjXGX^./.#.o q.L.hX^.P.K A A K n V V P 5 v } ' I I P P P A H I P P P I A A I I [ Y ' o.{ ( K / / ",
"K J J J L Z 2 J ( K ` ` ( ( ( K K K I K P P I [ ' U I I I A n n n m 4 P ' n n b m b C I C m A H C m W F.wXvX1X7X1X'.j.Q x VXGXGXSX{.W j.7XwXV.D.l.R.@XfXfXsXiX/.U.g.% uXU.p.CXCXGX@Xd.` A V v v n V P 5 n ' I I P P I I P I T ' P P P V A I I I ` ' o.X.{ / K K ",
"L J J J J V 2 Z K K ( ` ( ( K K H Y ' I ' ' } I ' ' ' I H V n n v a ; H [ A C n C C C b v m V C I m M W N.}.}.V.l.k.V.A.>.HXGXGX#XS.8X]..XNX7X}.].z Z #.) ..q X       fXuXp.CXuXZXuX3.K K V n m v V H 5 n Y P P P P I I P I T [ P I H Y Y A K I I I { X.X.| / / ",
"J J J L K Z 2 V K K K K K K K H H I [ w.4.` [ } [ } ' P A m v m C v 4 A P V C m b I T m n C m C m m m W k.n.1.*.;.b.t.4 d.GXFXDX{.6XvX<XD.0XwXwX5Xv.(.#.            # sXHX@.uXCXAXfXu.K V V A V n C C 4 b I C H P I I I I I I I I I P } [ C H ' I I ] o...{ | ( ",
"( L J J J Z 2 Z K K K K K K K K K H K 7.2.] } } } [ P K A m v m V v 4 H P V m m m m A C m V m m C m R R W <.r $ $ X . . U.GXJXbX{.vXxX7XF.[.wX2X{.b.GXGX/.7   X g i.@.fXGXg.U./.I.p...{ Z V V V V C C 4 b I H P P I I I R I I I I I I P P I P I I I ] [ { { { | ",
"K K K J K V 2 V K K K K K K K K K I I ' [ [ } X.} [ I A V m n n V n > A K V V m m m C m m P P b D %.,.*.D %.$       . . iXGXJXpX|.cX8X6XXXx.,X9XW.A.GXHXGXf.  : f.FXT.jXGX^.8 o   . ( ..Z K V V m m m 2 v Y C H C A I I I I I I I I I I U U I I ' ' ` ` K K K K ",
"K K ( K K Z 2 V K K K K A V V A I I I ' } o.} } X.' K V n n n n V v 4 K K n m A K v C C P T I I >.8.,.,.<.-.O._ g ! _ d bXFXDXOX|.NX$X[.wXH.[.eXS.I.GXGXGXp.  U.f.) $.ZXGXjX        d ..Z Z V V m m n 2 v I m H m C P I I I I I I I I I U U I I I I K K K A A J ",
"J V K V J V 2 V K K K K K V A P I ' ' [ o.X.} o.[ K V n n m n m V v 2 A K V n V } C C V m T T ;.r.>.;.>.<.,.!.hXaXlX;Xp.JXJXHX~.+XwX$XD.7X[.H.wXA.Q.AXJXGX#.O CXGXY.  $.uXGX) p.f.Y.q.( Z V V n m v v 4 v I m H H P I I I I U ' Y I I I I I I I ' I K A V V A K ",
"K J K J K V 2 V K A V K I K I I I ' { [ } } { o.K A V V C m m m A v 1 V K V V n I C A C P ,.>.r.t.>.>.r.<.;.).BXfXmX(.f.GXHXVXE.6XeXwXB..XJ.[.wXb.).bXkXbXh j HXHX(.  a.#.K.a.T.jXZXZ.{ a V V A m m m 4 n I C C P P I I I I I I I I I I I I I I I P V V V V A K ",
"J K V V K V 2 V K K H K ` ' ` ` ` ' ] { o.' ` ` A V A K K H C C V n 1 H I n C v A C m S [ >.r.4.>.<.8.,.<.,.OXDXBXAX_.I.GXOXM.S.wXwXxX}.z.x.,X6Xy.@XkXhX(.X _ GXGXY.o ZXCX@.o   _ uXY.X.V V V n m m m 4 a I C H K K I I I I I I I I I I I I I I K A V V V A H K ",
"V J J K K V 2 V K K I K I Y ` Y ` ' { X.X.} K V V V V A A C C C H n 2 K [ V C V m V m I %.,.>.;.>.,.<.9.8.>.m.Y.Y.^.$.^.GX#X*XB..XcXwX7XB.[.7X5Xs.lXbXbX!.  g.HXGXg.% HXGXL.  g   p f.d.V V n V m m V 4 y I H K K K K P I I I I I I I P I I I I C V V V A A A A ",
"H J V V V a 2 a K K K K K K K K K ] o.X.+...K V V V V A C A A A A i 2 V I A C C V A U ,.;.-.;.>.>.>.9.9.>.:.3   o & # hXbXE.xX%XF.0X0XXXG.3X3X+Xa f.iXJXq.  ).jXZX#._ GXGXa.o uXf.  $ u.V V A V V V A 4 i K H I Y Y ` ` ' ' ' ' ' ' ' ' ' ' ' Y K A A A K K H K ",
"w 2 4 5 2 4 1 2 4 4 2 2 4 5 4 2 2 e e r e 0 2 5 5 w e e e r r e e 2 1 5 y v v m b b C C m S m P U T U U Y V %       g SXt.8.5XNXH.[.wX'.J.7X7Xk..   9 Z.< h jXjXfX8 f.GXGX_ % jXCXd.. ..a a a i a a v 2 5 v a V A A A H H H H H A A A A A A V m a r e e e w w e ",
"4 5 4 4 4 4 5 5 4 5 e r r e e e e r r w 2 4 w 2 2 2 w 4 1 4 4 5 4 2 2 2 4 4 4 4 4 4 6 6 6 6 6 6 4 4 4 4 4 2 Z.L.@.q h u.e ~.S.MX6Xx.[.x.oXwX].* . O       _ iXCXiXo Y.HXFX% g CXhXhXq.J 2 4 4 2 2 2 2 2 2 2 1 2 2 2 1 1 2 2 2 2 2 2 2 2 > 2 4 4 4 5 5 4 5 4 > 2 ",
"P P H H P I I I I I ' [ ' ' ] [ X.X.o.` K A H V K H H H r r C A K H V V V v c v b I =.=.%.-.;.-.:.X.[ ' ' K ;XHXCXa.  . X.zXy.:XcX.Xz.H.wX|., + .         O 8 f.L.0 fXCXiXO g.jXfXBX^.{ V V A e r K A V V A H A K Y [ o.o.{ { { o.X.o.| I K H A H C A H K a e V ",
"-.} Y I I I I I ' ' ' ' [ [ [ [ o.o.{ K K K K K K K K I e a X.] Y K K Y I H A A P T =.>.4.r.r.r.r.:.4.:.o.` @XHXtX#     u.SXy.n.VXwX,X7X|.x . .             .   O q !.BX(.  Y.CXsXjXU.{ Z K K i r { I K K I ' I Y ' { ] ` ` { X.{ X.X.{ ' ' ' ' ' I ' [ ' V r [ ",
"P C m V A P I I I Y ' ' [ [ [ o.o.o.` K K K K K K K A H 5 n X.K I Y Y Y I I P P P T ;.r.r.4.>.4.=.:. .:.-.] @XZXa.  g O m.SXP.6 *XMXwX}.F + . .   O       .   .   o @.i.p.& iXCXjXBXU.O.V K K e a o.A K I P I I ` ' ] { { ] | | { X.X.{ { ' I I I I [ ' ' A e X.",
"P A V V C V V C H K I ' ' ] [ X. .[ I H K K H H K K H A e H ] H K K K C m m V V H ' :.>.4.8.4.:.;.4.4.-.X.` (.jXo ^ f.  Y.JX/.= M.}.S.l.k.. .   O                 0 i...) g f.^.;XbXP...J K H a V -.A I ' I ' ' ' { } X.X.X.X...O.3.2.X.} [ ' ' ' ' [ ' ' A e -.",
"C V V V V V V V C A K I Y ` ' ] I Y K K K K K I K V A H r K ` I H H A H A V V V I P H I } >.4.4.4.>.4.-.} } iX^.  ^.K.  (.hX5.b.v.k.M.v.S + .         .           _ @.( ..u.+...i.w.s.{ a K V i a X.K ' [ ' ' [ [  .o.X.X.X.+.5.w.5.5.3.X.} [ [ [ ' ' I ' V 4 -.",
"V V V V m V V V A A H K K I K I Y I K K H K K K K H K K r K ' K K A K P K C m n V m V H P I [ 7.4.t.-.-.} { (...g GXL.  ^.s.f.t.N 1.*.v K @     O   .             ..O.Z Z f f / ( ( u.( V V K r v :.' [ ' [ [ [ ' ' o.X.3.3.5.5.{ { 2.w.2.X.X.] [ ' I ' ' V 5 -.",
"H H A V V V V V A C V H K K K K ' K K H H K K H V H K H 5 Y o.A K K A A H P K C v V C A A K I Y  .-.7.[ [ X.d.: !.GX^.  { Z.+.K m z c n K $           . .       X i./ J Z Z f d d f f f V V H r v :.' ' I ' ' I P I ` X.3.5.5.5.3.X.3.w.X.] [ ' I ' I I I V e } ",
"I C V A V V V n n V V V K K K K I K K A V A K I K K A V r V ' K K K K K A A K K A C V V A K I Y I ' } ' } X.p 9 JXjX5...Z.{ Z H v v m v V : .                   8 i.Z / Z Z V f V Z V V V H K a a 4.' [ ' I I ' C V K ` } 2.X.2.3.3.5.X.] ` I ' I I I I P V 4 [ ",
"H C n V V V V n V V V A K K K A H H H V V A K ' ' H I ' a H o.[ I I I I I K P I I K A V A H K Y P K I ] [ o./ { L.3.f.d.K K ` H H a v a V 9                     / q.V L Z V V V V V V V V V K a a 4.[ ' I ' ' I K A K K ` X.O.3.5.X.{ ` K K I I P P A A K V 2 I ",
"I V V V V V V V V V A A K K H A A H H H V V K ` K A ' ] e V o.' [ [ ' ' [ ' I I K K K K K K K K I K I } X.2.3.6.s.d.X.Y [ I A Y K d n V V 3 .       X           +.] K K A V V V V V V V V V H a v -.' P P Y I P I H I K I [ [ X.{ K ` ` V V A K A K A A K v 2 I ",
"Y v A V V V V a V V A K K K K H K K K K A V H ` I [ X. .a a  .[ } } ' ' X.[ I K A H K K K K K K  .' K ` ` ` ` y V } ' I I [ ' [ K V V A V 2       O #         @ 5.H I H A H V V V V V V V A K r e A P P ' I H A P H P I I I K K ] A V V A K A A A A A V m y 2 V ",
"2 2 2 i n V V V V A K K K K K K H H H H K A K Y ' [ [ -.v r X.X.-.6.4.-.} ' K K I K K H K K K K K K A K K ` } 2 V 7.' ' ' ' ' I ` A n V K p       & 7         0 5.K K A A H A A K H K K I I I v 2 5 4 4 4 1 4 5 5 4 5 5 e 5 4 4 4 w e 5 e e 4 4 5 4 4 u 5 4 > 2 ",
"i K 5 r V n a V V A K K I I I I K K K K K K K I I K I } a y 7.} } :.-.} ' I K K I K H H K K K K K K K K K K 2.a m -.I ' I ' [ ` ' K n n H d       # 8   .     ( 2.K H H K H C A V C H K A A K a e n V V A C A P A V V V C C V C V V V V I I v r 4 e r a i a a r ",
"V { r w V a a V V V A K K K K K K Y Y K K K K K I I ' ' y B 7.[ P I I I ' ' ' ' K K K K K Y K K K K I K K K 3.V A 6.[ ' ] | { ` I I C m C n       % q         @.{ K A K P K A A H I I I K A K a v I A A P P I I I P H P P P P K I K H A P P C A r V H V V V V n ",
"a v i 2 a V v V A A V A A V V V v V V V n V A H K A A v w w B V V v V A V v v V V n a a a a f n n v V v V a ` 2 w A C V v V Z B K P A C C V       8 h       X u.K H P H A P Y Y I I I I H C A r v I V C A C m C H A C C C C H H K C A A A A C A e H A a V V V V ",
"i V V 2 5 w 5 e e 5 5 5 w 5 5 5 w e r r r r r r i y r r e e 9 2 9 9 w 2 2 > e e w w e e e w 5 4 5 t r e e r e w w e e e 2 4 2 > i  .S C A V X     g h       0 u.A A A H I ' ' I I H P V V A V 6 n I P C V m V A H A A A P I U I P A A K A C A A e K a d V a V V ",
"a K a r V n v V A H H K K K K K { { ....X.X.X.X.o.X.X.+.+.O.X...K ( o.V > i ` -.[ ` Y ] ` K V K K { ..{ ] ] ` ] [  .{  .] Y i > 5 -.I V V a       ..h       d 5.A A P I ' } [ U I A S A A P H r v I m C A n V A V A P I I I P P K A H A C C A A 4 v V B V V a a ",
"B K r i K V V K H H H H H K K K K K K K K J V V K K J V J / { ....( { Z 2 V ` { { ] ` K K K K K K K K K K K K K I ' ' ] { { V e 5 X.P V H V       @.8     . O.O.A H I Y } %.[ I I A C A H H P y a } A A V C A A H I I I I Y I K A A V C K K A V w a V a a B i B ",
"K K w r V v V V H K K H A K I I { { { { { { { { ` ` ` ( ( | ....X...( J 2 K ] ` X.] ` K K K K Y ` K K K K K I K I [ X.X.[ [ A e r [ K A A V     . a.#     . 6.` I I I ' [ } ' I P C V A A A I y i ' A V m I A P P I I H I ' I V n V m C K K V a w V V a s a B B ",
"` V w r H V V V A H K H K K K Y K K Y ` ` ` ` ` Y ` { { { o.....{ X.{ Z 2 | ..| { ` ` ` ` ` K K K K ' [ ' I ' ' ' [ X.X.} } P 5 5 [ A P A A .   X p.&     $ u./ ' Y I Y ' ' I P H C V V V C K e v I v A P ' A I I I K P I I K v v V A H K V V V 2 i V a d f d V ",
"K s y i A v n V K H K K K J A H K K K K K K H V H K K K | { X.X.....X.Z 0 +...o.` ] ] K K | ` K K I ' [ ' ' ' ' -.-.X.[ [ ' P 5 y -.I A K K     $ p.o     0 5.K ' Y Y I I I I I ' P C m C A C 4 v ' C I I P P I P A A I P A V V V V V V V a v V w w d a d f s J ",
"V a y y V V A K I K H H K J V H Y K H H K K K H K K K ( { ......5...O.J 9 O...O.X.o.] ` ` K K Y I I I I ' [ [ [ [ } X.} [ [ ' e 1 K I I K V     % @.O     { 3.' ' I I I I I I I P A V v v v a 4 a [ I I K A P K P A A H A n n A A V n n n n V V w e d d s f f K ",
"a V e w A { X. .] K H K ] Y ` { :. .K K H H H H H K K K | { ....u.+.O.Z 9 O.+.( X.X.o.` K ` ` I I ' ' I ' ' ' } } } [ [ [ ' ' 5 4 > 4 u 2 2 X   : O.      | e 4 4 4 4 4 4 4 4 4 4 4 4 1 2 2 2 2 > e 4 2 4 4 4 4 4 4 2 2 2 2 2 2 2 2 2 2 2 2 2 2 2 i d f d d Z Z ",
"a K i 1 r a i i i e i 5 i i s i v K  .K K H K H H K K K ` ..o.{ +.X.O.Z 9 O.+.{ / ( K K ` K I ' I I I ' ' ' [ X.} } } [ [ ' I e 4 V V V A V .   t @.    @ w.V B V v r 4 A I I C v v i i a a a a V V A A V V V A V V V V A ] e 1 i a a i v V r w e i d d d f V f ",
"V | a 2 i i i a i a a a a a i i a e r H K A V K K K K K ` { o.X.X.X.O.J 9 { ..| ( { K A K ` ` I Y ' I I ' [  .[ } [ [ [ [ ' ' e v ] [ } X.K O   J ..    : w.K I [ 4.P 5 :.4.[ P A V V V V V A K ' ` Y ` ' ' I I I I A I I K a 4 V A K H V V a V a V V f d d d f ",
"Z { a r ` { [ ] K '  . .] ] ' ' ] v r ' ' ' H K K K K K ` { ....o.o.X.K 3 / ) ( ( ( / K ` ] [ ' I Y ' [ :.X.' A -.} } [ ' ' I 4 V  .[ ' ' V .   { _     d 3.A U I :.I 4 I I C b C V V V V V V K K K K K I I K H A [ ' I C H n 4 V V H V v v a a d a a a V V V V ",
"K X.a r ` K K V A K  .] Y H H K K i 5 K K ] Y K A K K V V ` o.o.o.{ } Z 3 ( | / / / | ..{ ] } -.:.X.X.:. .' I I } [ [ [ ' ' ' 5 V } ' I ' V     { f     ..X.P }  .[ I r T I I P V m n n V V H K K K K K P K K P } :.4.X.P I m 5 K K I V a a v v a a a V V f d f ",
"{ 2.n i I A H H P I  .[ I V V A Y i e Y K K K K K K K A K } o.{ ' ' [ V 2 | { / / ( X.+.X.} -.7.:.-.7.:.X.' [ -.} } } [ T ' ' 5 V  .' [ } V     { f   . 3.] ' %.%.:.I 5 ;.-.,.=.T I P H H A H K K K K I I I I U =.-.-.T U -.K 5 } Y I K V n n n a V V V V B V K ",
"{ +.a r K V H H K I ' [ K A m H I i e I I K Y K K H H Y o.X.{ I I ' [ C 2 / / / / { X.X.X.X.-.-.-.-.X.[ [ [ ' I I ' ' ' I U ' 4 V X.' ' ' B     +.d   & w.' [ [ [ >.U 6 >.>.;.8.;.,.} [ I H V H K V A P P P I I [ 4.;.[ -.4.} 5 X.H V A A V a n V V d B V K ` o.",
"{ o.i r K H H C H I I ' K I H I ` B r Y I Y Y K K P I ` I K ` { I I ' V 2 K K K K { { { X.X.X.} } } } } } I C v A P I ' U [ -.6 V -.' [ [ v   X 5.e   0 i.} %.%.=.-.P 6 8.>.,.;.;.-.:.=.[ K K K K V A ' I [ -.%.;.>.>.;.;.=.A 5 Y H A K A v n K Y K V a V K ` { ",
"{ { a r K A K I K I ' P H P K A ] V w ` ` K K Y I K K K K K K K P C A v 2 K A K / { { { X.} ' [ ' ' ' ' I P ' :.I U ' [ [ =.;.r V -.P K K y   o 5.:   f u.' U %.[ :.I 6 4.8.;.;.-.-.:.:.' K K K K V I -.[ -.r.8.8.>.4.T } -.m r P K H C C V V H I K A v a V K Y ",
"K K r r ` K K K ` ` ` H { A K ` { V r { ..o.( { { ` ` K K A V m C P C v 1  .-.K ` { o.{ ] ] ` ` ` ` I I I I ' [ T T T [ [ [ [ 6 m %.A K K 0 . @ 3.@ . O.3.} %.%.%.%.U 6 4.4.;.-.-.-.-.} ' I K ' } [ -.-.-.>.8.8.r.>.>.%.>. .n r ' H C A A V n i v n V V V V H L ",
"V V r a ` K K K { K { | ] V Y ` K a r { { ........{ K K H A V b P S T C 2 I K K K ` | | ` ` ` K K K K K I I I ' I T T T U U U 6 b %.m V J 9 . 0 w.@   O...} %.T =.4.I r -.t.;.-.-.[ ' ' I I K K -.} -.%.[ -.>.8.>.>.=.R -.:.v 4 ' K V V n n m m H V n V H K L J ",
"V K e B ` K K ( ..{ { / K K ] K Y i w { ........o.{ K K V m n m P R >.I 2 I K K K K K K K I I K K K K K I I I Y I U I I P I I 6 n  .A V / : . ..3.X . $ | X.[ =.=.4.I 5 :.4.%.-.[ I I P I I K I [ } } S C [ >.>.>.>.;.[ -. .v 4 V C V V V V V C n n n V V V V V ",
"V K e a { K K { { X.` V V H Y Y ` i w ' } o.X.o...K V A K A A P =.r.>.m 4 ' K K K K K K K K K I K K K P I I I I T T I P H P P 4 v [ V V J o   u.( %     o ( [ C I [ S 5 -.[ I ' P K P K K K K ] K ' } ' U ;.8.;.>.,.>.>.T T V 4 V H H V V V V A A H K H V V V V ",
"V K i a X.` ` X.X.] V K { o.{ Y I a e K `  .X.{ ` I K H H P I [ ;.=.[ C ;  . .K K K A K K K K K K K P I I I I I I P P H P P K 5 n { V J p   : u.Z p       o ` K n P V e ' Y P P V A P K K K K Y ' I } 4.>.;.>.;.,.,.-.,.U =.Y 4 V K K K K I I Y K K V V V H K K ",
"K K a a X.o.| { K K ` o.{ { { I Y i 5 I X.:.2.:.'  .[ I I [ -.>.=.[ :.H ; } ' K / K K K K K K K K K I I I I I ' Y I Y I I P A e a { V / %   ..3.f | &       $ X.H A n 5 [ K P A A A I I I I K K [ ' ' :.;.-.;.;.,.;.,.-.-.:.I 4 K Y ` I Y K H A A V V V H H H K ",
"V V r r K K V V V K ( ` I K ` V V e 2 H  . .o.X.{ { ' I  .4.4.>.4. .4.I ; H K V K I Y K K K K K K K K K P P P P I P I K C v a 4 v { J f . . w.` V J / X       9 ` H v 4  .A A H P P I Y ' ' K K K ' } -.-.4.8.;.,.,.,.;.-.[ I 4 K K K K A K K K K K ` ` I H V V ",
"2 2 2 2 2 2 9 2 2 0 2 2 e 2 2 w 1 2 2 2 2 1 2 2 2 2 4 4 4 4 4 4 5 1 4 1 1 2 2 1 > 2 4 2 2 2 2 2 4 2 4 4 4 4 4 1 1 1 5 4 4 2 4 2 K { J 0 . $ e.n V V / / &     . J I i 2 I I H I I I I I ' ' K K K I [ -.-.4.r.8.;.,.,.-.=.=.-.e 2 2 5 e 4 e i i r r r r e 2 2 2 ",
"K K K K K K K K | ` ` ( K K K K f Z Z K { { { { } { X.[ } [ a 2 e n v v a v v v V v v r r 1 a V B V y v V H C C C P A n r i V H ' K Z @   p 2.V V A f / ) o .   . X.r 2 ] ' K P Y Y ' [ ' ' ` K A K I [ =.;.>.>.-.-.-.=.,.:. .' I K H K K K K K V 2 r Y ' A A K ",
"' Y Y ` ] { ..o...o.....o.} ` K K Y ( X.2.2.3.3.2.3.2.X.7.7.I 4 v V A H V K K K A ' I A a 2 I ' A I K I I I I I I I P V n n V V V V d .   ..{ a v V V K J ( X . . 2 2.w | K I ' I ' ] [ ' ' ' I P P I Y [ -.;.;.;.-.=.}  .=.:.:.X.o.[ { [ { { { X.a A -.X.[ [ [ ",
"` K K ` o.o...| | ....{ ..{ ` ` ( K / ..X.X.O.X.} X.X.X.X.| V 4 V n V A V H V A K o.K I v 2 I K K K K K K H P I P P P H V n n n v A 9     3.V v C m V A s / ( X . . K p o.{ ` K ' ] [ [ ' ' { ' K I ' ' Y T %.-.:.-.-.=. . .X.:.X.o. .{ ' ` ` ' ' w A -.} [ ' I ",
"K Y ] [ { ` ` | | { ..{ { { { ..{ { { ..o.X.+.{ Z V | X.X.] d w K K H K A K V H K { K [ A 4 ' I K K K I P P P P P P P A V n n V n K $   o X.a m I Y C V Z f / J .   3 ( { | | { ] [ [ [ ' ' ] Y K Y ' ' I I ' =.=.=.-.-.X. .}  .X.o.o.o.[ { { { ] w H -.[ X.[ ' ",
"{ [ { ] ` I { o.X.{ { ..{ o.X.| ] ( ( ` ` o.X.K r V { } o.X.J 2 K { V V A V V A K ' Y X.V 4 [ ' K K I I I I I P I R P P C m n n v V X   # +.d s b I P n V K Z | d   . | 3.X.{ ] ] [ [ [ ' ' ` K K K K K I I Y ' [  .} } } X.X. .[ { {  .o.{ { ] ] 5 A X.' } [ ' ",
" .' I K ` { { { +.| | { ( | ..( ` ` ( Y ` { o.K K 2.2.2.X.2.{ 2 ` 2.K K K A K K I [ -.2.A 5 -.I K K ' P K C P P R R I P C b n n m r .   # q.a s v b n m H n V K ) # . Z u.{ { O.} [ [ ' I I ` K K K H K P I I Y [ [ } [ [ X. .[ [  .o.o.o.o.o.{ ' w V :.' X.} ' ",
"` ` ' ' ' ' { ..O.{ { | K / { { ` ` Y K Y ' [ ] 3.3.o.X.X.X.` 3 K O.| / K K K K H Y X.-.K 4 -.K A K ' ' ' H m P R R R P m m m m C 2     % +.e n m v m m n H H K { % . 8 d.{ } 3.2.} } ] I I I I K K K K K H I Y Y ' [ [ } } [ ' [ [ [  . .o.{ { { e n -.[ -.-.-.",
"' ` ` ] { { { { ..{ ` ` | ` ` ` I ` I I I Y { X.o.[ o. .{  .K 9 V { } { { o.{ I {  .-.6.I 2 7.I C V K K Y C m R [ T R P P P C m V -     3 O.p a v n n m H H K ` ( o   . i.X.} X.O.X.X.} ' I K K K K K K K K K K I I I ] [ ] ' [ [  . . . .o.o. .] e n 3.-.-.X.[ ",
"Y ] { { { ' { { { { K ` ` ` ] Y I Y I I I I ]  . . .o.o.{ o.` 2 J { | K K / X.} X.} } 6.A u :.K V K v A ' I I T [ =.[ [ R P m m A - .   0 ..a v m b m P I K ` / #   . . 3.3.} } o.O.X.` K H A A K H H H H K K K I I I Y Y Y Y Y ` ] {  . .{ ] ] Y e v 3.X.-.X.Y ",
"{ ] ] ] { { { { { { ' ` ' ' ` ' Y I I Y ' ' { [  .{ { X.o.o.K 2 K X.X.{ K Z K K A A A [ C 4 -.} [ ' K I ' } :.I P -.=.%.U C c i V - . . 0 { y V b m C C H K { %       0 L.} ' X.2.2.O...Y K A V A H K H K K K I I K K K Y Y Y Y K K K K ' ] Y K I e V t.:.` Y ] ",
"Y Y ` ] ] ] ' ` ` ` ` Y ` ` Y ' Y Y I I Y ' ] [ X.o.o.X.{ ] K 9 K { } X.O.o.} | } [ ' X.I u 7.7.} ] [ X.[ -.:.A A -.-.-.[ I C V V 3 . . % O.f i V m H H A ' s .     # u.u.} { X.X.X.o.{ ` K A A V H K H K H K I I I K K K K K K K K K K K K K A K r a ` A K ` K ",
"K K ] { ] ' ' { o.` { ' ] ] ' ` Y Y ' ' ' ' { { ] ] ] ` K K V 2 V ` o.X.X.X.O.2.2.X.X.2.' r :.-.-.} [ X.X.X.X.' I ' ' ' I P P V V 2 . . $ O.d V A m m H H { : .   @ d.Z 2.} ] o.2.X.o.{ ` I A A A H K A K H I K K K K K K K K K K K K H V V K Y K e r I K K K A ",
"Y ' { { ] { } X.X.} -.-.X.{ { Y ' ' } X.X. .[ { ] ' ` ` K K V w K { } } X.X.2.2.-.2.7.6.-.r I I 7.7.-.-.-.[ I ' } I I I H P Y H K Y . . 0 u.a V C C C m K ` y . 3 s.X.> A -.:.6.6.3.3.3.2.-.[ ' P K K K K K I A H K H K K K K K K I Y K H V K K A r B X.-.I K ` ",
"r e e e e r y r i y r r i 5 e w e e r r e e e e r r r r 2 2 2 2 X.X.} } 3.6.3.X.} 2.-.7.-.; u y u w y a y y y y r y r r a r y r r t K K e.V e r r 5 5 r e 2 y | 3.s 2 w u r r v v B B d v v v r r w e r r r e i r r r e e e r r e e e e e 5 w w e 2 2 y r e r y ",
"K A V V V A V V V V r e K V V V V V n v v v n V a n V V a a K ] X.X.X.o.X.X.} } -.-.-.7.' u v n v a v y r y c y i v i r v r r 2 2 2 n K y 2 5 5 5 r r 4 w i e Z e w e 4 v v a v a a y y y r r e r e e r r 5 > V K H A V V V n V K V n V K ` { o.} ` K K I A A K ",
"X.[ Y K I ' ] ] I ' i a 3.o.' Y I I K K K K K K K K K K K { -.2.X.} o.X.-.X.} 2.7.} 7.4.I V 4.} ' ' ' I ' ' I I I C A A C C C 5 2 n i i a v v m H C C H K V K V A K X.} I } [ } [ [ } } } } [ [ I Y K K K a 2 -.' ` I K K K K K K K K Y } o.o.o.o.X.o.o.-.-.-.-.",
"-.X.[ [ [ [ [ ]  .[ a v ' K K A V K K K K K K K K V A K ` ]  . .X.X.X.] 2.X.-.-.7.-.-.4.P A -.' I ' ' ' T I C m b n v v v v v 4 5 n n v a n m b C P C C K I I I I ' [ ' I I ' ' } X.3.2.2.2.7.-.Y Y A A A V 2 ' K K K H H K A H V K H V ` ] | } X.X.] { } X.2.2.",
"X. .} [ [ ] ` Y K ` a a ' A K K K I I K K K K K K K I ] X.X.[ X.-.X.[ X.} 2.-.-.} -.-.:.C K -.I I I P H C m v c c b c c m v v 4 4 a v b v b b b m H P P K H K I I I I I ' ' [ &.X.} 3.3.2.2.7.7.' ] K K K V 2 ] I K H A H K A K H V K K K ` } } } { ] } } } X.2.",
"X.X.X.} ' ' ' ' ` { a V X.I K K K H H H A K I Y { I I ' [  .X.X.-.' ] 6.-.-.} } } -.} ' y A :.P I I P H C m b b v c c b n v m 5 r v i c c c c c b C I I P H I Y ' ' ' [ } [ } -.2.-.6.6.7.-.2.X.' [ I K K V 2 ] I K K A A K K A K K K K K K ] o.{ { { X.X.{ } X.",
"X.} [ } X.[ ' I I Y i n ` a a B V V A K I ]  . .` K I ] ' ] } [ X.I [ 3.-.[ X.-.-.-.' I 4 A -.P I Y Y I P m c c c c c b v c v 5 5 v v c b b c c m C m v m K [  .-.:.:.-.' Y } -.7.X.3.2.} X.7.X.X.X.` I K V 2 o.K K K K A K K K H K K A A K ` { { { } X.-.o.} [ ",
"[ [ ' ' ' I I I ' I i V Y v V V V V K [ o.o.X.[ ] { ' { -.X.} X.A P X.} X.X.7.-.} [ I ' 5 A } H P I ' I P C b b b b b n b v v 4 5 m n v m C m m m n v v n V A K I [ -.-.[ [ -.-.2.2.3.&.} X.X.{ X.} ' I I A 2 X.' A H K H V V K K C H H V I o.` { { ] { } } X.} ",
"' ' ' I I K K I K V w V ' A K K K K ' [  .o. .{ ` ' ] ] ' K n v V ' -.X.X.-.X.[ [ I I ' e A [ P P I I P P A C C C m n b v b C 5 r A C P [ } P n a a A ] { K A A K ' -.-.X.-.3.-.-.2.3.} 2.7.7.o.' ' P P Y A 2 X.o.K H A H I K H A C A C A I { ` | { { { ] ] [ ] ",
"' I I [ [ ' K V V V e V ` V K ` ] [ { ] [  .[ [ K K I I V A } :.X.-.-.-.-.7.X.} ' P I ' 4 C  .I I ' P H S A A A P A C m m A P e e K Y  .:.-.H V H H { 2.3.O.:.7.4.7.-.X.{ o.2.X.2.2.} A A A K A K I P I [ K 2 X.[ K K A K [ [ K V H C m A V V K | { { { { ` ` ` ",
"' ' ' I K A A I K K i V [ A A K K ] ] ' [ { ` K ` Y I I } X.[ [ -.-.:.7.6.t.6.[ I I ' ' 4 A X.I I I P P I ' I I I I I T [ } ' r r ` [ ' P C P X.-.X.2.2.2.2.3.-.7.X.-.-.} o.-.} 2.2.} ' } [ { { A K K I [ P 2 X.7.Y K ` Y K K A K H H K A V A I { | / ` ` ` ] ' "
};
