/* XPM */
static const char *xpm_[] = {
/* columns rows colors chars-per-pixel */
"128 128 256 2 ",
"   c #782C18",
".  c #78341D",
"X  c #6B2A17",
"o  c #7B3C2B",
"O  c #783826",
"+  c #713A2C",
"@  c #7A422D",
"#  c #7D4433",
"$  c #794837",
"%  c #784E38",
"&  c #7C5246",
"*  c #882C17",
"=  c #962D17",
"-  c #8B331C",
";  c #87341B",
":  c #94331C",
">  c #9B341C",
",  c #99361A",
"<  c #8E270D",
"1  c #A4341C",
"2  c #AC351B",
"3  c #A43A1D",
"4  c #AC3A1E",
"5  c #A93315",
"6  c #B3351B",
"7  c #B33A1D",
"8  c #BB3A1D",
"9  c #B83517",
"0  c #A92E14",
"q  c #883A27",
"w  c #943B24",
"e  c #9C3B23",
"r  c #943D2B",
"t  c #9C3C2A",
"y  c #983522",
"u  c #873E31",
"i  c #903528",
"p  c #A43C24",
"a  c #AB3C23",
"s  c #A43D2A",
"d  c #AC3D2A",
"f  c #A63622",
"g  c #B33C23",
"h  c #BB3D23",
"j  c #B53C29",
"k  c #A43E31",
"l  c #C33B1B",
"z  c #C23D23",
"x  c #B0401D",
"c  c #8C432D",
"v  c #85432C",
"b  c #94442C",
"n  c #9C432C",
"m  c #994629",
"M  c #834433",
"N  c #8B4433",
"B  c #8C4B34",
"V  c #844C3B",
"C  c #8C4C3B",
"Z  c #854936",
"A  c #934532",
"S  c #9B4532",
"D  c #944B34",
"F  c #9B4B34",
"G  c #934D3B",
"H  c #9B4D3B",
"J  c #984639",
"K  c #89523C",
"L  c #94523C",
"P  c #9C533C",
"I  c #9A5438",
"U  c #88522E",
"Y  c #AC4225",
"T  c #A4432B",
"R  c #AB442C",
"E  c #A44A2D",
"W  c #AC4B2C",
"Q  c #A44225",
"!  c #B34225",
"~  c #BC4224",
"^  c #B3442B",
"/  c #BB442B",
"(  c #B44B2D",
")  c #BB4B2D",
"_  c #B84925",
"`  c #BA522D",
"'  c #A44532",
"]  c #A44B34",
"[  c #AC4C33",
"{  c #A44D3A",
"}  c #AB4D3A",
"|  c #AB4433",
" . c #B34C33",
".. c #BB4C33",
"X. c #B64935",
"o. c #A45235",
"O. c #AC5335",
"+. c #A3533B",
"@. c #AB543B",
"#. c #AC5A3D",
"$. c #A4593C",
"%. c #B45234",
"&. c #BC5334",
"*. c #B4543B",
"=. c #BC543B",
"-. c #B55A3D",
";. c #BB5B3D",
":. c #BA5936",
">. c #A8512E",
",. c #BA613D",
"<. c #9E623E",
"1. c #C9441E",
"2. c #C24324",
"3. c #C3452A",
"4. c #C34B2C",
"5. c #CB4828",
"6. c #D34B2A",
"7. c #C7532D",
"8. c #D8552B",
"9. c #C34D33",
"0. c #CB4C33",
"q. c #C64B37",
"w. c #C35335",
"e. c #CB5334",
"r. c #C55A35",
"t. c #C3543A",
"y. c #CA553B",
"u. c #C45B3C",
"i. c #CB5C3C",
"p. c #CA5B35",
"a. c #D35C3C",
"s. c #D85935",
"d. c #D34C36",
"f. c #E45B35",
"g. c #E3582B",
"h. c #CB633C",
"j. c #C6633D",
"k. c #D4633D",
"l. c #DA643D",
"z. c #DE622F",
"x. c #E6633B",
"c. c #EC6436",
"v. c #884D42",
"b. c #8C5443",
"n. c #895948",
"m. c #935443",
"M. c #9B5443",
"N. c #945A45",
"B. c #9C5A44",
"V. c #945C4B",
"C. c #9C5D4B",
"Z. c #95554A",
"A. c #92584D",
"S. c #A45542",
"D. c #AC5542",
"F. c #A45B43",
"G. c #AC5C44",
"H. c #A45D4B",
"J. c #AB5D4A",
"K. c #AE564A",
"L. c #B45C43",
"P. c #BC5C43",
"I. c #B65A46",
"U. c #A95A4E",
"Y. c #9C624D",
"T. c #96634B",
"R. c #8B6558",
"E. c #9C6453",
"W. c #986857",
"Q. c #966C56",
"!. c #A4634C",
"~. c #AC634C",
"^. c #A96447",
"/. c #B46244",
"(. c #BB6244",
"). c #B4634B",
"_. c #BB644B",
"`. c #BC6A4C",
"'. c #B6694A",
"]. c #A46453",
"[. c #AB6553",
"{. c #A46A55",
"}. c #AB6B55",
"|. c #A46B5B",
" X c #AB6C5B",
".X c #A5655A",
"XX c #B46B54",
"oX c #BC6B53",
"OX c #B36D5B",
"+X c #B96855",
"@X c #AC725D",
"#X c #A6735B",
"$X c #B4735D",
"%X c #BB735C",
"&X c #BA7457",
"*X c #B5704E",
"=X c #9B7567",
"-X c #976E65",
";X c #A86D62",
":X c #AC7463",
">X c #A97768",
",X c #B37463",
"<X c #BB7563",
"1X c #B47B65",
"2X c #BB7B64",
"3X c #B47C6B",
"4X c #BB7C6B",
"5X c #B67669",
"6X c #AF7B71",
"7X c #C35C42",
"8X c #CB5D42",
"9X c #C55944",
"0X c #D55D42",
"qX c #C46344",
"wX c #CB6344",
"eX c #C3644A",
"rX c #CB654A",
"tX c #C46B4C",
"yX c #CB6B4B",
"uX c #C86A45",
"iX c #D36543",
"pX c #D36A44",
"aX c #D36C4B",
"sX c #D96746",
"dX c #C9714C",
"fX c #D6724C",
"gX c #C36C53",
"hX c #C86C55",
"jX c #D36D52",
"kX c #CC7253",
"lX c #C7765A",
"zX c #D67657",
"xX c #E46946",
"cX c #E7724F",
"vX c #C67A66",
"bX c #D47C63",
"nX c #C57567",
"mX c #E3694D",
"MX c #B9826C",
"NX c #B98777",
"BX c #AD8573",
"VX c #9D8476",
"CX c #C7836A",
"ZX c #D58469",
"AX c #C78977",
"SX c #D68B75",
"DX c #C6927C",
"FX c #D7927A",
"GX c #E48C75",
"HX c #CE825C",
"JX c #B79085",
"KX c #BAA298",
"LX c #C79787",
"PX c #D09787",
"IX c #CFA594",
"UX c #D4A69A",
/* pixels */
"6X;X=X#XW.|.#X#X{.]..XH.F.^.@XW.-XR.Q.E.C.|.E.>XE.E.W.E.E.W.|.W.W.T.C.|.;X.X|.#XT.|.>X-XR.Q.-X=X-X6XNX>XT.W.W.V.W.Q.W.W.;X|.W.R.-XJXIXIXIXIXAX3X3XW.V.A.b.V b.% @ % v.n.>XBX3X{.OXCXNXJXVXJXJXPXLXLXLXNXBX#X=XQ.-X-X;X|.|.E.E. X4X$X.X X5X:X=XJX6X#XQ.#X6X>X#X#X",
"CXMXAXAXCXvX$X}.J.J.U.S.o.o.F.C.R.>X1X$X~.~.[.].H.}.$X$X,X,X$X$X X}.}.[. XOXXX^.!.Y.E.n.MXNX|.;X X$X$X$X$X@X@X$X}.}.}.OX,X$X XW.-XKXBX#XT.Y.~.[.$X$X<X<X%X%X$XMXMXMXMX3X3X1XXXG.G.S.E.n.=X>X X!.}.}. XOX X{.}. X,X,X,X$X[.[.J.J.F.+.H H J.Z.-XJX3XCXMXMXAX4X1XCX",
"uXyXdXtXqXwX=.(  . . .[ ( W T S C {.XX(.P.*.P.*.[ *.(.;.P.;.*.=.*. . .[ X.R R p W [ S q XX'.o.).L.L.O.O.-.%.O.W W *.%.[ *.[ E D -XIX!.] o.] %.-.-.-.eXqXqXuX(.tXyXkXtXyXeXqX&.^ / ^ y b nXF.E W W %.P.%.&.&.=.*.*.*.*.;.%.P.-.%. . ... .R m E.@X'.yXtX(.tX_.,.tX",
"k.pXuXu.p.e.4.4.) ) ....) _ a | C [.gXrX8Xt.u.u.u.i.i.i.wXi.y.y.y.9.w.r.y.9.) ) ^ =.[ y L.tX%.qXqX;.:.&.( ) &.! _ w.&.) w.&.` o.=XLX/.&.:.u.r.r.h.u.8XiXsXsXiXiXh.wX8XwX8X0Xe.8 5.3.2 e L.*.&._ ! ) w.9.e.p.a.a.i.t.r.i.w.u.r.r.t.q.3.4.) E [.%X;.u.r.r.i.h.u.u.",
"p.k.wXu.r.w.q.y.t.t.......w.^ ' M !._.eXu.t.7XrXu.r.r.i.8Xt.8Xt.9.w.t.t.9...) ....X.I.w ).kXW u.rXu.=.:.&.&.u.r.w.r.w.) u.u. .o.W.LXG.u.=.u.r.p.h.u.8XaXsXiXiXiXwXaXaXiXwXi.4.h 5.6 a = L.P.&._ w.&.t.y.p.a.i.iXu.u.u.r.w.t.w.t...t..._  .m ].nX:.w.r.8Xr.u.w.t.",
"j.dX`.L.P.;.P.I.L.D.@.D.*.-.} F # E.H.)._.P._._._.(.(.tX_.P.gXP. .;.P.P.*.*.O.O.} @.S.q XXvX#.-.`._.L.L.L.-.L.P.P.*.*.O.P.P.O.P BXUX^._.P.tXtXdXkXtXgXgXtXtXeXtXeXjXyXtXtXP. .......t - %X+XL.;.P._.P.P.qXrXqXtX_._._.P.P.P.*.@.} } *.E F D :X{.#.:.P.eX(.L.*.7X",
"Z K V V # @ + + @ % $ $ M M M $ R.-Xn.V K m.Z.m.C Z K C C b.V.b.Z Z M Z V % @ @ # o $ n.NXT.@ # # # # o # # # # + O + O M Z Z V -XBX% Z M K K V Z v.V $ K K C C G L B C C Z u q c N o W.>Xb.C B C m.v.v.G L G K b.C C K b.Z.m.v.v.# V % % R.VXR.V Z B C $ $ M C ",
"{.{.|.:X:X#X:X3X6X6XR.W.4XMXMXMXNXDXMX1X3X3X X X:X@X3X@X$X3X:X#X:X1X5X:X>X=X>X>X;X3X>X3X4X{.b.V.Z.Z.C.E.C.C.].Y.b.V.C.C.C.M.]..X.XW.Y.N.N.E.V.$ b.:XE.E.;XW.|.{.]. X].@X].@X:X,X].@X:XLXLXW.[.[.|.W.R.;X:X X}.5X,X|.@XMX3XAXAXAXDXDXDXPXLXLXLXLXDXMXCX1XQ.n.|.{.",
"ZXzXzXzXlXZXzXlXlXCXNXAXgXkXtXyXeX-.#./.;.P.*.P.gXgXgXkXtXtXkXtX(.tXeX_.}. X~.+.] ' ' T s p n T T | [ *.*.*._.P.[ [ [ [  . .t...*.} O.@.[ G.N.K CX#.G.%X&XoXXXoXL.gXkX`.`.lX&XgXtXlXlXXX~.vXkX(.vX$XT.1X&XdXtXkXgX_.(.L.O.*.[ [  . .=.*.T ' { ] E %.%.o.N.MXbXZX",
"iXsXiXwXaXwXi.h.wXlXCXCXqXk.h.h.p.w.r.u.r.&.9.8XwXwXwXh.h.i.h.wX&.u.i.=.P [.L.= a 1 1 2 6 0 5 a 4 2 2 7 6 g / g 2 ! 4 2 2 h 6 h j ( R R ^ [ C @XoXW tXkXtXeX-.(.qXqXuX(.tXtXtXqXuX;.`.`.`.-.qXqX`.^.}.*X(.qX:.wX8Xu.u.u.r.) 9.4./ h 3.4.2 g / j g ! h W {.AXkXiX",
"k.pXsXk.sXiXa.iXaXzX1XAXtXpXpXh.iXu.u.u.u.t.t.8X8XwXwXh.h.pXk.i.i.u.t.P.B.].} f / 4 0 2 6 0 0 g 7 2 2 6 6 6 / 7 2 2 2 0 0 7 6 6 6 g d ^ ^ R Z 3XvX>.qXuXyXeXP.tXtXeXtXtXhXeXqXrXqX;.(.gX'.P.;.qX`.G.CX'.;.r.i.aX8X8XwXrXi.) e.~ ~ 3.0.0.h / / j j 3.h R E.DXzXsX",
"pXpXaXiXiXi.i.wXyX`.|.NXlXyXtXkXqXqXrXqXP.=.P.P.P.eXyX,.:.uXaXrX7XuX7XI.C.:XD.p a a f f a 1 > a p 3 a 3 2 a / g 1 1 a 5 = 1 2 1 a R | D.| { v.NXCX@.L.gXgX_.oXlXoXoX'.oXgX`.L._.P._.lX`.).).(./.'.XXAX^.@.;.qXeXjXjXtXtXrX8X7X( R ( ..) ^ ^ R R R  .! T |.PXlXwX",
"'./.`.D.).G./.oX'.}.=X>X!.$.P ^.F.H.~.S.P H S.P J.^.).).$.^.XXXXS.I._.H.A.6XU.q S r - - i * * i q - i i i w ' S * q q q q - - i q r q u r N & 6X4XL L !.].C.N.Y.C.].Y.B.B N G M.~.!.B.C.C.].D L T.#XUXV.G +.F.^.[.[.~.XX+X).+.P D q F F i r r b b n n A W.BX$X`.",
"^.F.H.].M.B.P F.F.{.BXW.Y.B.!.B.B.B.B.M.S.P P D M.P P F.$.B.Y.K F.G.J.H.|.NX[.J H H H S.J.J.S.S.P D F H +.{ M.H G N . c c q q q r H M.N . M n.>XC.O o @ M v.$ n.b.C v O M C M.M.m.m.].{.4X].!.$X1XDXPX>XC.XXH.}.W.E.].OXOXOXOXXX$XH.^.~.XX%X[.H.XX)._.%XNXNX}.G.",
"-.L.OXAX5XAXvXlXlXZXFXAXFXSXGXGXFXFXZXCXlXbXZXSXZXZXbXbXZXSXAXNXZXGXbXbXSXPXZXZXZXGXGXGXSXSXGXGXGXZXZXSXGXZXvXvXSXvXXX~.XX).I.I.oXoXoX).#.XXnX%XXX).XX~.H.C.T.>XH.D.+.F +.D.I.D.D.).).%XvXoX_.gXbXnXnX<XvXoXvXAXDXNX,X%X%XlXlXoX).gXgXtXgXhXoX_.hXhXjXbXnXhXgXgX",
"= : A Z.}.}.'.`.`.`.L.gX`.-.*.(._.(.L.tXqXqX,.,./.(.qX7XeXoX{.3XE Y a p e , : > Q Q p e y , > p , = = > e : - r   J.XXq n t e e e n T W W e T } [ ] ' ' S u A.#Xi y , e y y y y T T y e s p p T  .e y t t y : D n.BXS.i ' w : y e > : Q p > p > , 1 1 a > f e , ",
"5 e b ~.%X).tXaXyXqX%.;.u.w.wXh.wXuXwXh.wXh.r.j.:.:.u.i.&.-.!.}.! 8 9 6 6 5 5 6 8 6 7 2 7 7 7 7 5 0 5 6 0 5 4 > * ).gXy R Y d p a Y Y Y ! 2 a 3 3 3 a p s q {.C.y  .p p p p p 1 ^ a a f f a a ^  .R f a 2 1 1 e K 3X] p R d 2 2 a 0 a ^ R p 3 3 5 g g ^ 2 2 2 0 ",
"! *.+.^.lX'.qXwXrX:.%.h.iXr.r.h.h.wXiXh.iXwXp.h.pXh.wXu.r.qXXXlX7 l 9 9 9 9 9 8 l 9 7 6 9 9 9 8 5 6 9 0 0 6 6 1 : _.gX> 3 4 1 a a Y a ^ / 2 j 4 2 3 a a t i :X].n | p R p p 1 3 a 2 2 a d a 3 a ..Y 1 2 g 5 5 Q b.DX{ > ^ f 3 3 f 2 a ^ d a a Y g g j g 2 5 2 a ",
"*.(.~.!.vX`.tXuXqX(.eXeXrXuXqXqXuXpXuXrXaXrXwXrXaXwXrXwXqX_.[.oX4 l 9 6 8 6 0 9 8 9 7 2 6 6 9 6 6 2 7 5 0 2 2 a * ).lX, a 4 3 3 p p p T | > R a 3 p p p r J AX@Xq [ s t r n e > [ T p p s p p T  .d d d f 1 3 w m.PX{ : X.p T T e p p | R s e p a a ^ | a p [ *.",
"S c C C.H.c c F { +.{ b w m m m ] o.] ] ] ] o.] *.@.] F F c Z.M.: > = = = < < = = = = = = = = > = * * - < < < -   XX%X; > < < * * * * * - < * < = * * - ; u @XN.  * * .     * - * ; ; * * ; - - r - - - * - w q E.PXu * i q   O . q w n w q i i * - * q ; . r c ",
"|.>XNXLXJX5X].C.H.].]. X$X X{.Y.}.$X@X X}.|.;XW.b.C.Y.E.#X>XBX>X{.C.m.m.B.C.!.!.H.!.H.!.].].[. X|.;XR.W.].[.[.[.3XDXPXPXvXbXvX%XvX%XOX%XvXZXnXgXgXoXgXlX%X,XAX1XOXnXvX XV.>XCXvX$X,X$X].[.}.OX$X$X$X1X3XAX$XXX3XLXLXAX4XvXMXJXVXBX3X3X<X,X1X3X@XC. X,XMX>X>X>X@X",
",X,X;X,X5XOXH.XX[.J.J.[.XX[.}.}.OXOXOXOXXX}.>XBXNX1XMXAXDXLXLXLXPXFXAXAXCXAXDXDXDXFXSXFXFXDXDXPXAXNXBXJXvXvXnXvX4XCX<XnX+XI.)._.).I.+X).K._.I.I.P.P.eXP.D.D.J.J.D.D.F.C.3XNXC.H M.H.~.!. X}.OX$X2X2X2X1X4X}.XXCX:X>X5XvX$XMXVXBXNX3XMX2X<X1X1X,XCXCXCXMXQ.BX>X5X",
"%.%.| s R ^ a Y 3 3 4 4 4 ! R ^ a 1 1 f 3 , N Y.vX/.`.kXkXlXoXlXtXkXkXdXtXtXtXtXtXtXqXeXqX,.-.-.O.b N.!.p g 6 2 3 3 2 2 g 4 7 7 4 1 a a ^ ../ / 3.h 3.2.6 7 g g a g p m OX}.r [ } *.*.[ P.I.(._.tX(././.`.`.`./.XX).).).-.'.T.3X).P.tXtXqX:.*.eXjXqX-.I K :XI.=.",
"r.4.9.3.3.4.4.~ 3.~ 2.~ 2.4.h h 9 8 h h 9 4 m F.kXuXyXfXpXfXfXpXwXsXk.h.pXpXpXh.h.pXi.iXh.h.w.&.( E !.G.7 6.l l l l l l l l l 9 8 9 8 h h z 5.5.5.l 5.5.l l l 8 8 8 ! e F.~.[ =.=.9Xu. .7XqXqXqXqXqXqX;.tX(.(.qXqX(.tXP.7X`.N.1XtXaXaXh.h.wX..t.i.r.r.O.P $XeXy.",
"i.u.y.9./ 9.4.4.9.4.4.~ 2.e./ / 2.8 h z 8 7 m $.zXwXfXpXuXfXfXwXiXpXp.h.pXk.pXh.k.h.u.8Xh.k.p.` W O.^.#.7 l l l l l l l 9 8 l l l 9 8 l l 2.5.l l 1.5.1.l 8 l 8 l 8 g p ~.%X' 7X=.9XP.-.7X=.qXqXqXeX(.P.eXjXtXeX7XqXP.eX;./.E.,XgXqXuXqXwX8X=.t.i.y.&.E B.4XtXrX",
"(.P.P.*. . .[ O.O.[  . .^ =.s s  .^ ^ j ! Q c B.bXtXkXkXdXdXyXqXP.qXqXqX,.,.tXtXqXtX_._.(.,.qX(.#.F MX}.Q ~ ~ ! ! 7 h / ^ ) ! g a 4 4 4 a ^ ^ ! ! ! ! ^ Y Y ! ! j a e m ]. XP I.D.D.c O I #.'._.).~.).).oXD.I._.L.'.G.J.).~.A.W.c `.`./.(._.P.I.P.P.-.D @XAXoXtX",
"# M Z Z Z M @ @ # # Z M q M O o o O   O q O + W.E.L B Z B B B c N N D N v M C B B K v.$ B v v v B $ >Xn.o c q q c . O O O O O O X O O O O   . O .   . O O O O O O A u # R.R.$ # V V & & n.# # # V $ $ # V + v.$ $ @ + $ # % R.=Xn.b.Z @ Z Z M C C M G N.6XQ.V C ",
"].}. X XOX@X X}.}. X[.H.J.H. X:XW.;X X!.B.{.W.>X,X$X}.{.}.}.}.!.B.L M.M.M.C.C.B.B.V.n.n.N.L M.B.Y.{.>XV.Z.L v c L C m.M M b.n.n.T.W.|..X.XE.|.|.E.E.{.{..XE.E..X].<X X|.NXJX6X3XNXNX=XVXBX:X}. X X:X|.|.}. X5XW.|.#X@X:X{.3XJXNX3X}.<X}.E.Q.1X3X1XOX2XAXMX:X].~.",
"X... .^ ( .... . ...X.^ w...P.D.FX$XG.L.`.lXoX).L.tXtXgXgXtXtXtXeX(.`.`.gXgX(.tX(.'.|.>XXX`.tXhXkX_.gXgXhXtXqXtXtX_.gX-.@./.).J.}.M.{ { { { D.G.D.L.D.@.@.@.} @.] ] ' ] F $.+.o.#.P A.3X$.E %.P.*.O.[ P.%.&.=.=.-.*.%.P.=.*.@.D.O.[ t.7X$.I gXO.E Q R | > p  .( ",
"8 8 9 6 9 8 z 9 8 8 8 9 9 3.^ P.GXXX(.qXqXeXP.%.&.u.&.t.u.:.=.u.u.u.u.7X7X=.( &.r.,.{.MX'.qXj.j.qX..r.r.&.&.` w.8Xu.8Xi.r.:.L.I.%XF s s p p [ E [  . .R R R R R > , Y Y Q E Q R Y E C.<X[ &.) ....! ..y.e.4.4.e.) ~ 7.a.w.4.w.t.) ) 0.e.E O.7XY a 2 g 7 6 5 ~ 8 ",
"l 8 9 7 9 l 5.8 8 h l 9 9 4.R P.FXXXuXwXwX8XuXu.u.u.w.i.h.i.&.&.i.r.w.t.t.....w.7.%.].NX).wXwXi.u.t.p.w.r.u.r.i.8X8X8Xi.&.%.*.D.%XF ' R T T [ O.%. .%.%.[ [ O.[ e R R Y W %.R  .&.n H.4XR ) 9.9...! ..w.e.0.4.0.e.3.5.s.3.4.e.9.) 9.e...T /.8X^ 2 g j 6 8 9 2.9 ",
"h g g ! 4 7 3.g j j g 7 ! ( T D.CXXXtXqXqXeXuXqX;.qXqXqXqXuX;.;.qXu.=.=.X. .=.u.r.O.|.DX).eXuXu.qX8Xu.t.=.=.i.wXwX7X&.8Xu.-.L.J.$XN S s T T ] o.@.o.@.-.@.o.@.O.{ ] [ *.O.[ ] O.*.F  X4XO. . .=.*.*.P.7Xr.r.w.t.=.t.w.i.w.&.&... ...q.=.F $.eXd f a j d 2 5 / 7 ",
"e t m w w n T r w t : w w b q Z 3XY.^.F.H ).G.#.G./.o.#.).~.F.G.).I.{ { { ' ] D.@.c T.NXC.J.L.'.)._.G.G.@.@.I.L.).G.L._.L.G.!.|.:X# q q q v v v L B.F.F.L L P G G L G J N A L G M.C |.@XG N A u A u G H.I F { +.P F +.@.+.+.F S A b } S Z B.D.- * - i r i y t : ",
"r i ; ; ; ; - . q O ; r S b H <XPX}.B.M.F.~.S.o.J.+.P +.F F P D c c r A b S S G.J.OXNXBXG J H F S P D P F S { H +.F F F F H N.E.W.K C G L C b.n.$ b.m.G C L L m.K C L M.M.M.m.C m.|.AXAX}.!.H.C.m.Z v.V B D F H I D J P P b A H J S.D.J.}.AX%Xb m F b u u u q w ",
"7X7X7XeX(.P._._.H.[._.tXgX_.hXZXbXoXoXgXgXtXtXtXtXP.gXgXP.I.tXL.-.gXgX_.vXXXbXbXlXbXFXCXlXbXvXhX_.gXoXlXhXhXgX_._.'._.'.gX%X%X<X4XCXvXvXCXAXAXDXNX4XvXvX%X4X2X2XvX%X%XlXvXnXnX%X2XCXSXCXvXCXvXvX<XAXFX}./.tXgXtXtXtXeXtXeX(.eXtXtXhXkXlXXXlXoX_.tXgXoX%X}.OX_.tX",
"q.....9.....&.[ N M.*.p f > > > > e p 3 > > 3 3 3 3 a p 1 1 a p 3 Q e w G.#.E , > e m , y p , e e e e p p T > : : : , , E o.+.+.+.D.#.$.G.!.N.K  XM.S.J.+.$.P I G.#.$.#.@.@.#.#./.$.F F o.F n o.I P ~.b , 3 > > = p 3 1 1 1 3 > > 3 a > , e e p 3 Q T ] B D *.t.",
"d.0.0.0.0.0.0.^ r H ..a g g h h 2 2 5 2 7 g 7 7 6 7 7 7 2 6 6 7 0 7 g d O.n 1 2 0 2 2 2 0 2 5 g 4 2 2 2 2 g 2 0 0 5 5 4 ^ .. .*.*.%.:.W O.L.D v XX+.O.*.-.-.' O.-.-.*.*.*.*.*.*.eX-.O.O.-.T [ [ @.F G.] Y 2 1 a 0 2 2 7 7 6 7 5 0 9 3.2 5 0 2 5 5 7 4 p F S =.y.",
"0.0.0.d.0.4.0...J S.=.j j h 8 9 9 9 9 8 7 8 7 7 6 7 h ~ 9 8 6 6 9 7 6 f  ., g 6 9 9 9 0 6 9 6 5 9 9 8 9 0 6 6 6 5 6 7 3.4.w.( &.&.( :.( ( P.o.D oX] *.-.-.-.%.[ -.L.*.*.*.*.*.%.P.-.[ [ *.R %.[ o.o.lXO.3 2 4 2 2 2 2 6 9 6 6 6 8 9 h 7 6 7 6 2 6 6 2 1 b F t.q.",
"u.w.t.8Xi.y.q.X.+.G.P.a a ^ ~ 7 7 7 7 7 7 ~ g g 7 7 ~ ! 2 2 a a 4 2 a f E [ a 6 2 5 6 2 5 6 6 6 6 7 8 9 6 7 6 5 5 5 7 ! ! ) ..=.:.:.:.&.&.P.$.P XXF O.-.O.*.-.O.#.L.#.-.L.*.O.[ L.L.o.o.] E [ ' F b %X+.T a a p p d a 2 2 7 ! 4 g 7 ) ! 2 g 2 1 a 2 a y r H 7X8X",
"T E O.@.[ T d e B P O.w = = : : > = 1 , > = = , , , p > : * * , : * y - D r y : = = = = < = = > > > = = = > = = * * > , > , n E m n m m T ] B B B.. . v c q q q c c q q c q c b D b   q w q w r v . C.c w * * - - - : < < = - = = = Q : = = = = = : > * N B.] [ ",
"F D Z C D b { S.{.1XB.q H +.S.J.S.S.F.J.H H S.S.J.~.%X[.H.].Y.{.].C.C.E.:XN.L G L B m.M.B.M.D F F D P D D P J L N.Z B B u O M O o o O O O O @ Q.W.@ + + + $ $ $ $ @ K V o o o @ # @ m.C Z C C C b.E.|.C Z N u q V K G c c B c c b b D F D S F c c b F H C.Y.M.M.",
"L.~.C.E.H.D S S D B I +.P { { H J J H S.H { S.S.S.S.S.G B N.1X,X3X5X@X@X1X@X$X<X<X2X,X$XOX[.XX}.XXXX2X%X%X<XXX$X:X#X1X}.[.1X1X@X]. X1X,X}.].{.MX3X@X:X1X>X;XR.-XV.m.B.C.G B L m.B.B.H.H.S.S.~.~.]. X,X[.J.~.J.H.T.BXOX%X[.~.XXXXXX%X*X/._._.).L././.I.G.G.^.~.).",
"! %.F S.O.e p p Q , > Y 3 a d p a p a R p f p f 1 1 p T e n gXL.-.*.*.*.O.-.,.;. .=.=.*. .W :.W T  .P.%.*.P.*.*.'.)._.I.I.tXtX(.D.I._._.eXP.L.L.P.(.*.@.I.N .XM.w , e R p , Q p Q p p Y a a .. .[ *.%.%.R  .R ' B.CX/.tX;.-.;.%. .7X:.` ..../ ....( 9./ ^ ^  .Y ",
"~ 9.' @.;.( ^ a x x ! ! / / j ^ ^ ! ! ) ! g ! ! 4 g ^ a 3 Q tX:.u.w.u.r.` u.i.i.) / 9./ / ~ 4._ ! ) ..( &.8Xt.t.(.-.%.....X.&...X.t.u.=.t...&...&...) .. .n ~.S.p 4 4 4 2 2 g 4 2 2 7 7 9 h 4./ ! ) ) / g g ! Q +.lXqXwXwXj.u.w.) w.7.4.3.0.0.0.4.~ 3.h z z ~ g ",
"3.w.' D.P. . .( ( Y  ...) ^ X...&...&.&.:.( ( ( ^ ^ ( W Q Q tX*.r.w.h.u.w.r.u.h.4.4.q.) / _ ` _ ! ^ ^ ( &.u.w.u.(.O. .......r.) ..w.:.( &.......&.&.) t.%.o.J.D.d g 2 2 2 g g 7 6 7 h 6 6 h 4.~ 7 _ 9./ j / ^ Q o.lXyXaXrXwXu.u.u.u.r.7.e.9.e.e.4.2.3.9 z h 3.~ ",
" .[ A J.).#.+.o.o.o.#.I.D.O.O.] #.@.@.#.#.o.F m - n O.#.F F &X$.-.%.-.L.P.*.O.O.%.;.%.%.[ [ -.E E E E T O.L.P.L.).I @.*.*.*.*. .=.-.O.@.-.*.%.*.*.-.%.*.#.G.$XM.r y > e e p e p y f > f f f ..R e T | | R [ E m B.,X).tX/._.`.eX*.P.;.%.%.W R %. .(  .^ ^ R R  .",
"v m.A.-XA.# $ n.n.A.$ b.n.A.b.K V.V.V.A.T.n.n.% V n.V # b.>XNXb.K K K V V.b.K Z Z C @ # O o # # # o O O M b.N.b.n.% v.C C Z M N N v Z Z M M u m.M # B m.V W.W.& $ # @ @ o + @ @ # M o M @ o m.C @ @ M M N B M % -X=Xn.V.V V K M @ V K Z v O o M u o v o O o M u ",
"MXAXNXLXNXNXDXLXUXIXNXIXLXLXLXIXPXPXPXLXIXLXIXLXPXPXLXNXLXIXLX6X>XNXNXBXNXNXNXNXNX3XMXNXNXNX3XNXNX>X|.3XAXDXDXLX>X>X:X;X;X|. X X XY.C.Y.C. X.X;X|.|.].@XMXNXLXLXNXPXLXPXLXJXPXLXNXNXDXMXMXMXNXMXMX3XNX4XAXvXAXPXUXIXLXLXLXDXNX>X6X6X3X1X@X3X3X>X,X:X1X3X>XNXNX3X",
"G.^./.).J.L.#.o.+.D >X3XJ.G././.#.G.@.L.L.~.,X4X_._.).D.J.S.P G.oXoXXXlX<X<X<X<XlXvXCXvXlXlX_.XXE.:X4X[.J.D.} I.D.D.D.D.D.D.I.D.[ S { I.o.O.I.D.D.I.L._.G.).+XJ.I.).XX$XNXLX$X).oX`.`.`.'.oX_.P.D.{ { @.I.P.} D.oXoXoX)._.).!. X,XOX%X_.#.'.XX).oXoXP.oX%X%XXX/.",
"O.W W W [  .W Q Q ;  X4XI.rXu.%.=. .&.&.u.gX<XOXW ) W [ R  .n n R W T o.@.#.D.L.-.O.#.o.[ R W m o ;XSXr T ^ > 1 a 1 = p R p a p Y , > | Q Q d d R d a ^ p p s f p p Q F v.>X{ T p W W Q %. .R ^ a d R a a ) j a a ^ T R ..W D [.%X).P.%.W %.@.O.-.;.=.=.L.L.#.O.",
"%.%.O.W  . .( ( W m [.<XI.wX8Xt.i...i.` &.eX%X%X%.( R  . . .Y Y (  .W O.-.-.*.O.*.%.-.>.=.| Q m v ,XZXn T ^ 2 7 g 2 1 Y ( Y Y a Y 3 p | a a a d a d g / a d d f 2 a ! E M 5X} a 3 1 Y 3 ^ a a Y g g g 2 5 ~ 2 1 g ! Y Y _ ^ F B.XX/.eX .%.%.O.%.*.;.=.=.L.L.-.%.",
"@.@.@.@.[ [ [ [ [ ; B.4XgXrXeX7X....&.&.;._.XXXXO.%.O.[ %.%. .R ( %.O.O.#.L.L.O.O.E O.[ [ %.E m B $XvXn [ ^ 1 a a a p T ^ R Y Y R > e [ | T s ' s R ^ ^ p s d d d a ^ ' m.3Xr p 1 1 3 1 1 a p , 1 3 a 3 3 ! a 3 3 1 3 p ^ ( F !.$XP L.[ *.L.@.@.O.-.*.@.G.G.#.#.",
"P P P P H H H D D . >X3XXXvXgX_.I._.P._.L.).5X@XI $.+.o.O.#.@.] ] @.#.$.G.F.D.+.+.+.o.o.+.+.F J o 3XPXN F ' : e e y y r S n n t b i A F S b S A b n E [ ' S S ' s T [ b E.DXc w w y - - - t w w : y e e y E e * : - w w T r O V.#XL S.H P P H.H.P G.H.B.H.B.I S.",
"L L m.L G H H L P {.IXBXB.P S.~.[.M.+.D.P G .XZ.v v . q q b r b b b b D c q O O q b c c u O N N n.LXPXB.A S n n r i r A A r r N M M N A F S H F w w r w i i ;   * - ; . n.NXv q q q b S.S.A w m b r r A w m w q n q q - w S G {.1XN.P H M.B.V.m.L I B.B.L D L L ",
"vXCXSXCXvXvXCXSXCXAXDXDXDX&X&X%X3X@XCXvXCXvXAX4XXX*X~.^.!.%X%X%X%XXXXX[.~.B.H.!.~.!.XX XE.|.4X<XLXUXPXDXvXCXSXSXvXvXvXvXvXvXnX4X6X>XH.I.P.*. . .' ] @.F H J.S.I G.+.P ^.1XMX}.XXXXXX%X}.@X}.)._._.+X+XnX).).gXvXlX%XlXlXlXZXCXvXCXvXvXlXnX1X3X3X2X&X2X4XXX&X%X%X",
"$.#.)./.G.#.G.G.^.$.I I I I b D O V.CXF +.+.J.).G.o.#.@.+.G.D.J.D.G.D.S.F.P B.P F.)./.~.3XNXP J.[.H.F.+.~.)./.G.F.S.P P S.D.D.m.R.JX[.( 3 4 4 a Y [ ;.L.P._././.(.L./.'.).^.'.).).).G.B :XY.] T T t S { ] [ *.%.[ @.O.O.O.o.o.n ] -.O.} #.S.Y.E.F.#.I F #.@.F #.",
"O.%.*.-.*.O.*.@.O.O.*.%.%.Q Q m . P lXO.%.=.P.=.( ( ( ^  .*.=.=. .=.*.[ W O.' n  .%.%.#.MX$X]  . .*. .R  .%.( W W [ W R  . .R ] A.NX*.g 6 5 7 7 4 ! ) t.t.=.:.%.:.:.*.%.=.&.;.7XP.P.*.b 4XS.p 2 7 1 d p a ) _ _ ( ( &.` ( ( ..( ( )  ... .@.m.!.#.*.*.*.=.*.] O.",
"W :.=.&.%.*.;.*.*.%.&.&.( Q Q Q ; $.lX%.&.u.8X9X) ) ..) &.&.=.=.9.w.r.%.%.%.%. .&.( ( %.*X'.*.X./ ..9./ ) ) ! ! ^ ( ^ ! ) ) ^ ' V.LX .h 6 5 4 g 2 ! 4.4.4.4.u.r.w.t.=.&.w.) r.u.=.=.*.m CX$.! 8 9 5 4 4 7 ~ 2.4.) ` r.7.` ` w.) ) ) ( ) ..*.D !.-.:.=. .*.=.O.O.",
"-.-.%.=.;.-.-.-.*.%.=.=. .( R T . H.bXO.:.qXrX7X .( &...t.&.=.t.w.i.qX:.%.:.=.%.&.&.:.O.*X'.%.) ) 9.) ^ 9.9./ ) ....) ( ....( ] V.DXE ^ g 2 f d d X.q.4.w.w.&.X.t.t.=.&.r.w.t.=.=.7X*.w %X+.^ 7 5 5 2 7 h 2.2._ ` r.u.r.:.:.&... .(  .(  .O.D XX(.;.=.P.*.-.#.#.",
"F I n m F F D F F F H S b w w w . Y.XXb m ] o.m m w m n E E ] ' T ' F m m o.+.{ ] ] m b }.^.F E E [ T e [ [ T | [ [ [ E [ ] E D n.BXq - * * - - i r ' E O.O.[ } [ [ ] ' O.[ O.] ] { +.D {.o - : < = = > e Q Y Q T ] [ T E F n n m m w : : q o B.m r S F A D B I ",
"N.C.C.C.C.V.N.Y.Y.E.R.n.R.T.V.V.R.BX>XT.V.T.W.E.V.V.N.V.C.Y.V.E.|.E.W.-X>X;XR.R.W.A.E.W.=XR.b.V M C K M C Z M Z C B Z Z Z M # @ n.VXV.@ + V V $ + + @ + + o O + O O + o o O o # Z.b.V.:XJX;X].!.Y.C.Z.V.n.K K N.m.Z.V.N.E.E.E.E.].Y.C.!.].{.>X6XC.Z.V.v.n.n.v.n.",
"DXAXSXPXPXDXAXPXPXIXJXKXLXLXNXNXNXLXNXNXNXNXDXDXNXDXNXAXAXDXAXDXDXNXNXNXLXLXJXJXLXAXPXUXLXBX3X,X3X4XMX1X4X3X5X1X4X<X<X<X1X1X1X1XMXNX1X:X3XAXNXW.NX>X>XR.b.Z.V.V.V.V.V.V.C.Z.V.W.E.|.:X6X6X6X3X:X@X:X;X>X>XBX1X$X4X4X1X,X<X<X5X,XvX4X2XvXnX2X4X3X<X X:X-XBX6X,X4X",
"d ^ ^ a ^ ..[ W  .L.V.>X}.H.G.L.G.J.F././.G.^.^.G.~.G.G.G././.!.^./.).G.G.~.Y.B.).D.O.L.).I.L.P.P.-.L.L._./.L.L.*. . . . .%.=.=.P.P.P.P.P.P.;.L.D.S.>X#Xc r r F J S A J { { H J D D b S S w q b r n r A m.<XO.Y d d R R ^ ^ X.( | ^ ^ ^ Y a p p d p m P lX] R | ",
"3.z z h z 4.4.3.e.=.m.MXXXL.(.P._.L.P.;.;.,.(.L.L.(.(.P.;.P.L./././.(.P.(._.H.+._.rXu.u.7X7Xr.8Xi.r.i.wXrX8X8X8Xt.w.q.9.9.9.0.e.y.8X0X0X8Xy.i.u.7X] ].#Xm T t ] n ] ] ] } | } ] n ] ' s | ' e T T | s t G vX&.4.z z 3.2.z 5.0.5.0.3.5.2.2.2.8 h h / Q [ bXR 3.3.",
"z 2.l 2.h 0.0.4.0.7Xm.@X'.(.P._.L.(.P.;.j.j.;.P.P.;.(.(.-.(.(.(.(.(._._./.'.!.S.kXqXu.u.qXqXt.8XwXu.u.8XwXu.u.8Xy.9.9.9.t.y.y.y.y.a.y.p.a.i.i.u.8X} Y.#XS ' r S n ] ' ' [ T | ] { ] ' T ] t s T T s k r v.2X;.3.2.2.3.z 3.5.4.4.3.3.3.2.~ ~ h 9 8 / T ] lXW 3.z ",
"/ / ~ / / t.q./ 9XI.m.3X~.L.).)././.L.'.-.(.L._.'.,./.^.#./.'././.'.).J.~.}.E.C.lXeX-.;.tXqX*.7XP.7X7XqXyXtXqXeX9Xt.=.=.=.=.9X7XP.qX8X8X8Xu.(.P.9XD.T.#XN J J J b S H J F { S { H H S S H S S ' ] ] ' u v.MXI.w./ h / ) / / 9.) q.4.../ _ ! ! j / d ' H &XE ^ / ",
"} [  .[ *.I.} } } +.b.BX].H.[.!.!.H.!.!.!.!.!.].!.B.!.{.}.}.OX}.@X:X|.|.|.#Xn.n.1XXXG.G.+X+XJ.XX+XI.I.).%X~.P ^.D.D.+.+.+.+.D.+.S.S.J.I.).~.~.H.U.Z.=XR.$ v.M V Z Z v.V G G N N C C B Z C M N N u v M o & BXF.I.O.' } ' k D.P.I.X.X.*.| [ | T ' ' { H M.[.P D.[ ",
"S r n w - *     - q O K O   . X X X O o @ # M M v Z Z Z Z o O u M V # $ + + + @ Z q u J +.J.H.C.M.+.+.F H G q q c D D c q q S J G N N J H G G M u Z.JX-XA.A.A.V.b.b.n.R.W.C.C.C.V.V.Z.Z.m.v.b.Z.C M V n.>X6XG q     q   O N A i i - i * * * q r N O   M.M.q S @.",
"_._.tXeXP.L.@._.P.L.G.D.[ [ @.#.L._.I.J.N.|. X%XXX[.%XOXJ.J.[.[.).~.[.$XH.^.[.OXoXI.L.L.P.gX<XOX%XoXhX_._.oX).G.L._._._.L.I.eXeXoX).I._.oX_.).D.D.+XCXAXCXvXvXFXPXPXUXUXIXPXPXPXCX4X4X4XvXvXMXAX4X<X4X4X4X4XOXXXH.]. XE.;X;XC.H J r S F D.D.{ S.B.C J.S.] I.L.P.",
" .=.t.&...t.*.;.=.7XrX=.t.t.&. .r.wX7XD.C.C.P { @.I.D.' ' } { } @.O.O.#.[ *.[ T R ^ R T ^ [ J G @.T s R s T p T R p p T | R d a d T p Q Q Q T T s | w n e T e n r B ;Xn.G J A J S c N J J J J H H J G M.J H { H H M.M.C.>X-XM.+.t ' @.] [ { { S.N.C.%X'  .=.....",
") w.e.4.0.0.9.w.0.e.0X3.5.6.4.4.0.a.y.*.<X].O.R R X./ j j ^ ^ ^ ^ / ^ ^ j 9./ g h z j j 3.X.+.H.O.R a a 2 a 4 1 a 2 g j j j 2 2 j / h g 7 7 g h g 2 g g j g 6 g p t 4Xm.{ T s s T t t ' k ' n ' | ' O.@.n T [ | T ' F S.>X|.} ..X.=.=...9X9X%.] L !.tXR y.0.0.0.",
"4.e.e.3.d.5.0.4.0.d.s.d.6.6.4.2.5.s.0.=.<X[. .( j j h h h j ^ ^ / 4.3.3.4.d.3.z z z h / 4.^ +.+.O.( a 2 g g 6 2 6 5 7 6 g h 2 6 6 h 8 9 9 9 8 8 z 9 6 9 h 8 8 2 f s +XS.] [ d d R s s | | | T | X.s [ W [ R | T d | T P ;X[.*.9.t.....q.y.X...P.XXH.tX^ h 0.d.0.",
"9.y.e.9.0.4.9.w.4.e.a.e.0.e.9.e.4.sX8X*.<X[.[ ) g / / h g ~ / ^ / / / 9.9.0.9./ / / / / 9. .F ^.O.R a 2 6 g g 7 7 2 2 g / / a a j g ! 4 g ~ ! g g j h h / ~ g g T n +XH F [ s T T T t } ' ' ] ' | k T ] ' ' ' ' k ' ' H  X,X%.q.t.t.t...9Xt...P.P XXkXW ) w.y.0.",
"T y w e p p T T e T R T n n n n T W n A .XZ.m e * : , : : y , , - : s T s T Q - y y y : , w v B.c i - = : = = y : , > > > , - - - - w e y , - - : , > : : - : - ; q ].Z u c r u u c N J A u q q u q q q q N u u u q u C >X;XS.] } D.@.I.I.{ @.S.E.E.D ; ; - n r ",
"o + # C B C B M V Z V K n.A.R.n.V V v.A.=XR.b.C M V V M M Z M v M Z C B Z M Z K n.& Z M G C n.;XT.n.$ # C Z # K Z V v.Z M # + $ @ $ v.v.$ K V $ v.b.v.C V V V V b.>XJX=XW.;XW.W.-X=XBXNXNXNXNXNXNXJXNXNXJXJXJXJXNX6XNXJXKXJX=XQ.T.W.=XR.& n.A.W.=X=XW.n.@ @ $ $ ",
":XMXAXAXCX4X4X4XNX3XMXNXJXNXNXBXNXNXNXDXLXNXNX3X@XMXMX3X1X1X2X4X,X X].]. X@X#X>Xn.NXDXAXCXAXAXDXDXDXNXNXMXMX1XMXMXMXMX4X5X3X>X6XNX>X6XNXNXNXNXNXNXNXNX3X3XNXNXNX3XNXLXNXNXNXNXLXJXKXLXDXLXLXLXNXJXLXLXLXLXLXIXUXUXIXIXUXUXIXIXIXLXJXJX=XBXLXNXNXNXNXAXDXNXNXBXNX",
"tXkXtX(._.qX(.eXeXO.E #.+.D }.%XgXtXtXtX`.`.tX(.(.tXkXdXtXkXkXkXyX7X7X7X*.P.-.b G vXrX8Xi.8X8X=.P.(.tXyXqXuXqX,.,.%.&. . .*.#.^.CX}.OXvXnX%X%X%X%XoX).)._._.).).).D.G.J.F.J.J.M.W.6X<X+X).S.J.J.S.+.#.#.#.D.).).XXXX~.oX_._._.'.'.P O Z CXlX`.@.P.P.P.P.`.tX(.`.",
"pXsXi.r.i.r.w.a.y.9.) ` [ n oXkXj.h.aXfXfXpXaXfXfXfXzXzXfXfXfXiXr.w.8X0./ q.w.p P vX8XxXs.5.6.s.e.4.7.p.e.e.7.4.7.~ 3.3.3.9.%.@.CX%XvXlXhXhXkXhXgXtXtXqX7X=.=.;.P. .;.eXtXeXeXD.5XDXlXhXkXP.P.P.P.*.;.u.=.=.u.;.tXeX(.qXqXwXrXqXqXO.q P ZXtXwXiXiXiXy.y.h.r.i.aX",
"i.iXy.y.y.w.9.y.0.0.4.4.X.| lXtXu.iXfXfXk.j.aXzXfXfXfXzXjXjXaXu.r.4./ / 3.0.9.R +.bXsXf.l.s.8.6.s.6.s.s.6.5.5.5.5.4.d.d.0.q.*.$.CX'.'.hXhXhXgXgXkXyXyXyXqX&.:.:.u.u.wX:.7XeXrXD.>XMX'.;.7X;.P.=.;.:.&.&.=.9XqXqXqX(.(.`.uXqXyXyXjX-.c !.CX`.qXwXiXwXt.8Xk.p.y.0X",
"yXyXrXP.P.P.P.P.P... .=.} S %XoXP.rXjXzXdXdXkXbXzXkXlXzXhXkXgX-.*.*.*.*.%.8XP.S Z <XjXiXk.h.i.y.y.y.y.y.y.e.9.q.w.y.y.y.t.P.G.P 1X1X4XvX%XvXvXlXlXlXlXlXgXL.-.(.tXP.tX/._._.gXM.R.BX*X/.'.gX).).)._.;.*.I.eXeXtXgX`.'.&XoX'.`.gXvX~.O {.vX).gX_.gXtXeX7XqXyXrXrX",
"B.m.C v B B V o o N M C V v.:X{.B B.B.M.B.B.N.L !.}.{.Y.Y.L L C b.b.v.V O @ o + R.A.S.L./.@.D.D.+.{ D.I.} } ] H F +.{ S S.G V A.n.& n.n.n.W.T.W.W.N.N.E.T.n.C.C.N.m.C.N.m.K Z % R.R.& % V M v.v.n.C G D G G G P B.B.N.N.E.V.N.C.E.v.n.NX>XE.C.C.H.H.M.M.P B.M.M.",
"].]. X}.}.:X>X-X;XCXDXMX{.3XAX}.B.P B B N c B I I P L B.}.!.!. XMX>X;XNXNX1X3X3XIX3XJ.L.`.#.D.I.#.#._.eX_.L.G.#.G.#.D.oXoXJ.H.3X#XT.V.W.=XR.n.E.n.b.b.V.b.b.m.K Z.m.m.Z.C Z b.V.BXLXBXW.E.:X6X=X>X{.H.M.H M.S.J.H.}. X,X|.V.].B.C.C.].MX3X:X@X,XU.J.J.~.F.B.B.!.",
"lXkXlXlXkX&X XNXZXzXzXkXkXzXzXuXfXfXsXfXiXiXiXpXfXfXpXaXfXfXfXzXzXlX XAXCXHXzXkXbXzXaXiXsXsXsXsXcXsXxXsXsXl.sXpXsXxXcXcXsXsXwXyXrXfXjXgX XV.~.+.S.J.D.I.] O.*.} O.*.*.I.L.L._.D.+X+X*.P.;.D.E.>XH [ %...X...=.=.=. .D.K.OXCXeXkXkXkXtXtXtXkXtXyXyXyXkXfXyXkXkXkX",
"uXpXrXrXrX*.B }.uXw.7.7.p.l.7.e.8.8.8.s.8.f.f.8.z.z.s.s.8.x.x.s.l.uX~.&X,.uXh.r.&.9.5.1.8.s.8.8.s.s.8.8.x.8.z.8.8.f.g.g.g.x.s.8.8.5.s.u.F !.] p | | | | d ^ ..) ( ( X.X.( t.q.d d j a 2 7 T L C.} ..t.0.4.4.0.4.3.j ^ T m lXiXa.sXpXiXr.h.pXh.h.p.p.p.p.p.pXh.j.",
"pXwXjXwXwX-.C.$XuXp.s.s.8.s.s.8.f.g.g.c.c.c.f.8.z.f.f.g.8.f.c.8.x.wX~.$X,.k.k.l.a.0.5.6.f.s.8.g.c.f.g.f.c.g.g.6.g.f.g.g.g.c.8.8.8.g.g.a.+.F.T | X.d d ^ ! ! ../ ) ) ../ ^ ..4.j j g g 7 ! R L C.P.t.t.9.4.4.e.0./ / q.p - tXiXs.k.s.iXpXsXsXsXsXsXk.k.sXiXsXpXpX",
"pXrXjXyXaXL.C.$XkXk.s.d.s.s.s.8.s.f.f.x.x.x.x.x.z.f.f.6.g.f.f.f.l.j.B.2X`.fXpXpXl.e.6.8.f.f.f.c.x.f.g.g.c.g.g.8.6.f.x.f.s.c.f.g.g.8.f.a.+.!.}  .X.| | R ^ | ..^ ( .. .X.X.t.9Xj | R Y ! Y [ L H.oX7Xt.t.w.w.9./ / 9X9Xs m gXiXa.iXi.h.sXaXpXpXiXiXwX8XwXiXaXyXyX",
"kXkXkXkXkXG.N.1XlXfXaXi.sXsXa.e.~ a.sXxXxXcXcXxXxXxX0X0XsXs.s.l.pX`.{.MXoXzXkXpXzXsXi.iXmXxXxXx.xXxXx.x.xXs.s.s.a.sXxXxXl.xXx.s.s.s.sXhXB.V.M.S S S S S A J { S n ] F S { I.I.{ H J F { { D.Z.].OXoXoXgXgXtX_.P._.I._.q . &XkXuXqXyXhXkXhXtXhXhXtXhXeX(.gXlXkXhX",
"$.$.$.L.@.F K ].^.>.E R  .^ ( p Y ( ( W ( %.( ! ! ! R  .^ ! ( ( O.F @X{././.(.,.%.=.( R ..^ ..! ! ) _ ) &.(  .=.%.( &.&.w.wXi.! !  .O.P n.>XM.u M.M.C C o u M u N c G G M.J.S.S.M.m.M.G L C.Z.A.G P H P H D D A c q r r P S.o.m E ] n ] o.#.#.] O.@.] F { o.+.G.",
"V.E.^.S.S.~.4XOXJ.).L.L.@.L.#.G._.P.O.] O.O.[ E ;.[ P +.L.@.-.-.G.).XX~.G.L.O.O.%.-././.#.#.@.#.#.o.@.#.~.S.M [.^.#.] { D.gX_.+.F D.[.].MXDXDXAXAXDXNXBX>X:XMX$X,X5X3XAXCXCXSXAXAXAXCXCX3X{.AXPX3X$X$X$X|.V {.}.}.'._.lXbXgX_./.(.'.L.L.lXhXhXkXgXtX_.L.(.'.(./.",
"W.C.{ ' ' { D.{ @.O.*.*.*.P.L.L.P.P.*.*.*.=.*.*.=.P.!.$XZXzXbXkXkXhXhXqXqXrXwXu.rXkXlXlXlXHXZXZXlXlXlXlXlX!.A.E.D n r S r b A c A J H N B K G J D B v.W.1X$XXXXX%X$X%X)./.G.G.S.H J H H D v G P c D F M.# # AXXX(.eXeXeX7X*.u.uXqXrXrXrXyXrXzXbXqXqXaXzXqXuXyXyX",
"C.S.^ 3.g ! ^ / / ~ ~ ~ ~ 3.3.~ ~ 4.3.4.5.5.2.3.5.) #./.fXfXiXk.sXk.s.6.8.l.s.8.l.sXpXuXuXpXaXiXh.h.wXjX;.{ }.~.3 0 = 1 1 p e r n T | t w w y s e w u C `.qX;.;.=.*.t.X.) ) ..^ ^ d d d s p p p Q p f | q c ZXtXiXk.a.i.y.w.a.a.a.a.a.sXsXl.xXcXa.p.l.xXs.l.xXxX",
"J.} 3.z h 2.~ 2.2.l l l 1.5.5.5.6.6.6.6.5.5.l l 6.7.O.#.fXxXxXl.s.f.f.g.s.x.f.f.x.x.l.l.l.l.sX0Xa.sXsXsXt.*.XXF.5 9 0 2 f f p s e p j f e s p d a T u J eXi.w.w.y.q.9.4.h ~ g h g g g j j a g a 4 2 j R q b bXaXe.s.s.s.a.a.xXf.s.f.f.f.x.x.xXxXs.s.s.f.8.8.s.s.",
"J.@.3.5.h 2.~ 2.z 5.l l 1.5.1.5.5.6.6.5.1.5.l 1.6.e.>.E cXcXl.l.s.s.x.x.x.x.x.x.l.l.k.k.k.l.0X0Xa.sX0XsXwX[ ^.).7 9 2 a ^ a p R T s ^ d s ' k s s E N H hXwXt.t.=.t.q.q./ ) ^ ^ ! a a a ^ 3 g ! 4 g g | r m GXaXs.s.f.a.a.a.xXx.s.f.s.s.f.x.x.xXs.s.f.s.s.x.x.s.",
"!.+.R ! d p p R g / ! ! ( ( ^ ) ) t.r._ ! ! ! ! _  .I q -.fXuXwXu.i.i.h.pXpXwXj.uXuXuXuXtXqXeXeXeXeXP.P./.P OXH., = = y t r n m b r n t r r r r r b C m.~.#.O.*.] { ] E [ T T n e , e y t y : e > > y t   P ZXzXi.p.0X8X7XP.7Xu.i.i.i.p.a.iXsXcXiXi.i.u.r.wXaXi.",
"T.V . . o O o o q q O O . . q O q O . X O O v c c M $ A.m.v v v v M @ @ M M u v O o # # # $ $ @ + $ # V n.>XJXn.+ @ # + + + o @ # # M M # o # o + @ $ n.n.v.m.C.V.Q.% % V.v.m.N.C C L m.Z.Z.G L N C C m.n.MX].B c b F H L Z B D D D F F F P H S.D D G B N G M.L ",
"MXMX@X}.$X,X4X<X<XOX,X,X<X%XAXvX4X[.{.@XMX@X@X,X<X4X;X6XE.C.{.}.:X5X:X|.|.|.|.:X|.:X5X>X>X6X6X=X=X>X;XBXBXJXNX6XMX4XNX3X:X.X X].}.$X,X:X,X,X3X X@X1X:X3X;XNXAX4XNXNX=XBXDXNXMXAXAXFXAXFXAXAXAXCXvXCXCXCXAXMX<XXX&X&X%X$X$X|.#X3X].G A H P F.M.G L !.{.1XMXAX3X4X",
"/./.-.qXi.u.u.wXwXrXjXjXzXzXzXzXfXaXyXkX&X$.n : p t r r r n T ' ' ] ] } } [ } { o.{ { { @.H b.;XE.A r t t t r w s p t n n ' s s e y t t e T T T E T R R } O.} ' [ b + E.vX`.P.P.tXtXqXqXuXuXrXrXqXyXaXrXyXqXuXaXpXj.qXeX_.P {.}.'.[ f f a a 1 = T hX[.%X/.kX(.(.",
"j.r.r.p.7.5.6.8.p.a.sXa.sXk.l.l.s.s.k.iXtX#.p f g f f p p 1 f f a R R R j a R s p p T p 1 R G |.~.m > f f 1 f 1 2 g a 3 1 1 1 2 2 2 a f 2 2 3 a a a h h j ^ ^ Y ^ > q OXtXaXiXiXiXiXpXk.l.l.xXsXsXsXsXsXsXsXa.l.l.k.iXaX7X@.vX%XtXt.j h h 8 8 h y.qX~.XX,.pXpXj.",
"h.i.i.p.p.6.8.8.s.l.l.s.s.s.l.sXa.xXsXi.,.-.s a a g a p p p d a a d d a j j ^ ^ p a d a 1 T N OXnXr y f f 1 1 1 a j a a 1 1 1 1 1 3 a 2 a j g j j g h g g a g g / p q %XdXu.iXiXiXk.i.l.sXl.sXk.l.l.sXl.sXl.l.k.a.sXk.aXqX*.lX&XtXt./ z h 8 h 3./ qX'.&X,.fXfXh.",
"rXqXP.:.u.r.iXsXsXaXsXiXiXh.pXaXwXrXjXkX&X~.n ' | s e T s e t T T ' | s d s | k s ' s t T n Z 5X,Xq t t t e y e p s p p e s t e e e e e R  .R p | d s s T T T e Q w O MX&XtXqXrXeXyXyXfXfXyXaXfXaXaXfXaXaXaXaXpXyXuXyXzXgXP $X<XlX_.X.^ | ^ ^ ^ %._.$XMX'.HXlXlX",
"[.H.G G L F././.XX~./.).'.).).!.!.!.~.[.T.n.# o q q o u u o M u o q u u u u u u o o o O O O $ -X$ X O . O O O   q q q q . q O O O q q q q Z N M u u o u M # # o M # R.JXT.B.L C.m.m.v.Z.P F.B.B.^.S.P P B.H.!.!.!.L C.E.V.R.>XQ.Q.N.C C v.m.m.A C V.BX=XK Y.@XE.",
"C N.V.C.b.C B B N G B.L D D b.V.b.m.C.E.V.W.V.C Z C m.C v.C.E.Z.C C m.m.C.C.C.C.V.n.n.E.Z.E.>XNXNX3X{.[.].B.[.~.~.~.J.[.OXOX}..XE.E.J.~.OXOX!.L Z.H.C.].].].{.].]. XJXNX|.N.B.Y.V.n.& V B B.L B D c N N G G L L L m.C.E.T.BXNXQ.W.|.;X:X>X>X5X X,X>XJXBXW.V b.b.",
"FXSXCXCXCXCXCXCXCXvXvXlXbXvX1XMXAXXX+X+X).+XoXgXgX+XhXgXgXhXhXnXhXoXgXgXvXlX%X<XCX4XAXvX%XlXvXvXvXnX+XvXbXgXlXlXbXlXgXlXlXnX%XOX1X$XtXuX7Xt.u.u.7XrXeXrXqXrXzXkXzXZXvXvXlXlXlXlXCX{.,X$XP.rXrXqX8X8XwXwXjXeXP.eX7XrXjXzXlXbXlXbXvXZXSXFXDXAXZXbXZXCXZXSXZXZXZXSX",
"lXdXgXoXgX_.tX`.tX/.tXtXtX(.B.XXXXS | f > y > p p e R s p p f f y = > : > : - - c M.[.q * : i : i y - * y e : : : : = = = = w F }.D Q ~ ~ ~ 2.~ 3.e.4.4.3.0.p.e.r.u.&.r.r.j.uX`./.; B.G.( 2.4.3.2.2.2.4.y.9.) 4.3.3.3.) u.r.w.&.&.:.;./.!.^.L.%.%.%.*.P.&.:.qXyX",
"fXyXwXiXaXrXpXaXfX:.wXwXwXrXG.G.L.> f 2 0 1 2 1 1 3 a a g 4 2 2 2 2 0 0 3 5 , > w F G.w > 1 1 1 f f > = p a 1 2 1 1 1 f 1 > y { %Xo._ 5.5.5.1.1.3.e.5.6.6.5.s.s.8.s.d.2.4.p.h.j.,.; +.*.3.6.s.5.5.5.5.6.6.5.5.5.5.6.6.8.p.7.0.0.e.p.p.uX/.*Xu.r.p.p.8Xi.r.i.wXrX",
"yXpXiX8XwXwXpXfXyXuXuXaXaXeX/.^.(.> 1 2 0 0 2 4 3 4 g 7 a 2 g 2 5 2 7 7 2 3 0 4 T r G.e > 1 2 2 a 1 = 1 a a 1 2 a p 1 1 1 > y o.SXD./ 5.0.5.2.6.l.7.6.5.5.0.s.s.s.s.8.5.4.7.r.j.j.>.o.P.0.5.5.5.5.5.5.6.6.6.6.5.5.6.6.8.p.0.8.s.a.a.k.pX$.'.uX4.r.p.i.aXwXr.wXiX",
"dXdXjXrXrXyXyXkXkXkXkXjXjXhXH.XX).e p p > , p p > p ^ R a p a a a 1 1 1 p p 1 1 t r I.w e f > = f > > > e p p p e y y p > : w P AXJ.&.4.0.0.4.0.a.w.e.e.w.e.4.e.0Xa.p.r.u.u.qXqXdX,.G.L...4.9.4.4.4.) a.a.e.e.e.e.8.0.0.a.p.e.a.iXwXsXyX+.).uXu.j.:.7XyXkXyXrXrX",
"/.#.D.} [ @.] { P D J F S F N  XD   - i   ; b - ; i t y i - - * * - * * q   * y q H J.  ; i - * * ; - - q r i * ;   * ; *   . C ;XN - = a a y : : > , = , : = > p 3 , , y m m m m b S.r e p p : , * * n R p = = 3 a a 3 Y W ! ^ [ ' E #.H.~.o.m ] @./.$.P ^.D.} ",
"P L M.F.!.~.H.B.C.V # C.H.H.{.MX|. X X[.,X,X X,XCXvXnX<XOXOX$X$X,X@X,XNX-X6XAXCXAXDXDX3X3X@X X4X,X2XCXCX$X$X<X$X2X$X X1XvXCX1X#XNXE.H.$.P !.E.$ L !.P +.S.P P +.J.G.H.H.S.F.H.~.}.}.4XZ.M.G F.H.B.C.b.N.G H H S.+.S.+.+.$.S.o.+.P B.B.!.:XMXOXF.P G B N.n.n.H.M.",
"%XXX%X%X$X%X%X2XAXE.E.MXvXvX<X4X1X<XvXvXCXCX4X4X<X<XnXvX<XOX[.~.!.].|.W.-XJX1X$XOX,X,X<X$X<XCXvX2X$XXXXX[.}.XXXX}.OX}.!.H.}.@X{.].OXXX^.^.Y.& R.MX}.~.~.~.~.~.XXlXXXXXOXXXXX%XlX&XXX$X,XnXXXvX<X5X|.W.:XOXOXXXXXXXJ.).+X%X&XoXoX%X%X2X%X[.OX%X%X+X<X<X1X=X=XMXvX",
"zXzXzXZXlXlXlXbXbXJ.}.&X(.;.:.;.P.;.qXuXyXtXtXtX_.P.P.7X*.*. . .R T o.D Y.2X^.,.%.[ ( :.W %.;.P.L.*.%.*.%. . . .[ *.*.[ T %.*.*.*.%.( %.;.F + =XvX_.eX7X9X7X*.P.uX:.*.;.=.=.9XwXwX:.(.kX7X .eXyX_.+.P XX_.P.7XeX;.%.7XrX7XP.8XwXu.u.uXyX%.&.qX7Xt.7XuX'.W.#XlXlX",
"zXzXzXbXzXzXzXzXbX'.^.`.qXh.iXr.u.u.i.iXaXpXwXwXwX8Xu.i.&.) ! ~ / ( R ] !.lX;.h.r.4.w.p.4.r.i.iXi.u.t.w.....9.9...) / ) / ......w._ w.w.` ' + >XvXyXwX8X9Xy.&.u.iXi.u.y.t.y.8X0Xl.7.:.u.y.9.w.8XP.] F.&XrXu.8X8Xr.) a.iXi.i.a.e.e.p.iXiX4.e.i.w.9.0XiXqXY.{.ZXkX",
"fXfXzXzXzXzXzXkXlX'./.dXtXuXrXi.u.u.i.sXaXaXaXaXaXuX:.r.w.) ) ) 9.X.=.E ^.&X%.w.e.e.w.7.e.p.h.wXwXu.t.t.w.) w...) ) / ..r.u.t.=.9.t.&.u.r.E $ >XlXqXwX8Xt.t.&.:.pXwXi.i.i.i.wXaXsXr.u.u.9.) r.u.tX@.S.XX;.i.8X8Xr.4.r.iXp.p.y.w.r.p.iXiX7.p.p.t.q.0XiXqXL $XlXzX",
"ZXZXbXZXZXZXZXCXZX~.$X%XlX`.L.eXP.P.qXjXzXkXhXhXgX`.-.-.%.[ [ } [ [ } m Y.}.@.7Xu.u.;.:.:.P.tX(.tXP.P.P.;.*.=.*.%.[  .[ *.*.L.D.I.*.-.@.O.F + BX$X#._.L.{ #.] o.(.(.I.*.P.(.L.gXyX;.I.P.P.[ %.(.).S.]. X,.-.P.I.*.O.%.;.%.:.P.P.;.P.eXyX:.:.P.7X*.=.*.+.T.AXvXZX",
"Y.Y.N.N.m.N.V.V.W.Q.>Xn.@ Z C G L D D P B.m.C G L B v v v M $ $ V C V.Q.BXQ.K G B B B Z v C L B N.L m.C M v N v K $ O o v m.V.V.Z Y.].N.Z + R.KXR.O O + $ + X $ + O + O + + O M M B M O O O O o + $ R.n.@ O o o o V m.B.G B B B Z Z C L B c B C C u M K =XJX;XE.",
"@X1X1X@X@X,X,X:X:XMXNX:X{.}.%XOXOXXXXXXXOX~.H.~.[.XXXX$XOX,XNXLXNXMXDXLXIXNX,X<X$X1X$X$X1XMX2X1X2X4XCX<X X$X<X2XNX=X@X$X4X,X1X1X3X3X1X{.{.W.NXJX>X{.E.>X=X& -XBX#X#X|.:X|.|.|.@X X@X X.X].].}.}.@X:XNX1X|.@X3X6XNXJXNXAXCXCX<X@X:X,X<X%X%X%X<X,X<X%X,XMXNXJXNX1X",
"(.(.(.(.(.P.P.(.L.*.O.(.eX=.t.t.t.t.u.wXrX;.&.u.&.&.=.qXP.L. XCXm O.L.L.-.O.*.;.(.(.(.qXdXdXrXuXP.qXrX;.*.-.,./.T.Y.oX*.P.*.`.`.oXhXlXtXtXlX#.+./.'.(.^.C # AX%XG.`.)._.oXgX_.hXtX`.gXhXgXtXhXzXtX(._.tXgX_.gXXX X,XL.-.*.;.@.O.o.@.;.:.:.:.;.P.=.u.*.*.O.' @.(.",
"h.h.wXwXi.i.i.8X8Xy.9.e.a.y.e.e.e.e.a.a.sXp.7.p.s.7.0.a.u.*.F.&X-.wXuXqX&.&.wXiXh.&.r.h.h.j.i.p.i.i.k.i.t.t.` ` <.}.qX^ 9.8XaXuXuXfXaXpXh.pXu.` wXwXj.;.G G CX/.(.uX(.eXeXqX=.qXqXqXeXrXqXqXwXh.r.h.u.u.%. .;.L.H.OX;.u.w.w.) ` W  .w.a.y.i.u.i.e.3.) t.9.9.i.wX",
"i.wXiXi.u.i.i.y.a.e.e.e.0XsXe.e.a.a.l.a.sXe.e.e.8.4.0.a.w.W $.lX;.aXaXfXwXi.8XsXwXu.h.pXyXwX8X0X8XwXiXiX0Xa.7.:.$.!.qX) aXi.uXaXuXuXk.pXi.wXh._ wXwXr.j.S.C %XG.tXrX7XqXP.7X;.uXuXqXeXrX(.;.u.wX:.j.u.t.=.=.;.@.!.%X:.r.9.t.&.( W ( 4.p.y.i.r.r.e.~ ..i.9.9.p.i.",
"uXqXqXqXqXqX8Xu.u.t.t.t.iXi.8X8X8X8XwXh.aXu.u.u.i...w.8X=.O.H.2X-.zXlXkXjXqXqXuXqXqXtXdXlXtXrXjXtXtXkXjXrX8X&.(.!.!.m : &.uXqXtX`.kXqXyXqXrXu.( qXtXqX`.m.b.MX!.L.gX(._.oX_.@.eXtX`._._.'.(.tXkX_.-.*.=.I.D.@.G.{.2XL.:.( :.-.O.O.L.;.qX*.;.;.=.r.u.%.P.t.t.wXrX",
"P $.+.H.S.P F S S r S r F H b F F H D.+.D.F J H F b n #.o.A E.:XD H.!.B.^.P S.^.S.H.H.!.!.!.H.[.[. X].[.J.S.+.H.V.% X . b S.).'.!.}.F.^.F.~.+.b S.B.I N.n.Q.BXK B C m.K n.V B L B.L m.Z.N.B.H.H.M.L J J G G G C #XV.v D b D N.@ o m.L I L P P P I P v L P F D P ",
"+.P P H.S.A b F r r F H H b c I q D F P F A L M c S b r m F !.Y.v c D L P P S.P S.S.P L G L G G B.b.# M D H c B b.W.}.].P b c c L D B B B H.S.M.L B L T.Q.BX|.# O . @ $ $ A.C B C M M Z Z B B B C B B N B L B.!.MXT.B.B.^.C.;XW..X].!.^.!.[.XXF.+.F.!.[.P I +.I ",
"7XP.P.eX7X=.*.=.=.7X7X7XqX7XeXP.-.*.*.P.P.I.F.%XgX_.;.:.&.%.-.P.;.P.eXtXeXP.eX-.qXeXP.P.L.P.D.D.^.B.}.2X`.eX_._.`.oXoX_./.tXtXtXtXtXlXlXlXbXbXZXZXHXZXZXCXCXlXZXlXlXlX%XY.3XvXlXoXlXvXbXvXlXlXbXZXlXlXlXlXbXbXzXlXlXbXbXlXvX3X|.K.' T R R | X.Y ^ R [ =.&.=.8Xu.",
"g / ! / g / ~ ~ 4./ / / ! g _ ^ ! Y ! Y j R - #.P. .) _ x 7 x 4 2 g ^ ^ ^ ^ ^ ^ ! ! a Y a Y a T F ; !.oX%. .&.=.%.%. .=.%.%.:.&.&.:.L.'.'.`.tXqXuXzXzXkXkX/.tXtXtX(.(.^.{.}.@.E O.O.*.*.;.;.=.P.;.-.;.;.:.:.&.:.%.>.%.*.%.#.Z m.} a g 7 g h h h 8 7 6 j 7 7 7 ~ ",
"h z 2.5.2.z 2.0.0.2.3.3.2.3.3./ ~ / / 3.h ^ E L.=._ 4.3.2.3.4.~ ~ ~ / ~ ~ / ! ~ 3./ g ! ! ! ! ^ W w oX`.u.u.t.t.w.&.w.u.` ` w.i.r.u.*._.`.`.tXqXqXyXzXqXtXtXj.:.;.%.:.F }.^.O.W T R T R  .%.%.%.=.:.:.:.%.:.i.i.` W ) &.u.P.Z G  .6 8 8 z z 8 l l l z z 8 l 2.9 ",
"~ h 3.3.3.z 2.5.5.3.4.3.3.4.9./ / / / 3.3.^ E `.=.) 4.3.2.~ ~ ~ h ~ 4.9./ 4.) _ 4.4./ / ~ / ^ ^ [ w XX).;.&.t.8Xu.&...w.7.p.t.t.:.;.L.oX'./.'.(.dXdXzXzXtXtX-.:.,.W ;.o.{.@X] Q Q T E n T E ] o.o.O.O.%.%.;.u.r.` ` ..t.8XtXC m. .2 z z 8 z z l 8 l 8 z z z 8 8 ",
"( ^ ..) ....) ) &.&.&.&.( Y ( ..^  ...^ X.*.b ^.*.=.&.^ _ ) X.X.! ^ ..../ ..( ( ....X... ...^  .[ b <XOXtX=.P.P.u.u.8X8Xu.u.u.7X/.^.!.!.!.!.^.^.&XHXlXkX`.'.'./.L.-.tX^.Q.Q.B.#.G.).XXXX).^.B.L B L F.$.$.).(.-.O.O.W 7XqX'.b.|.+.R / 3.~ / / h ~ ~ 3.h h j g ) ",
"* < > : > = = , : , : : , : p > e = < 1 y : v I m p 1 = 3 3 p d a a > = 2 a > Q p > , > > , = y i J  XB n y s R > 3 p Y W W s ] D B C.C % % U U U ^.$.+.F c I b F ] o.D n.% L $.P S.B.L c v K K K B B v v D m - m m Q p T m b.>XS.%./ h ! ! 2 1 4 5 2 0 0 2 3 = "
};
