/* XPM */
static char *_391113a28c8b02239cf4e7d0c169996[] = {
/* columns rows colors chars-per-pixel */
"626 626 26 1 ",
"  c #E6FB00",
". c #EAFA00",
"X c #F6FE02",
"o c #FDFF03",
"O c #FAFD04",
"+ c #FBFD04",
"@ c #FBFD05",
"# c #F8FF05",
"$ c #FCFD04",
"% c #FCFE04",
"& c #FBFD0A",
"* c #FBFF0B",
"= c #FDFD08",
"- c #FDFC0B",
"; c #FDFB0F",
": c #FDFE0C",
"> c #FBFA13",
", c #FBFC11",
"< c #FEFE10",
"1 c #FEFC12",
"2 c #FCFB16",
"3 c #FDFD14",
"4 c #FCFB18",
"5 c #FDFC19",
"6 c #FDFB1C",
"7 c #FEF920",
/* pixels */
"ooooooooooooooooooooooooooooooooooooooooooooooooo%%%%%%%%%%%%%%%%%%%%%%%%%%%%%%%%%%%%%%%%%%%%%%%%%%%%%%%%%%%%%%%%%%%%%%%%%%%%%%ooooooooooooooooooooooooooooooooooooo%%%ooooooooo%%%%%%%%%%%%%%%%%%%%%%%%%%%%%%%%%%%%%%%%%%%%%%%%%%%%%%%%%%%%%%%%%%%%%%%%%%%%%%%%%%oooooooooooooooooooooooooooooooo%%%%%%%%%%%%%%%%%%%%%%%%%%%%%ooooooooooooooooooo@@@@@@@@@@++@@@+++@@+@@@+++@@@@@@+@@@@+@@@++@@@@+@@@@@@@@@++@@@+++@@+@@@+++@@@@@@@@@@@@@@@@+@@@@++@@@@@@@@@@@@@@@@@@@@@@@@@@@@@@@@@@@@@@@@@o%%==:::::::::::::::::::::::::======%%%%%oooooooo%oooooo%%%%%%%%%oo%%%%%%%%%%%%%%%%%%%%%%%%%%%%%%%%oooooooo%%oooooooooooooooooooo%%%%%%%%%%%%%%%%%%%%",
"ooooooooooooooooooooooooooooooooooooooooooooooooo%%%%%%%%%%%%%%%%%%%%%%%%%%%%%%%%%%%%%%%%%%%%%%%%%%%%%%%%%%%%%%%%%%%%%%%%%%%%%%ooooooooooooooooooooooooooooooooooooooo%oooooooo%%%%%%%%%%%%%%%%%%%%%%%%%%%%%%%%%%%%%%%%%%%%%%%%%%%%%%%%%%%%%%%%%%%%%%%%%%%%%%%%%%%oooooooooooooooooooooooooooooooo%%%%%%%%%%%%%%%%%%%%%%%%%%%%%ooooooooooooooooooo@@@@@@@@@@@@@@@+@@@@+@@@@@+@@@@@++@@@@++@@+@@@@@++@@@@@@@@@@@@@+@@@@+@@@@@+@@@@@@@@@@@@@@@@@@@@@++@@@@@@@@@@@@@@@@@@@@@@@@@@++@@@@@@@@@@@@@o%%==:::::::::::::::::::::::::::::==%%%%%%%%%%%%%%%%%%%%%%%%%%%%%%%%%%%%%%%%%%%%%%%%%%%%%%%%%%%%%%%%ooooooo%%ooooooooooooooooooo%%%%%%%%%%%%%%%%%%%%%",
"ooooooooooooooooooooooooooooooooooooooooooooooooo%%%%%%%%%%%%%%%%%%%%%%%%%%%%%%%%%%%%%%%%%%%%%%%%%%%%%%%%%%%%%%%%%%%%%%%%%%%%%%ooo%%oooooooooooooooooooooo%%oooooooo%%%%%%%%%%%%%%%%%%%%%%%%%%%%%%%%%%%%%%%%%%%%%%%%%%%%%%%%%%%%%%%%%%%%%%%%%%%%%%%%%%%%%%%%%%%%%oooooooooooooooooooooooooooooooo%%%%%%%%%%%%%%%%%%%%%%%%%%%%%%ooooooooooooooooooo@@@@@@@@@@@@@@@@@@@@@@@@@@@@@@@@@@@@@@@@@@@@@@@@@@@@@@@@@@@@@@@@@@@@@@@@@@@@@@@@@@@@@@@+@@@@@@@@@@@@@@@@@@@@@@@@@@@@@@@@@@@@+@@@@@@@@@@@ooo%%=:<<<<<<<<<<<<<<<<<<<<<<<<<<<<<<<=%%%%%%%%%%%%%%%%%%%%%%%%%%%%%%%%%%%%%%%%%%%%%%%%%%%%%%%%%%%%%%o%%%%%%%%%%%%%%%%%%%%%%%%%%%%%%%%%%%%%%%%%%%%%%%%%%",
"ooooooooooooooooooooooooooooooooooooooooooooooooo%%%%%%%%%%%%%%%%%%%%%%%%%%%%%%%%%%%%%%%%%%%%%%%%%%%%%%%%%%%%%%%%%%%%%%%%%%%%%%o%%%%oooooooooooooooooooo%%%%ooooooo%%%%%%%%%%%%%%%%%==%%=====%%%%%%%%%%%%%%%%%%%%%%%%%%%%%%%%%%%%%%%%%%%%%%%%%%%%%%%%%%%%%%%%%%%%oooooooooooooooooooooooooooooooo%%%%%%%%%%%%%%%%%%%%%%%%%%%%%%oooooooooooooooooooo@@@@@@@@@@@@@@@@@@@@@@@@@@@@@@@@@@@@@@@@@@@@@@@@@+@@@@@@@@@@@@@@@@@@@@@@@@@@@@@@@@@@@@@+@@@@@@@@@@@@@@@@@@@@@@@@@@@@@@@@@@@@@@@@@oo%%%%%%%%==:<<<<<<<<<<<<<<<<<<<<<<<<<<<<<<<===%==%%%%%%====%%%%%%%%%%%%%%%%%%%%%%%%%%%%%%%%%%%%%%%%%%%%%%%%%%%%%%%%%%%%%%%%%%%%%%%%%%%%%%%%%%%%%%%%%%%%%%%%%%",
"ooooooooooooooooooooooooooooooooooooooooooooooooo%%%%%%%%%%%%%%%%%%%%%%%%%%%%%%%%%%%%%%%%%%%%%%%%%%%%%%%%%%%%%%%%%%%%%%%%%%%%%%o%%%%%%%%%%%%%%%%%%%%%%%%%%%%%%%%%%%%%%%%%%%%%%%%%============%%%%%%%%%%%%%%%%%%%%%%%%%%%%%%%%%%%%%%%%%%%%%%%%%%%%%%%%%%%%%%%%%%%%oooooooooooooooooooooooooooooooo%%%%%%%%%%%%%%%%%%%%%%%%%%%%%%oooooooooooooooooooo@@@@@@@++++@@@@@@@@@@@@++@+@@+++@@+@@@@@@@@@@@@@@+@@@@@@@@@@@@@@@@@@@@@++@+@@@@@@@@@@@@@@@@@@@@@@+@@@@@@@@@@@@@@@@@@@@@@@@@%%%%%%%==========:::::::::::::::::::::::::::::::::===============================%%%%%%%%%%%%%%%%%%%%%%%%%%%%%%%%%%%%%%%%%%%%%%%%%%%%%%%==%%%%%%%%%%%%%%%%%%%%%%%%%%",
"oooooooooooooooooooooooooooooooooooooooooo%oooo%%%%%%%%%%%%%%%%%%%%%%%%%%%%%%%%%%%%%%%%%%%%%%%%%%%%%%%%%%%%%%%%%%%%%%%%%%%%%%%%%%%%%%%%%%%%%%%%%%%%%%%%%%%%%%%%%%%%%%=%%%%%=%%%%==============%%%%%%%%%%%%%%%%%%%%%%%%%%%%%%%%%%%%%%%%%%%%%%%%%%%%%%%%%%%%%%%%%%%oooooooooooooooooooooooooooooooo%%%%%%%%%%%%%%%%%%%%%%%%%%%%%%%%%%%%%%%%%%%%%%%ooo@@@@@@@+++@@@@@@@@@@@@@++@+@@@@@@@++@+@@@@@@@@@@@+@@@@@@@@@@@@@@@@@@@@@++@+@@@@@@@@@@@@@@@@@@@@@@++@@@@@@@@@@@@@@@@@@==%%%%%%======::=====::::::::::::::::::::::::::::::::::=================================%%%%%%%%%%%%%%%%%%%%%%%%%%%%%%%%%%==============================%%%%%%%%%%%%%%%%%%",
"ooooooooooooooooooooooooooooooooooooooooo%%oooo%%%%%%%%%%%%%%%%%%%%%%%%%%%%%%%%%%%%%%%%%%%%%%%%%%%%%%%%%%%%%%%%%%%%%%%%%%%%%%%%%%%%%%%%%%%%%%%%%%%%%%%%%%%%%%%%%%%%%==========================%%%%%%%%%%%%%%%%%%%%%%%%%%%%%%%%%%%%%%%%%%%%%%%%%%%%%%%%%%%%%%%%%%%oooooooooooooooooooooooooooooooo%%%%%%%%%%%%%%%%%%%%%%%%%%%%%%%%%%%%%%%%%%%%%%%%%o@+@@@@@@@@@@@@+@@@@++@@@@@@@@@@@@@@@@+@@@@++@@@++@@@@@@@@@@@@@+@@@@++@@@@@@@@@@@@@@@@@@@@@@@@@@@@@@@@@@@@@@@@@@%%%%%%===%%%%%==============:::::::::::::::::::::::::::::::::===::::===:::===:====::::::::====%%%%%%%%%%%%%%%%%%%%%%%%%%%%%%%%%%==============================%%%%%%%%%%%%%%%%%%",
"%%%%%%%%%%%%%%%%oo%%%%%%%%%%%%oo%%%%%%%%%%%%%%%%%%%%%%%%%%%%%%%%@@@@@@@@@@@@@@@@@@@@@@@@@@@@@@@@%%%%%%%%%%%%%%%%%%%%%%%%%%%%%%%%%%%==%%%%%%%======%%%%%%%%%==%%%%%%%==========================%%%%%%%%%%%%%%%%%%%%%%%%%%%%%%%%%%%%%%%%%%%%%%%%%%%%%%%%%%%%%%%%%%%oooooooooooooooooooooooooooooooo%%%%%%%%%%%%%%%%%%%%%%%%%%%%%%%%%%%%%%%%%%%%%%%%%ooo@@@@@@@@@@@@+@@@@++@@@@@@@@@@@@@@@@+@@@@+@@@@@@@@@@@@@@@@@@@+@@@@++@@@@@@@@@%%%%%%%%%oo%ooooooooo%%%%%%%%==%%%%%%%%===%%%%%===========%===:===:::::::::::::::::::::::::::::=:::::===:::===::=:=:::::::::===%%%%%%%%%%%%%%%%%%%%%%%%%%%%%%%%%%%============================%%%%%%%%%%%%%%%%%%%",
"%%%%%%%%%%%%%%%%%%%%%%%%%%%%%%%%%%%%%%%%%%%%%%%%%%%%%%%%%%%%%%%%@@@@@@@@@@@@@@@@@@@@@@@@@@@@@@@@%%%%%%%%%%%%%%%%%%%%%%%%%%%%%%%%%%%===========================================================%%%%%%%%%%%%%%%%%%%%%%%%%%%%%%%%%%%%%%%%%%%%%%%@@@%%%%@%%%%%%%%%%%ooooooooooooooooooooooooooooooooo%%%%%%%%%%%%%%%%%%%%%%%%%%%%%%%%%%%%%%%%%%%%%%%%%%%%@@@@@@@@@@@@@++@@@@@@@@@@@@@@@@@@@@@@@@@@@@@@@+@@@@@@@@@@@@@@@@@@@@@@@@@@@@@%%%%%%%%%%%%%%%oooo%%%%%%%==%======%%%%===%%%====%%%%===%%%%======::::::::::::::::::::::::::::=:===============================%%%%%%%%%%%%%%%%%%%%%%%%%%%%%%%%%%========%%=====%%%====%%======%%%%%%%%%%%%%%%%%%",
"%%%%%%%%%%%%%%%%%%%%%%%%%%%%%%%%%%%%%%%%%%%%%%%%%%%%%%%%%%%%%%%%@@@@@@@@@@@@@@@@@@@@@@@@@@@@@@@@%%%%%%%%%%%%%%%%%%%%%%%%%%%%%%%%%%===========================================================%%%%%%%%%%%%%%%%%%%%%%%%%%%%%%%%%%%%@%%%%%%%%%%%@@@%%%%@@%%%%%%%@%%ooooooooooooooooooooooooooooooooo%%%%%%%%%%%%%%%%%%%%%%%%%%%%%%%%%%%%%%%%%%%%%%%%%%%%%%@@@@@@@@@@@@+@@@@@@@@@@@@@@@@+@@@@@@@@@@@@@++@@@@@@@@@@@@@@@@@@@@@@@@@@@@@%%%%%%%%%%%%%%%oooo%%%%%%=========================%=======%========::======::==:====:::====::==================================%%%%%%%%%%%%%%%%%%%%%%%%%%%%%%%%%%%%%%%%%%%%%%%%%%%%%%%%%%%%%%%%%%%%%%%%%%%%%%%%%%",
"%%%%%%%%%%%%%%%%%%%%%%%%%%%%%%%%%%%%%%%%%%%%%%%%%%%%%%%%%%%%%%%%@@@@@@@@@@@@@@@@@@@@@@@@@@@@@@@@%%%%%%%%%%%%%%%%%%%%%%%%%%%%%%%%%======================================================%=%==%%%%%%%%%%%%%%%%%%%%%%%%%%%%%%%%%%%%@@@@%%%%%%%%%%@@%%%%@@@@%%%%@@@@%oooooooooooooooooooooooooooooooo%%%%%%%%%%%%%%%%%%%%%%%%%%%%%%%%%%%%%%%%%%%%%%%%%%%%%%@@@@@@@@@@@@+@@@@@@+@@+@@@@@@+@@@++@@@@@@%%%%%%%@@@@@@@@@@@@@@@@@@@+@@@@@%=========%%%%%%%%%%%%%===========:====::::::=::::::===:::====::================================================================%%%%%%%%%%%%%%%%%%%%%%%%%%%%%%%%%%%%%%%%%%%%%%%%%%%%%%%%%%%%%%%%%%%%%%%%%%%%%%%%%%",
"%%%%%%%%%%%%%%%%%%%%%%%%%%%%%%%%%%%%%%%%%%%%%%%%%%%%%%%%%%%%%%%%@@@@@@@@@@@@@@@@@@@@@@@@@@@@@@@@%%%%%%%%%%%%%%%%%%%%%%%%%%%%%%%%%============================================%%%====%%%%%%=%%%%%%%%%%%%%%%%%%%%%%%%%%%%%%%%%%%%%@@@@@@@@@@@@@@@@@@@%@@@@@@@@@@@@ooooooooooooooooooooooooooooooooo%%%%%%%%%%%%%%%%%%%%%%%%%%%%%%%%%%%%%%%%%%%%%%%%%%%%%%%%%%@@@@@@@@@@@@@@@+@@+++@@@@++@@@+@@@@@@%%%%%%%@@@@@@@@@@@@@@@@@@@+@@@@@============%%%%%%%%%%===========:====::::::::::<<:::::<<<:::::::============================================================%=%%%%%%%%%%%%%%%%%%%%%%%%%%%%%%%%%%%%%%%%%%%%%%%%%%%%%%%%%%%%%%%%%%%%%%%%%%%%%%%%%%%",
"%%%%%%%%%%%%%%%%%%%%%%%%%%%%%%%%%%%%%%%%%%%%%%%%%%%%%%%%%%%%%%%%@@@@@@@@@@@@@@@@@@@@@@@@@@@@@@@@%%%%%%%%%%%%%%%%%%%%%%%%%%%%%%%%%===========================================%%%%%%%%%%%%%%%%%%%%%%%%%%%%%%%%%%%%%%%%%%%%%%%%%%%@@@@@@@@@@@@@@@@@@@@@@@@@@@@@@@@@@oooooooooooooooooooooooooooooooo%%%%%%%%%%%%%%%%%%%%%%%%%%%%%%%%%%%%%%%%%%%%%%%%%%%%%%%@@@@@@@@@@@@@@@@@@@@@@@@@@@@@@@@@@@@@@@@%%%%%%%%@@@@@@@@@@@@@@@@@@@@@@@@===========%%%%%%%%===========::::====:<<<<::<<<<<<:<<<<<<<<::::::====::::===::::::==:::::========%%%%=%%===%%%%==%%%%====%%%%%%%%%%%%%%%%%%%%%%%%%%%%%%%%%%%%%%%%%%%%%%%%%%%%%%%%%%%%%%%%%%%%%%%%%%%%%%%%%%%%%%%%",
"%%%%%%%%%%%%%%%%%%%%%%%%%%%%%%%%%%%%%%%%%%%%%%%%%%%%%%%%%%%%%%%%@@@@@@@@@@@@@@@@@@@@@@@@@@@@@@@@%%%%%%%%%%%%%%%%%%%%%%%%%%%%%%%%%%======%%%%====%%%%==%%%%%%==%%%%%%%%======%%%%%%%%%%%%%%%%%%%%%%%%%%%%%%%%%%%%%%%%%%%%%%%%%%%@@@@@@@@@@@@@@+@@@@@@@@@@@@@@@@@@@oooooooooooooooooooooooooooooooo%%%%%%%%%%%%%%%%%%%%%%%%%%%%%%oooooooooooooooooooooooooooo@@@@@@@+@@@@@@@@@@@@@@@@@@@@@@@@@@@@@%%%%%%%%%@@@@@@@@@@@@@@@@@@@@@@@============%%%%%%==========:::::=:===:<<<<:::<<<<::<<<<<<<<:::::::===============================%%%%%%%%%%%%%%%%%%%%%%%%%%%%%%%%%%%%%%%%%%%%%%%%%%%%%%%%%%%%%%%%%%%%%%%%%%%%%%%%%%%%%%%%%%%%%%%%%%%%%%%%%%%%%%%%",
"%%%%====%%%=======%%===%%%====%%%%%%%%%%%%%%%%%%%%%%%%%%%%%%%%%%@@@@@@@@@@@@@@@@@@@@@@@@@@@@@@@@%%%%%%%%%%%%%%%%%%%%%%%%%%%%%%%%%%%%%%==%%%%==%%%%%%====%%%%====%%%%%%%%%%%%%%%%%%%%%%%%%%%%%%%%%%%%%%%%%%%%%%%%%%%%%%%%%%%%%%%@@@@@@@@@@@@@++@@@@@@@@@@@@@@@@@@@oooooooooooooooooooooooooooooooo%%%%%%%%%%%%%%%%%%%%%%%%%%%%%%ooooooooooooooooooooooooooooooo@@@@++@@@@@@@@@@@@@@@@@@@@@@@@@@@@%%%%%%%%%@@@@@@@@@@@@@@@@@@@@@@@=================================:=====:::<:::::::::::::::::====================================%%%%%%%%%%%%%%%%%%%%%%%%%%%%%%%%%%%%%%%%%%%%%%%%%%%%%%%%%%%%%%%%%%%%%%%%%%%%%%%%%%%%%%%%%%%%%%%%%%%%%%%%%%%%%%%%%%",
"%%%%====%%%====%==%%===%%%===%%%%%%%%%%%%%%%%%%%%%%%%%%%%%%%%%%%@@@@@@@@@@@@@@@@@@@@@@@@@@@@@@@@%%%%%%%%%%%%%%%%%%%%%%%%%%%%%%%%%%%%%%===%%%==%%%%%%====%%%%=====%%%%%%%%%%%%%%%%%%%%%%%%%%%%%%%%%%%%%%%%%%%%%%%%%%%%%%%%%%%%%%@@@@@@@@@@@@@@@@@@@@@@@@@@@@@@@@@@oooooooooooooooooooooooooooooooo%%%%%%%%%%%%%%%%%%%%%%%%%%%%%%oooooooooooooooooooooooooooooooooooooooooooo%oooooooooooooooo%%%%%%%%%%%%%%%%%@@@@@@@@@@@@@@@@@&&================================::::=:=:::::::::::::====:===%%=====%%%%%%%%%%%%%%%%%%%%%%%%%%%%%%%%%%%%%%%%%%%%%%%%%%%%%%%%%%%%%%%%%%%%%%%%%%%%%%%%%%%%%%%%%%%%%%%%%%%%%%%%%%%%%%%%%%%%%%%%%%%%%%%%%%%%%%%%%%%%%%%",
"%===%%%%%===%%%%====%%%%%%===%%%%%=%%%%%%%%%%%%%%%%%%%%%%%%%%%%%%%%%%%%%%%%%%%%%%%%%%%%%%%%%%%%%%%%%%%%%%%%%%%%%%%%%%%%%%%%%%%%%%%%%%%%%%%%%%%%%%%%%%%%%%%%%%%%%%%%%%%%%%%%%%%%%%%%%%%%%%%%%%%%%%%%%%%%%%%%%%%%%%%%%%%%%%%%%%%%@@@@@@@@@@@@@@@@@@@@@@@@@@+@@@@++@oooooooooooooooooooooooooooooooo%%%%%%%%%%%%%%%%%%%%%%%%%%%%%%ooooooooooooooooooooooooooooooooooooooooooo%%%%%%%%%ooooo%%oo%%%%%%%%%%%%==%===&&&&&&&&&&&&&&&&&===:===========================::::::===:::::==::::=======%%%%%==%%%%%%%%%%%%%%%%%%%%%%%%%%%%%%%%%%%%%%%%%%%%%%%%%%%%%%%%%%%%%%%%%%%%%%%%%%%%%%%%%%%%%%%%%%%%%%%%%%%%%%%%%%%%%%%%%%%%%%%%%%%%%%%%%%%%%%%%%%%%%%%%oo",
"%===%%%%%===%%%%====%%%%%%====%%%%==%%%%%%%%%%%%%%%%%%%%%oooooo%%%%%%%%%%%%%%%%%%%%%%%%%%%%%%%%%%%%%%%%%%%%%%%%%%%%%%%%%%%%%%%%%%%%%%%%%%%%%%%%%%%%%%%%%%%%%%%%%%%%%%%%%%%%%%%%%%%%%%%%%%%%%%%%%@@@@@@@@@@@@@@@@@@@@@@@@@@@@@@@@++@@@@@+@@@@@@@@@@@@@@@@@+@@@@++@oooooooooooooooooooooooooooooooo%%%%%%%%%%%%%%%%%%%%%%%%%%%%%%oooooooooooooooooooooooooooooooooooooooooo%%%%%%%%%%%oooo%%%%%%%%==%%============&&===============:::==========================::::::===:::::==::::======%%%%%%%=%%%%%%%%%%%%%%%%%%%%%%%%%%%%%%%%%%%%%%%%%%%%%%%%%%%%%%%%%%%%%%%%%%%%%%%%%%%%%%%%%%%%%%%%%%%%%%%%%%%%%%%%%%%%%%%%%%%%%%%%%%%%%%%%%%%%%%%%%%%%%%%%%%",
"================================%%%%===%=%%%%%%%%%%%%%%%%oooooo%%%%%%%%%%%%%%%%%%%%%%%%%%%%%%%%%%%%%%%%%%%%%%%%%%%%%%%%%%%%%%%%%%%%%%%%%%%%%%%%%%%%%%%%%%%%%%%%%%%%%%%%%%%%%%%%%%%%%%%%%%%%%%%%%%%%%%%%%%%%%%%%%%%%%%%%%%%%%%%%@@@@@@@@+++@@@@@@@@+@@@@@@@@@@@+@@oooooooooooooooooooooooooooooooo%%%%%%%%%%%%%%%%%%%%%%%%%%%%%%oooooooooooooooooooooooooooooooooooooooooo%%%%%%%=%%%oooo%%%%%%==============:=::=====:::======:=::::==========================:::::::::::::::::::::=====:==%%%==%%%%%%%%%%%%%%%%%%%%%%%%%%%%%%%%%%%%%%%%%%%%%%%%%%%%%%%%%%%%%%%%%%%%%%%%%%%%%%%%%%%%%%%%%%%%%%%%%%%%%%%%%%%%%%%%%%%%%%%%%%%%%%%%%%%%%%%%%%%%%%%%%%",
"================================%%%%======%%%%%%%%%%%%%%%oooooo%%%%%%%%%%%%%%%%%%%%%%%%%%%%%%%%%%%%%%%%%%%%%%%%%%%%%%%%%%%%%%%%%%%%%%%%%%%%%%%%%%%%%%%%%%%%%%%%%%%%%%%%%%%%%%%%%%%%%%%%%%%%%%%%%@@@@@@@@@@@@@@@@@@@@@@@@@@@@@@@@@@@@@@@++@@@+++@@@++@@@@@@@@@@@@@oooooooooooooooooooooooooooooooo%%%%%%%%%%%%%%%%%%%%%%%%%%%%%%oooooooooooooooooooooooooooooooooooooooooo%%%%%%%==%%%%%%%%%%%=================::====::::========::::==========================:::::::==:::::::==:::=====::=%%%==%%oooooooooooooo%%%%oooooo%%%%%%o%%%%%%%%%%%%%%%%%%%%%%%%%%%%%%%%%%%%%%%%%%%%%%%%%%%%%%%%%%%%%%%%%%%%%%%%%%%%%%%%%%%%%%%%%%%%%%%%%%%%%%%%%%%%%%%%%",
"=================================&&=%%====%%%%%%%%%%%%%%%oooooo%%%%%%%%%%%%%%%%%%%%%%%%%%%%%%%%%%%%%%%%%%%%%%%%%%%%%%%%%%%%%%%%%%%%%%%%%%%%%%%%%%%%%%%%%%%%%%%%%%%%%%%%%%%%%%%%%%%%%%%%%%%%%%%%%%%%%%%%%%%%%%%%%%%%%%%%%%%%%%%%@@@@@@@@@@@@@++@@@+++@@@+@@@@@@@@@oooooooooooooooooooooooooooooooo%%%%%%%%%%%%%%%%%%%%%%%%%%%%%%oooooooooooooooooooooooooooooooooooooooooo%%%====%%%%%%%%%%%==================================================================::::::=====:::=====:=========%%%%%%%%%oooooooooooooooooooooooooooooo%%%%%%%%%%%%%%%%%%%%%%%%%%%%%%%%%%%%%%%%%%%%%%%%%%%%%%%%%%%%%%%%%%%%%%%%%%%%%%%%%%%%%%%%%%%%%%%%%%%%%%%%%%%%%%%%%",
"=====================================%==%=%%%%%%%%%%%%%%%oooooo%%%%%%%%%%%%%%%%%%%%%%%%%%%%%%%%%%%%%%%%%%%%%%%%%%%%%%%%%%%%%%%%%%%%%%%%%%%%%%%%%%%%%%%%%%%%%%%%%%%%%%%%%%%%%%%%%%%%%%%%%%%%%%%%%@@@@@@@@@@@@@@@@@@@@@@@@@@@@@@@@@@@@@@@@@@@@@+@@@@@@@@++@@@@@@@@@oooooooooooooooooooooooooooooooo%%%%%%%%%%%%%%%%%%%%%%%%%%%%%%o%ooo%%oooooooooooooooooooooooooooooooooo%%%%====%=%%%%%%%%======================================::==:=========================::==================%%%%%%%%%%%%%%%%%%oooo%%o%oooo%%oooooooooo%%ooo%%%%%%%%%%%%%%%%%%%%%%%%%%%%%%%%%%%%%%%%%%%%%%%%%%%%%%%%%%%%%%%%%%%%%%%%%%%%%%%%%%%%%%%%%%%%%%%%%%%%%%%%%%%%%%%%%",
"========================================%==%=%%%%%%%%%%%%oooooo%%%%%%%%%%%%%%%%%%%%%%%%%%%%%%%%%%%%%%%%%%%%%%%%%%%%%%%%%%%%%%%%%%%%%%%%%%%%%%%%%%%%%%%%%%%%%%%%%%%%%%%%%%%%%%%%%%%%%%%%%%%%%%%%%%%%%%%%%%%%%%%%%%%%%%%%%%%%%%%%@+++@@@@@@@@@@@@@@@@@@@@@@@@@@@@@@oooooooooooooooooooooooooooooooo%%%%%%%%%%%%%%%%%%%%%%%%%%%%%%o%%%%%%%%%%%%oooooooooooooooo%%%%oooooooo%%%%========%%%%======================================================%%%%============================%%%%%%%%%%%%%ooo%%%%%%%%%%%%%%%%%%%%%%%%%%%%%%%%%%%%%%%%%%%%%%%%%%%%%%%%%%%%%%%%%%%%%%%%%%%%%%%%%%%%%%%%%%%%%%%%%%%%%%%%%%%%%%%%%%%%%%%%%%%%%%%%%%%%%%%%%%%%%%%%%%%%",
"==========================================%%%=%%%%%%%%%%%oooooo%%%%%%%%%%%%%%%%%%%%%%%%%%%%%%%%%%%%%%%%%%%%%%%%%%%%%%%%%%%%%%%%%%%%%%%%%%%%%%%%%%%%%%%%%%%%%%%%%%%%%%%%%%%%%%%%%%%%%%%%%%%%%%%%%%%%%%%%%%%%%%%%%%%%%%%%%%%%%%%%@++@@@@@@@@@@@@@@@@@@@@@@@+++@@@@@oooooooooooooooooooooooooooooooo%%%%%%%%%%%%%%%%%%%%%%%%%%%%%%%%%%%%%%%%%%%%%%%%%%o%%%%%%%%%%%%%%%oooo%%%====================::::::::::::::===:::::=:::========::::::=======%%%%%%=========================%%%%%%%%oo%%%%oooo%%%%%%%%%%%%%%%%%%%%%%%%%%%%%%%%%%%%%%%%%%%%%%%%%%%%%%%%%%%%%%%%%%%%%%%%%%%%%%%%%%%%%%%%%%%%%%%%%%%%==%%========%%====%%%=%%======%%%%%%%%%%%%%%%%%%",
"%%======================%%======%=========%%==%%%%%%%%%%%oooooo%%%%%%%%%%%%%%%%%%%%%%%%%%%%%%%%%%%%%%%%%%%%%%%%%%%%%%%%%%%%%%%%%%%%%%%%%%%%%%%%%%%%%%%%%%%%%%%%%%%%%%%%%%%%%%%%%%%%%%%%%%%%%%%%%%%%%%%%%%%%%%%%%%%%%%%%%%%%%%%%@@@@@@@@@@@@@@@@@@@@@@@@@@@@@@@@@@oooooooooooooooooooooooooooooooo%%%%%%%%%%%%%%%%%%%%%%%%%%%%%%%%%%%%%%%%%%%%%%%%%%%%%%%%%%%%%%%%%%oo%%%%%==========%%%%%%===::::::::=========================================%%%%==============::==%%%====%%%%%=%%%%%%%%%%o%%%%%%%%%%%%%%%%%%%%%%%%%%%%%%%%%%%%%%%%%%%%%%%%%%%%%%%%%%%%%%%%%%%%%%%%%%%%%%%%%%%%%%%%%%%%%%%%%%%%%==============================%=%%%%%%%%%%%%%%%%%",
"%%%%%%%%%%%%%%%%%%%%%%%%%%%%%===%%========%%==%%%%%%%%%%%oooooo%%%%%%%%%%%%%%%%%%%%%%%%%%%%%%%%%%%%%%%%%%%%%%%%%%%%%%%%%%%%%%%%%%%%%%%%%%%%%%%%%%%%%%%%%%%%%%%%%%%%%%%%%%%%%%%%%%%%%%%%%%%%%%%%%%%%%%%%%%%%%%%%%%%%%%%%%%%%%%%%@@@@@@@@@@@@@@@@@@@@@@@@@@@@@@@@@@oooooooooooooooooooooooooooooooo%%%%%%%%%%%%%%%%%%%%%%%%%%%%%%%%%%%%%%%%%%%%%%%%%%%%%%%%%%%%%%%%%%%%%%%%%============%%%%====:::::======================================%%%%%%%%%%%%%==%%==========%%%===%%%%%%=%%%%%%%%%%%%%%%%%%%%%%%%%%%%%%%%%%%%%%%%%%%%%%%%%%%%%%%%%%%%%%%%%%%%%%%%%%%%%%%%%%%%%%%%%%%%%%%%%%%%%%%%%%%%%%%%================================%%%%%%%%%%%%%%%%%",
"%%%%%%%%%%%%%%%%%%%%%%%%%%%%%%==%%============%%%%%%%%%%%oooooo%%%%%%%%%%%%%%%%%%%%%%%%%%%%%%%%%%%%%%%%%%%%%%%%%%%%%%%%%%%%%%%%%%%%%%%%%%%%%%%%%%%%%%%%%%%%%%%%%%%%%%%%%%%%%%%%%%%%%%%%%%%%%%%%%%%%%%%%%%%%%%%%%%%%%%%%%%%%%%%%o@@@@@@@@@@@@@@@@@++@@@@+@@@@@@@@ooooooooooooooooooooooooooooooooo%%%%%%%%%%%%%%%%%%%%%%%%%%%%%%%%%=%==%%%%%%%=%%%%%%%%%%%%%%%%%%%%%%%%=========================::::=:=======================%%============%%%%%%%%%%%%=%%%==========%%%%%%%%%%%%%%%%oo%%%%%%%%%%%%%%%%%%%o%%%%%%%%%%%%%%%%%%%%%%%%%%%%%%%%%%%%%%%%%%%%%%%%%%%%%%%%%%%%%%%%%%%%%%%%%%%%%%%%%%%%%%%================================%%%%%%%%%%%%%%%%%",
"%%%%%%%%%%%%%%%%%%%%%%%%%%%%%%==%=============%%%%%%%%%%%o%ooo%%%%%%%%%%%%%%%%%%%%%%%%%%%%%%%%%%%%%%%%%%%%%%%%%%%%%%%%%%%%%%%%%%%%%%%%%%%%%%%%%%%%%%%%%%%%%%%%%%%%%%%%%%%%%%%%%%%%%%%%%%%%%%%%%%%%%%%%%%%%%%%%%%%%%%%%%%%%%%%%%ooooooo@@oooooooo@+@@@@++oooooo@@ooooooooooooooooooooooooooooooooo%%%%%%%%%%%%%%%%%%%%%%%%%%%%%%%%=============%%%%%%%%%%%%==%%%%==%%%==========:================:::==============%====%%==%%%%%==========%%%%%%%%%%%%%%%%%%=========%%%%%%%%%%%%%%%%oo%%%%%%%%%%%%ooooooooooooooooooooooooooooooooo%%%%%%%%%%%%%%%%%%%%%%%%%%%%%%%%%%%%%%%%%%%%%%%%%%%%%%%%%%%%%%%%%%%%%%%%%%%%%==%%%%%%====%%%%%%%%%%%%%%%%%%%%%%",
"%%%%%%%%%%%%%%%%%%%%%%%%%%%%%%========&=====%%%%%%%%%%%%%%%%o%%%%%%%%%%%%%%%%%%%%%%%%%%%%%%%%%%%%%%%%%%%%%%%%%%%%%%%%%%%%%%%%%%%%%%%%%%%%%%%%%%%%%%%%%%%%%%%%%%%%%%%%%%%%%%%%%%%%%%%%%%%%%%%%%%%%%%%%%%%%%%%%%%%%%%%%%%%%%%%%%%oooooooooo@@@oooooooo@oooooooooooooooooooooooooooooooooooooooooooo%%%%%%%%%%%%%%%%%%%%%%%%%%%%%%%%%=============%%%%%%%======%%====%%%%==============%%%%%=======================%%%%%%%%%%%%%%%%=========%%%%%%%%%%%%%%%====%=======%%%%%%%%%%%%%%%oooo%%%%%%oooooooooooooooooooooooooooooooooooooo%%%%%%%%%%%%%%%%%%%%%%%%%%%%%%%%%%%%%%%%%%%%%%%%%%%%%%%%%%%%%%%%%%%%%%%%%%%%%%%%%%%%%%%%%%%%%%%%%%%%%%%%%%%%%%%",
"%%%%%%%%%%%%%%%%%%%%%%%%%%%%%%=======&&=====%%%%%%%%%%%%%%%%%%%%%%==%%%%%%%%%%%%%%%%%%%%%%%%%%%%%%%%%%%%%%%%%%%%%%%%%%%%%%%%%%%%%%%%%%%%%%%%%%%%%%%%%%%%%%%%%%%%%%%%%%%%%%%%%%%%%%%%%%%%%%%%%%%%%%%%%%%%%%%%%%%%%%%%%%%%%%%%%%%oooooooooooo@ooooooooooooooooooooooooooooooooooooooooooooooooooooo%%%%%%%%%%%%%%%%%%%%%%%%%%%%%%%%%==============%%%%%%======%=====%%%%==============%%%%%%%%===============%%%%%%%%%%%%%%%%%%%%%=========%%%%%%%%%%%%%%%%===%%=====%%%%%%%%%%%%%%%%%ooo%%%%%%oooooooooooooooooooooooooooooooooooooo%%%%%%%%%%%%%%%%%%%%%%%%%%%%%%%%%%%%%%%%%%%%%%%%%%%%%%%%%%%%%%%%%%%%%%%%%%%%%%%%%%%%%%%%%%%%%%%%%%%%%%%%%%%%%%%",
"%%%%%%%%%%%%%%%%%%%%%%%%%%%%%=====================%%%%%%%%%%%%%%====%%%%%%%%%%%%%%%%%%%%%%%%%%%%%%%%%%%%%%%%%%%%%%%%%%%%%%%%%%%%%%%%%%%%%%%%%%%%%%%%%%%%%%%%%%%%%%%%%%%%%%%%%%%%%%%%%%%%%%%%%%%%%%%%%%%%%%%%%%%%%%%%%%%%%%%%%%%oooooooooooooooooooooooooooooooooooooooooooooooooooooooooooooooooo%%%%%%%%%%%%%%%%%%%%%%%%%%%%%%%%%==============%%%%======%%%%=====%%%==%%========%%%%%%%%%%========%%==%=%%%%%%%%%%%%%%%o%%%%%%%%%%%%==%%%%%%%%%%%%%%%%%%%%%%%===%%%%%%%%%%%%%%%%%%ooo%%%%%%%%%%%%%%%%%%%%%%%%%%%%%%%%%%%%%%%%%ooo%%%%%%%%%%%%%%%%%%%%%%%%%%%%%%%%%%%%%%%%%%%%%%%%%%%%%%%%%%%%%%ooooo%%ooooooooooooooooooooo%%%%%%%%%%%%%%%%%%%%%",
"%%%%%%%%%%%%%%%%%%%%%%%%%%%%%=====================%%%%%%%%%%%%======%%%%======================%%%%%%%%%%%%%%%%%%%%%%%%%%%%%%%%%%%%%%%%%%%%%%%%%%%%%%%%%%%%%%%%%%%%%%%%%%%%%%%%%%%%%%%%%%%%%%%%%%%%%%%%%%%%%%%%%%%%%%%%%%%%%%%%%%%%%%%%oooooo%%%%%%oooooo%%%%%oooooooooooooooooooooooooooooooo%%%%%%%%%%%%%%%%%%%%%%%%%%%%%%%%%%%%%================%=====%%%%%%===%%%%%%%%%%======%%%%%%%%%%%%=====%%%%%%%%%%%%%%%%%%%%%%%o%%%%%%%%%%%%%%%%%%%%%%%%%%%%%%%%%%%%%%%%%%%%%%%%%%%%%%%%%%%%%%%%%%%%%%%%%%%%%%%%%%%%%%%%%%%%%%%%%%%%%%%%%%%%%%%%%%%%%%%%%%%%%%%%%%%%%%%%%%%%%%%%%%%%%%%%%%%%%%%%%%%%%%%ooooo%%ooooooooooooooooooooo%%%%%%%%%%%%%%%%%%%%%",
"%%%%%%%%%%%%%%%%%%%%%%%%%%%%%%================================================================%%%%%%%%%%%%%%%%%%%%%%%%%%%%%%%%%%%%%%%%%%%%%%%%%%%%%%%%%%%%%%%%%%%===%%%%====%%%%====%%%%====%%%%%%%%%%%%%%%%%%%%%%%%%%%%%%%%%%%%%%%%%%%%%%%%%%%%%%%%%%%%%%%%%ooooooooooooooooooooooooo%%oooo%%%%%%%%%%%%%%%%%%%%%%%%%%%%%%%%%%%%%=================================%%%%%%%%%%======%%%%%%%%%%%%===%%%%%%%%%%%%%%%%%%%%%%%%%%%%%%%%%%%%%%%%%%%%%%%%%%%%%%%%%%%%%%%%%%%%%%%%%%%%%%%%%%%%%%%%%%%%%%%%%%%%%%%%%%%%%%%%%%%%%%%%%%%%%%%%%%%%%%%%%%%%%%%%%%%%%%%%%%%%%%%%%%%%%%%%%%%%%%%%%%%%%%%%%%%%%%%%oooooooooooooooooooooooooooooo%%%%%%%%%%ooooooooo",
"%%%%%%%%%%%%%%%%%%%%%%%%%%%%%%============================:====================================%%%%%%%%%%%%%%%%%%%%%%%%%%%%%%%%%%%%%%%%%%%%%%%%%%%%%%%%%%%%%%%%%%===%%%%====%%%%====%%%%====%%%%%%%%%%%%%%%%%%%%%%%%%%%%%%%%%%%%%%%%%%%%%%%%%%%%%%%%%%%%%%%%%%%oooooooooooooooooooo%%%%%%%%%%%%%%%%%%%%%%%%%%%%%%%%%%%%%%%%%%%%%%==============================%%%%%%%%%%%%%%%%%%%%%%%%%%%%%%%%%%%%%%%%%%%%%%%%%%%%%%%%%%%%%%%%%%%%%%%%%%%%%%%%%%%%%%%%%%%%%%%%%%%%%%%%%%%%%%%%%%%%%%%%%%%%%%%%%%%%%%%%%%%%%%%%%%%%%%%%%%%%%%%%%%%%%%%%%%%%%%%%%%%%%%%%%%%%%%%%%%%%%%%%%%%%%%%%%%%%%%%%%%%%%%%%%%%%%%%%%%%%%%%%%%%%%%%%%%%%%%%%ooooooooooooooooooo",
"%%%%%%%%%%%%%%%%%%%%%%%%%%%%%%==========================::::::================================%%%%%%%%%%%%%%%%%%%%%%%%%%%%%%%%%%%%%%%%%%%%%%%%%%%%%%%%%%%%%%%%%%%%%%%%%%%%%%%%%%%%%%%%%%%%%%%%%%%%%%%%%%%%%%%%%%%%%%%%%%%%%%%%%%%%%%%%%%%%%%%%%%%%%%%%%%%%%%%%%%ooooooooooooooooooo%%%%%%%%%%%%%%%%%%%%%%%%%%%%%%%%%%%%%%%%%%%%%%%====%%%%=%====%%%%%%======%%%%%%%%%%%%%%%%%%%%%%%%%%%%%%%%%%%%%%%%%%%%%%%%%%%%%%%%%%%%%%%%%%%%%%%%%%%%%%%%%%%%%%%%%%%%%%%%%%%%%%%%%%%%%%%%%%%%%%%%%%%%%%%%%%%%%%%%%%%%%%%%%%%%%%%%%%%%%%%%%%%%%%%%%%%%%%%%%%%%%%%%%%%%%%%%%%%%%%%%%%%%%%%%%%%%%%%%%%%%%%%%%%%%%%%%%%%%%%%%%%%%%%%%%%%%%%%%%%%ooooooooooooooooooo",
"%%%%%%%%%%%%%%%%%%%%%%%%%%%%%%==========================::::::================================%%%%%%%%%%%%%%%%%%%%%%%%%%%%%%%%%%%%%%%%%%%%%%%%%%%%%%%%%%%%%%%%%%%%%%%%%%%%%%%%%%%%%%%%%%%%%%%%%%%%%%%%%%%%%%%%%%%%%%%%%%%%%%%%%%%%%%%%%%%%%%%%%%%%%%%%%%%%%%%%%%ooooooooooooooooooo%%%%%%%%%%%%%%%%%%%%%%%%%%%%%%%%%%%%%%%%%%%%%%%%%%%%%%%%%%%%%%%%%%%%%%%%%%%%%%%%%%%%%%%%%%%%%%%%%%%%%%%%%%%%%%%%%%%%%%%%%%%%%%%%%%%%%%%%%%%%%%%%%%%%%%%%%%%%%%%%%%%%%%%%%%%%%%%%%%%%%%%%%%%%%%%%%%%%%%%%%%%%%%%%%%%%%%%%%%%%%%%%%%%%%%%%%%%%%%%%%%%%%%%%%%%%%%%%%%%%%%%%%%%%%%%%%%%%%%%%%%%%%%%%%%%%%%%%%%%%%%%%%%%%%%%%%%%%%%%%%%%%%%%%%%%%ooooooooooooooooooo",
"%%%%%%%%%%%%%%%%%%%%%%%%%%%%%============================:=::=================================%%%%%%%%%%%%%%%%%%%%%%%%%%%%%%%%%%%%%%%%%%%%%%%%%%%%%%%%%%%%%%%%%%%%%%%%%%%%%%%%%%%%%%%%%%%%%%%%%%%%%%%%%%%%%%%%%%%%%%%%%%%%%%%%%%%%%%%%%%%%%%%%%%%%%%%%%%%%%%%%%%oooooooooooo%%%%ooo%%%%%%%%%%%%%%%%%%%%%%%%%%%%%%%%%%%%%%%%%%%%%%%%%%%%%%%%%%%%%%%%%%%%%%%%%%%%%%%%%%%%%%%%%%%%%%%%%%%%%%%%%%%%%%%%%%%%%%%%%%%%%%%%%%%%%%%%%%%%%%%%%%%%%%%%%%%%%%%%%%%%%%%%%%%%%%%%%%%%%%%%%%%%%%%%%%%%%%%%%%%%%%%%%%%%%%%%%%%%%%%%%%%%%%%%%%%%%%%%%%%%%%%%%%%%%%%%%%%%%%%%%%%%%%%%%%%%%%%%%%%%%%%%%%%%%%%%%%%%%%%%%%%%%%%%%%%%%%%%%%%%%%%%%%%%ooooooooooooooooooo",
"%%%%%%%%%%%%%%%%%%%%%%%%%%%%%=================================================================%%%%%%%%%%%%%%%%%%%%%%%%%%%%%%%%%%%%%%%%%%%%%%%%%%%%%%%%%%%%%%%%%oooooooooooooo%ooooooooooooooooooo%%%%%%%%%%%%%%%%%%%%%%%%%%%%%%%%%%%%%%%%%%%%%%%%%%%%%%%%%%%%%%%%%oooooooooo%%%%%%%%%%%%%%%%%%%%%%%%%%%%%%%%%%%%%%%%%%%%%%%%%%%%%%%%%%%%%%%%%%%%%%%%%%%%%%%%%%%%%%%%%%%%%%%%%%%%%%%%%%%%%%%%%%%%%%%%%%%%%%%%%%%%%%%%%%%%%%%%%%%%%%%%%%%%%%%%%%%%%%%%%%%%%%%%%%%%%%%%%%%%%%%%%%%%%%%%%%%%%%%%%%%%%%%%%%%%%%%%%%%%%%%%%%%%%%%%%%%%%%%%%%%%%%%%%%%%%%%%%%%%%%%%%%%%%%%%%%%%%%%%%%%%%%%%%%%%%%%%%%%%%%%%%%%%%%%%%%%%%%%%%%%%%%%%%%%ooooooooooooooooooo",
"%%%%%%%%%%%%%%%%%%%%%%%%%%%%%=============%%%%%%%%%%===========================================%%%%%%%%%%%%%%%%%%%%%%%%%%%%%%%%%%%%%%%%%%%%%%%%%%%%%%%%%%%%%%%%oooooooooooooooooooooooooooooooo%o%%%%%%%%%%%%%%%%%%%%%%%%%%%%%%%%%%%%%%%%%%%%%%%%%%%%%%%%%%%%%%%%%%%%%%%%%%%%%%%%%%%%%%==========%%%%%%%%%%%%%%%%%%%%%%%%%%%%%%%%%%%%%%%%%%%%%%%%%%%%%%%%%%%%%%%%%%%%%%%%%%%%%%%%%%%%%%%%%%%%%%%%%%%%%%%%%%%%%%%%%%%%%%%%%%%%%%%%%%%%%%%%%%%%%%%%%%%%%%%%%%%%%%%%%%%%%%%%%%%%%%%%%%%%%%%%%%%%%%%%%%%%%%%%%%%%%%%%%%%%%%%%%%%%%%%%%%%%%%%%%%%%%%%%%%%%%%%%%%%%%%%%%%%%%%%%%%%%%%%%%%%%%%%%%%%%%%%%%%%%%%%%%%%%%%%%%%%%%%%%%%%%%%ooooooooooooooooooo",
"%%%%%%%%%%%%%%%%%%%%%%%%%%%%%=============%%%%%%%%%%%===========================================%%%%%%%%%%%%%%%%%%%%%%%%%%%%%%%%%%%%%%%%%%%%%%%%%%%%%%%%%%%%%%%oooooooooooooooooooooooooooooooooo%%%%%%%%%%%%%%%%%%%%%%%%%%%%%%%%%%%%%%%%%%%%%%%%%%%%%%%%%%%%%%%%%%%%%%%%%%%%%%===================%%%%%%%%%%%%%%%%%%%%%%%%%%%%%%%%%%%%%%%%%%%%%%%%%%%%%%%%%%%%%%%%%%%%%%%%%%%%%%%%%%%%%%%%%%%%%%%%%%%%%%%%%%%%%%%%%%%%%%%%%%%%%%%%%%%%%%%%%%%%%%%%%%%%%%%%%%%%%%%%%%%%%%%%%%%%%%%%%%%%%%%%%%%%%%%%%%%%%%%%%%%%%%%%%%%%%%%%%%%%%%%%%%%%%%%%%%%%%%%%%%%%%%%%%%%%%%%%%%%%%%%%%%%%%%%%%%%%%%%%%%%%%%%%%%%%%%%%%%%%%%%%%%%%%%%%%%%%%ooooooooooooooooooo",
"%%%%%%%%%%%%%%%%%%%%%%%%%%%%%=============%%%%%%%%%%%===%%=====================================%%%%%%%%%%%%%%%%%%%%%%%%%%%%%%%%%%%%%%%%%%%%%%%%%%%%%%%%%%%%%%%%ooooooo%%ooo%%%ooooooo%%%ooo%%%ooo%%%%%%%%%%%%%%%%%%%%%%%%%%%%%%%%%%%%%%%%%%%%%%%%%%%%%%%%%%%%%%=%%================================%%%%%%%%%%%%%%%%%%%%%%%%%%%%%%%%%%%%%%%%%%%%%%%%%%%%%%%%%%%%%%%%%%%%%%%%%%%%%%%%%%%%%%%%%%%%%%%%%%%%%%%%%%%%%%%%%%%%%%%%%%%%%%%%%%%%%%%%%%%%%%%%%%%%%%%%%%%%%%%%%%%%%%%%%%%%%%%%%%%%%%%%%%%%%%%%%%%%%%%%%%%%%%%%%%%%%%%%%%%%%%%%%%%%%%%%%%%%%%%%%%%%%%%%%%%%%%%%%%%%%%%%%%%%%%%%%%%%%%%%%%%%%%%%%%%%%%%%%%%%%%%%%%%%%%%%%%%%%ooooooooooooooooooo",
"%%%%%%%%%%%%%%%%%%%%%%%%%%%%%===========%%%%%%%%%%%%%%%%%%%====================================%%%%%%%%%%%%%%%%%%%%%%%%%%%%%%%%%%%%%%%%%%%%%%%%%%%%%%%%%%%%%%%%%%%%%%%%%%%%%%%%%%%%%%%%%%%%%%%%%%%%%%%%%%%%%%%%%%%%%%%%%%%%%%%%%%%%%%%%%%%%%%%%%%%%%%%%%%%%%%%==%%================::::=:::========%%%%%%%%%%%%%%%%%%%%%%%%%%%%%%%%%%%%%%%%%%%%%%%%%%%%%%%%%%%%%%%%%%%%%%%%%%%%%%%%%%%%%%%%%%%%%%%%%%%%%%%%%%%%%%%%%%%%%%%%%%%%%%%%%%%%%%%%%%%%%%%%%%%%%%%%%%%%%%%%%%%%%%%%%%%%%%%%%%%%%%%%%%%%%%%%%%%%%%%%%%%%%%%%%%%%%%%%%%%%%%%%%%%%%%%%%%%%%%%%%%%%%%%%%%%%%%%%%%%%%%%%%%%%%%%%%%%%%%%%%%%%%%%%%%%%%%%%%%%%%%%%%%%%%%%%%%%%%ooooooooooooooooooo",
"%%%%%%%%%%%%%%%%%%%%%%%%%%%%%%==========%%%%%%%%%%%%%%%%%%%%====%%%%%%=%====%%%%%%%%%%=%====%%%%%%%%%%%%%%%%%%%%%%%%%%%%%%%%%%%%%%%%%%%%%%%%%%%%%%%%%%%%%%%%%%%%%%%%%%%%%%%%%%%%%%%%%%%%%%%%%%%%%%%%%%%%%%%%%%%%%%%%%%%%%%%%%%%%%%%%%%%%%%%%%%%%%%%%%%%%%%%%%%============:::====::::::::::::=====%%%%%%%%%%%%%%%%%%%%%%%%%%%%%%%%%%%%%%%%%%%%%%%%%%%%%%%%%%%%%%%%%%%%%%%%%%%%%%%%%%%%%%%%%%%%%%%%%%%%%%%%%%%%%%%%%%%%%%%%%%%%%%%%%%%%%%%%%%%%%%%%%%%%%%%%%%%%%%%%%%%%%%%%%%%%%%%%%%%%%%%%%%%%%%%%%%%%%%%%%%%%%%%%%%%%%%%%%%%%%%%%%%%%%%%%%%%%%%%%%%%%%%%%%%%%%%%%%%%%%%%%%%%%%%%%%%%%%%%%%%%%%%%%%%%%%%%%%%%%%%%%%%%%%%%%%%%%%ooooooooooooooooooo",
"%%%%%%%%%%%%%%%%%%%%%%%%%%%%%%==========%%%%%%%%%%%%%%%%%%%%%%%%%%%%%%%%%%%%%%%%%%%%%%%%%%%%%%%%%%%%%%%%%%%%%%%%%%%%%%%%%%%%%%%%%%%%%%%%%%%%%%%%%%%%%%%%%%%%%%%%%%%%%%%%%%%%=%%%%%%%%%%%%%%=%%%%%%%%%%%%%%%%%%%%%%%%%%%%%%%%%%%%%%%%%%%%%%%%%%%%%%%%%%%%%%%%%%%==========:::::======:====::::=====%%%%%%%%%%%%%%%%%%%%%%%%%%%%%%%%%%%%%%%%%%%%%%%%%%%%%%%%%%%%%%%%%%%%%%%%%%%%%%%%%%%%%%%%%%%%%%%%%%%%%%%%%%%%%%%%%%%%%%%%%%%%%%%%%%%%%%%%%%%%%%%%%%%%%%%%%%%%%%%%%%%%%%%%%%%%%%%%%%%%%%%%%%%%%%%%%%%%%%%%%%%%%%%%%%%%%%%%%%%%%%%%%%%%%%%%%%%%%%%%%%%%%%%%%%%%%%%%%%%%%%%%%%%%%%%%%%%%%%%%%%%%%%%%%%%%%%%%%%%%%%%%%%%%%%%%%%%%%ooooooooooooooooooo",
"%%%%%%%%%%%%%%%%%%%%%%%%%%%%%%=============%%%%%%%%%%%%%%%%%%%%%%%%%%%%%%%%%%%%%%%%%%%%%%%%%%%%%%%%%%%%%%%%%%%%%%%%%%%%%%%%%%%%%%%%%%%%%%%%%%%%%%%%%%%%%%%%%%%%%%=%==========================%%%%%%%%%%%%%%%%%%%%%%%%%%%%%%%%%%%%%%%%%%%%%%%%%%%%%%%%%%%%%%%%%==================================%%%%%%%%%%%%%%%%%%%%%%%%%%%%%%%%%%%%%%%%%%%%%%%%%%%%%%%%%%%%%%%%%%%%%%%%%%%%%%%%%%%%%%%%%%%%%%%%%%%%%%%%%%%%%%%%%%%%%%%%%%%%%%%%%%%%%%%%%%%%%%%%%%%%%%%%%%%%%%%%%%%%%%%%%%%%%%%%%%%%%%%%%%%%%%%%%%%%%%%%%%%%%%%%%%%%%%%%%%%%%%%%%%%%%%%%%%%%%%%%%%%%%%%%%%%%%%%%%%%%%%%%%%%%%%%%%%%%%%%%%%%%%%%%%%%%%%%%%%%%%%%%%%%%%%%%%%%%%%%ooooooooooooooooooo",
"%%%%%%%%%%%%%%%%%%%%%%%%%%%%%%==============%%%%%%%%%%%%%%%%%%%%%%%%%%%%%%%%%%%%%%%%%%%%%%%%%%%%%%%%%%%%%%%%%%%%%%%%%%%%%%%%%%%%%%%%%%%%%%%%%%%%%%%%%%%%%%%%%%%%%=============================%%%%%%%%%%%%%%%%%%%%%%%%%%%%%%%%%%%%%%%%%%%%%%%%%%%%%%%%%%%%%%%%%==================================%%%%%%%%%%%%%%%%%%%%%%%%%%%%%%%%%%%%%%%%%%%%%%%%%%%%%%%%%%%%%%%%%%%%%%%%%%%%%%%%%%%%%%%%%%%%%%%%%%%%%%%%%%%%%%%%%%%%%%%%%%%%%%%%%%%%%%%%%%%%%%%%%%%%%%%%%%%%%%%%%%%%%%%%%%%%%%%%%%%%%%%%%%%%%%%%%%%%%%%%%%%%%%%%%%%%%%%%%%%%%%%%%%%%%%%%%%%%%%%%%%%%%%%%%%%%%%%%%%%%%%%%%%%%%%%%%%%%%%%%%%%%%%%%%%%%%%%%%%%%%%%%%%%%%%%%%%%%%%ooooooooooooooooooo",
"%%%%%%%%%%%%%%%%%%%%%%%%%%%%%%===============%%%%%%%%%%%%%%%%%%%%%%%%%%%%%%%%%%%%%%%%%%%%%%%%%%%%%%%%%%%%%%%%%%%%%%%%%%%%%%%%%%%%%%%%%%%%%%%%%%%%%%%%%%%%%%%%%%%%==============================%=%%%%%%%%%%%%%%%%%%%%%%%%%%%%%%%%%%%%%%%%%%%%%%%%%%%%%%%%%%%%%%%==%%%%===%%=%=%=====%%====%%====%%%%%%%%%%%%%%%%%%%%%%%%%%%%%%%%%%%%%%%%%%%%%%%%%%%%%%%%%%%%%%%%%%%%%%%%%%%%%%%%%%%%%%%%%%%%%%%%%%%%%%%%%%%%%%%%%%%%%%%%%%%%%%%%%%%%%%%%%%%%%%%%%%%%%%%%%%%%%%%%%%%%%%%%%%%%%%%%%%%%%%%%%%%%%%%%%%%%%%%%%%%%%%%%%%%%%%%%%%%%%%%%%%%%%%%%%%%%%%@@%%%%%%%%%%%%%%%%%%%%%%%%%%%%%%%%%%%%%%%%%%%%%%%%%%%%%%%%%%%%%%%%%%%%%%%%%%%%%%%ooooooooooooooooooo",
"%%%%%%%%%%%%%%%%%%%%%%%%%%%%%%===============%%%%%%%%%%%%%%%%%%%%%%%%%%%%%%%%%%%%%%%%%%%%%%%%%%%%%%%%%%%%%%%%%%%%%%%%%%%%%%%%%%%%%%%%%%%%%%%%%%%%%%%%%%%%%%%%%%%=================================%%%%%%%%%%%%%%%%%%%%%%%%%%%%%%%%%%%%%%%%%%%%%%%%%%%%%%%%%%%%%%%%%%%%%%%%%%%%%%%%%%%%%%%%%%%%%%%%%%%%%%%%%%%%%%%%%%%%%%%%%%%%%%%%%%%%%%%%%%%%%%%%%%%%%%%%%%%%%%%%%%%%%%%%%%%%%%%%%%%%%%%%%%%%%%%%%%%%%%%%%%%%%%%%%%%%%%%%%%%%%%%%%%%%%%%%%%%%%%%%%%%%%%%%%%%%%%%%%%%%%%%%%%%%%%%%%%%%%%%%%%%%%%%%%%%%%%%%%%%%%%%%%%%%%%%%%%%%%%%@@@@@@@@@@@@@@@@@@@@@@@@@@@@@@@@%%%%%%%%%%%%%%%%%%%%%%%%%%%%%%%%%%%%%%%%%%%%%%%%%%%%%%%%%%%%%%%ooooooooooooooooooo",
"%%%%%%%%%%%%%%%%%%%%%%%%%%%%%=====:::=======%%%%%%%%%%%%%%%%%%%%%%%%%%%%%%%%%%%%%%%%%%%%%%%%%%%%%%%%%%%%%%%%%%%%%%%%%%%%%%%%%%%%%%%%%%%%%%%%%%%%%%%%%%%%%%%%%%%%================================%%%%%%%%%%%%%%%%%%%%%%%%%%%%%%%%%%%%%%%%%%%%%%%%%%%%%%%%%%%%%%%%%%%%%%%%%%%%%%%%%%%%%%%%%%%%%%%%%%%%%%%%%%%%%%%%%%%%%%%%%%%%%%%%%%%%%%%%%%%%%%%%%%%%%%%%%%%%%%%%%%%%%%%%%%%%%%%%%%%%%%%%%%%%%%%%%%%%%%%%%%%%%%%%%%%%%%%%%%%%%%%%%%%%%%%%%%%%%%%%%%%%%%%%%%%%%%%%%%%%%%%%%%%%%%%%%%%%%%%%%%%%%%%%%%%%%%%%%%%%%%%%%%%%%%%%%%%%%%%@@@@@@@@@@@@@@@@@@@@@@@@@@@@@@@@@@%%%%%%%%%%%%%%%%%%%%%%%%%%%%%%%%%%%%%%%%%%%%%%%%%%%%%%%%%%%%%%ooooooooooooooooooo",
"%%%%%%%%%%%%%%%%%%%%%%%%%%%%%======:::======%%%%%%%%%%%%%%====%%%%%%%%%%%%%%%%%%%%%%%%%%%%%%%%%%%%%%%%%%%%%%%%%%%%%%%%%%%%%%%%%%%%%%%%%%%%%%%%%%%%%%%%%%%%%%%%%%===============================%%%%%%%%%%%%%%%%%%%%%%%%%%%%%%%%%%%%%%%%%%%%%%%%%%%%%%%%%%%%%%%%%%%%%%%%%%%%%%%%%%%%%%%%%%%%%%%%%%%%%%%%%%%%%%%%%%%%%%%%%%%%%%%%%%%%%%%%%%%%%%%%%%%%%%%%%%%%%%%%%%%%%%%%%%%%%%%%%%%%%%%%%%%%%%%%%%%%%%%%%%%%%%%%%%%%%%%%%%%%%%%%%%%%%%%%%%%%%%%%%%%%%%%%%%%%%%%%%%%%%%%%%%%%%%%%%%%%%%%%%%%%%%%%%%%%%%%%%%%%%%%%%%%%%%%%%%%%%%%%@@@@@@@@@@@@@@@@@@@@@@@@@@@@@@@@@@%%%%%%%%%%%%%%%%%%%%%%%%%%%%%%%%%%%%%%%%%%%%%%%%%%%%%%%%%%%%%%ooooooooooooooooooo",
"%%%%%%%%%%%%%%%%%%%%%%%%%%%%%=====:::========%%%%%%%%%%%%=%====%=%%%%%%%%%%%%%%%%%%%%%%%%%%%%%%%%%%%%%%%%%%%%%%%%%%%%%%%%%%%%%%%%%%%%%%%%%%%%%%%%%%%%%%%%%%%%%%===============================%%%%%%%%%%%%%%%%%%%%%%%%%%%%%%%%%%%%%%%%%%%%%%%%%%%%%%%%%%%%%%%%%%%%%%%%%%%%%%%%%%%%%%%%%%%%%%%%%%%%%%%%%%%%%%%%%%%%%%%%%%%%%%%%%%%%%%%%%%%%%%%%%%%%%%%%%%%%%%%%%%%%%%%%%%%%%%%%%%%%%%%%%%%%%%%%%%%%%%%%%%%%%%%%%%%%%%%%%%%%%%%%%%%%%%%%%%%%%%%%%%%%%%%%%%%%%%%%%%%%%%%%%%%%%%%%%%%%%%%%%%%%%%%%%%%%%%%%%%%%%%%%%%%%%%%%%%%%%%%%%@@@@@@@@@@@@@@@@@@@@@@@@@@@@@@@@@@%%%@%@@%%%%%%%%%%@@%%%%%%%%@%@%%%%%%%%%%%%%%%%%%%%%%%%%%%%%%%%ooooooooooooooooooo",
"%%%%%%%%%%%%%%%%%%%%%%%%%%%%%=====::=========%%%%%%%%%%%%%=======%%%%%%%%%%%%%%%%%%%%%%%%%%%%%%%%%====%%%%====%%====%%%%========%%%============%====%%=====%%%================================%%%%%%%%%%%%%%%%%%%%%%%%%%%%%%%%%%%%%%%%%%%%%%%%%%%%%%%%%%%%%%%%===%%%%%%%=======%====%======%==%%%%%%%%%%%%%%%%%%%%%%%%%%%%%%%%%%%%%%%%%%%%%%%%%%%%%%%%%%%%%%%%%%%%%%%%%%%%%%%%%%%%%%%%%%%%%%%%%%%%%%%%%%%%%%%%%%%%%%%%%%%%%%%%%%%%%%%%%%%%%%%%%%%%%%%%%%%%%%%%%%%%%%%%%%%%%%%%%%%%%%%%%%%%%%%%%%%%%%%%%%%%%%%%%%%%%%%%%%%%%%%%%@@@@@@@@@@@@@@@@@@@@@@@@@@@@@@@@@@@@@@@@@@@@@@@@@@@@@@@@@@@@@@@@@%%%%%%%%%%%%%%%%%%%%%%%%%%%%%%%ooooooooooooooooooo",
"%%%%%%%%%%%%%%%%%%%%%%%%%%%%%===============%%%%%%%%%%%=%=====%%%%%%%%%%%%%%%%%%%%%%%%%%%%%%%%%%%==============================================================================================%%%%%%%%%%%%%%%%%%%%%%%%%%%%%%%%%%%%%%%%%%%%%%%%%%%%%%%%%%%%%%%===============================%%%%%%%%%%%%%%%%%%%%%%%%%%%%%%%%%%%%%%%%%%%%%%%%%%%%%%%%%%%%%%%%%%%%%%%%%%%%%%%%%%%%%%%%%%%%%%%%%%%%%%%%%%%%%%%%%%%%%%%%%%%%%%%%%%%%%%%%%%%%%%%%%%%%%%%%%%%%%%%%%%%%%%%%%%%%%%%%%%%%%%%%%%%%%%%%%%%%%%%%%%%%%%%%%%%%%%%%%%%%%%%%%%@@@@@@+@@@@@@@@@@@@@@@@@@@@@@+@@@@@@@@@@@@@@@@@@@@@@@@@@@@@@@@@@@%%%%%%%%%%%%%%%%%%%%%%%%%%%%%%%ooooooooooooooooooo",
"%%%%%%%%%%%%%%%%%%%%%%%%%%%%%=============%%%%%%%%%%%%%%%%%%=%%%%%%%%%%%%%%%%%%%%%%%%%%%%%%%%%%%%===============================================================================================%%%%%%%%%%%%%%%%%%%%%%%%%%%%%%%%%%%%%%%%%%%%%%%%%%%%%%%%%%%%%================================%%%%%%%%%%%%%%%%%%%%%%%%%%%%%%%%%%%%%%%%%%%%%%%%%%%%%%%%%%%%%%%%%%%%%%%%%%%%%%%%%%%%%%%%%%%%%%%%%%%%%%%%%%%%%%%%%%%%%%%%%%%%%%%%%%%%%%%%%%%%%%%%%%%%%%%%%%%%%%%%%%%%%%%%%%%%%%%%%%%%%%%%%%%%%%%%%%%@@@@@@@@@@@@@@@@@@@@@@@@@@@@@@@@@@@@+@@@@@@@@@@@@@@@@@@@@@@@+@@@@@@@@@@@@@@@@@@@@@@@@@@@@@@@@@@@%%%%%%%%%%%%%%%%%%%%%%%%%%%%%%%ooooooooooooooooooo",
"%%%%%%%%%%%%%%%%%%%%%%%%%%%%%%==============%%%%%%%%%%%========%=%%%%%%%%%%%%%%%%%%%%%%%%%%%%%%%%===================================================================::::=:::====::==:=::====::==%%%%%%%%%%%%%%%%%%%%%%%%%%%%%%%%%%%%%%%%%%%%%%%%%%%%%%%%%%%%%%============%%%%=%%%%%%%%%%%%%%%%%%%%%%%%%%%%%%%%%%%%%%%%%%%%%%%%%%%%%%%%%%%%%%%%%%%%%%%%%%%%%%%oo%%%%%%%%%%%%%%%%%%%%%%%%%%%%%%%%%%%%%%%%%%%%%%%%%%%%%%%%%%%%%%%%%%%%%%%%%%%%%%%%%%%%%%%%%%%%%%%%%%%%%%%%%%%%%%%%%%%%%%%%%%%%%%%%%%%%%%%%%%%%oooo%%%%%%%%%%%%%%%@@@@@@@@@@@@@@@@@@@@@@@@@@@@@@@@@@@@@@@@@@@@@@@@@@@@@@@@@@@@@@@@@@%%%%%%%%%%%%%%%%%%%%%%%%%%%%%%ooooooooooooooooooo",
"%%%%%%%%%%%%%%%%%%%%%%%%%%%%%%==%========%%%%%%%%%%%%%%%======%%%%%%%%%%%%%%%%%%%%%%%%%%%%%%%%%%%================================================================:::::::::::::::::::::::::::::===%%%%%%%%%%%%%%%%%%%%%%%%%%%%%%%%%%%%%%%%%%%%%%%%%%%%%%%%%%%%%============%%%%%%%%%%%%%%%%%%%%%%%%%%%%%%%%%%%%%%%%%%%%%%%%%%%%%oooooooooooooooooooooooooooooooooo%%%%%%%%%%%%%%%%%%%%%%%%%%%%%%%%%%%%%%%%%%%%%%%%%%%%%%%%%%%%%%%%%%%%%%%%%%%%%%%%%%%%%%%%%%%%%%%%%%%%%%%%%%%%%%%%%%%%%%%%%%%%%%%@@@@@@@@@@@@@@@@@@@@@@@@@@@@@@@@@@@@@@@@@@@@@@@@@@@@@@@@@@@@@@@@@@@@@@@@@@@@@@@@@@@@@@@@@@@@@@@@@%%%%%%%%%%%%%%%%%%%%%%%%%%%%%%ooooooooooooooooooo",
"%%%%%%%%%%%%%%%%%%%%%%%%%%%%%%==%===%%%%%%%%%%%%%%%%%%%%%%%%%=%%%%%%%%%%%%%%%%%%%%%%%%%%%%%%%%%%%%==============================================================:::::::::::::::::::::::::::::=====%%%%%%%%%%%%%%%%%%%%%%%%%%%%%%%%%%%%%%%%%%%%%%%%%%%%%%%%%%%%====%%%%====%%%%%%%%%%%%%%%%%%%%%%%%%%%%%%%%%%%%%%%%%%%%%%%%%%%%%oooooooooooooooooooooooooooooooooo%%%%%%%%%%%%%%%%%%%%%%%%%%%%%%%%%%%%%%%%%%%%%%%%%%%%%%%%%%%%%%%%%%%ooo%%%%%ooo%%%%%ooo%%%%%ooo%%%%%%%%%%%%%%%%%%%%%%%%%%%%%%%%%@@@@@@@@@@@@@@@@+@@@@++@@@@@@@@@@@@@@@@@+@@@@+@@@@@@@@@@@@@@@@@@@@@@@@@@@@@@@@@@@@@@@@@@@@@@@@@@@%%%%%%%%%%%%%%%%%%%%%%%%%%%%%%ooooooooooooooooooo",
"%%%%%%%%%%%%%%%%%%%%%%%%%%%%%%%=%=%%%%%%%%%%%%%%%%%%%%%%%%%%==%%%%%%%%%%%%%%%%%%%%%%%%%%%%%%%%%%%%==============================================================:====::::===::::::::=:==::::=====%%%%%%%%%%%%%%%%%%%%%%%%%%%%%%%%%%%%%%%%%%%%%%%%%%%%%%%%%%%%%%=%==%%====%%%%%%%%%%%%oooooooooooo%%%%%%%%%%%%%%%%%%%%%%%%%%%%%%oooooooooooooooooooooooooooooooooo%%%%%%%%%%%%%%%%%%%%%%%%%%%%%%%%%%%%%%%%%%%%%%%%%%%%%%%%%%%%%%%@@@@@@@@@@@@++@@@@@@@@@@@@@@++@@%%%%%%%%%%%%%%%%%%%%%%%%%%%%%%%%@@@@@@@@@@@@@@@@+@@@@++@@@@@@@@@@@@@@@@@+@@@@++@@@@@@@@@@@@@@@@@@@@@@@@@@@@@@@@@@@@@@@@@@@@@@@@@@%%%%%%%%%%%%%%%%%%%%%%%%%%%%%%ooooooooooooooooooo",
"%%%%%%%%%%%%%%%%%%%%%%%%%%%%%%%%%%%%%%%%%%%%%%%%%%%%%%%%%%====%%%%%%%%%%%%%%%%%%%%%%%%%%%%%%%%%%%%================================:::::::=::==::=:::::=:==::::::================================%%%%%%%%%%%%%%%%%%%%%%%%%%%%%%%%%%%%%%%%%%%%%%%%%%%%%%%%%%%%%%%%%%%%%%%%%%%%%%%%%%%%%oooooooooooo%%%%%%%%%%%%%%%%%%%%%%%%%%%%%%oooooooooooooooooooooooooooooooooo%%%%%%%%%%%%%%%%%%%%%%%%%%%%%%%%%%%%%%%%%%%%%%%%%%%%%%%%%%%%%%%@@@@@@@@@@@@@+@@@@@@@@@@@@@@@+@@%%%%%%%%%%%%%%%%%%%%%%%%%%%%%%%%@@@@@@@@@@+@@+@@@@@@@@@@@@@@++@@@@@@@++@+@@@@@@@@@@@++@@@@+@@++@@@@@@@@@@@@@@@@@@@@@@@@@@@@@@@@@@%%%%%%%%%%%%%%%%%%%%%%%%%%%%%%ooooooooooooooooooo",
"%%%%%%%%%%%%%%%%%%%%%%%%%%%%%%%%%%%%%ooooo%%ooooo%%%o%%%%%====%%%%%%%%%%%%%%%%%%%%%%%%%%%%%%%%%%%%================================::::::::::::::::::::::::::::::================================%%%%%%%%%%%%%%%%%%%%%%%%%%%%%%%%%%%%%%%%%%%%%%%%%%%%%%%%%%%%%%%%%%%%%%%%%%%%%%%%%%%%%oooooooooooo%%%%%%%%%%%%%%%%%%%%%%%%%%%%%%oooooooooooooooooooooooooooooooooo%%%%%%%%%%%%%%%%%%%%%%%%%%%%%%%%%%%%%%%%%%%%%%%%%%%%%%%%%%%%%%%@@@@@@@@@@@@@@@@@@@@@@@@@@@@@@@@%%%%%%%%%%%%%%%%%%%%%%%%%%%%%%%%@@@@+@@@+++@@+@@@@@@@@@@@@@@+@@@+++@@+@@@@@@@@@@@@@@+@@@@+@@++@@@@@@@@@@@@@@@@@@@@@@@@@@@@@@@@@@@%%%%%%%%%%%%%%%%%%%%%%%%%%%%%%ooooooooooooooooooo",
"%%%%%%%%%%%%%%%%%%%%%%%%%%%%%%%%%%%%%oooooooooooooooo%%%%%====%%%%%%%%%%%%%%%%%%%%%%%%%%%%%%%%%%%%================================:::::::::::::::::::::::::::======%%=======%%%%%=======%%%%====%%%%%%%%%%%%%%%%%%%%%%%%%%%%%%%%%%%%%%%%%%%%%%%%%%%%%%%%%%%%%%%%%%%%%%%%%%%%%%%%%%%%%oooooooooooo%%%%%%%%%%%%%%%%%%%%%%%%%%%%%%oooooooooooooooooooooooooooooooooo%%%%%%%%%%%%%%%%%%%%%%%%%%%%%%%%%%%%%%%%%%%%%%%%%%%%%%%%%%%%%%%@@@@@@+@@@@@@@@@@@@@@@+@@@@@@@@@%%%%%%%%%%%%%%%%%%%%%%%%%%%%%%%%@@@++@@@@@@@@@@@@@@@@@@@@@@@@@@@@@@@@@@@@@@@@@@@@@@@+@@@@@@@@@@@@@@@@@@@@@@@@@@@@@@@@@@@@@@@@@@@@%%%%%%%%%%%%%%%%%%%%%%%%%%%%%%ooooooooooooooooooo",
"%%%%%%%%%%%%%%%%%%%%%%%%%%%%%%%%%ooooooooooooooooooo%%%%%%%==%%%%%%%%%%%%%%%%%%%%%%%%%%%%%%%%%%%%%================================:::::==:::==::::::::==::::=======%%%%%%%%%%%%%%%%%%%%%%%%%%%%%%%%%%%%%%%%%%%%%%%%%%%%%%%%%%%%%%%%%%%%%%%%%%%%%%%%%%%%%%%%%%%%%%%%%%%%%%%%%%%%%%%%%%%%oooooooooo%%%%%%%%%%%%%%%%%%%%%%%%%%%%%%oooooooooooooooooooooooooooooooooo%%%%%%%%%%%%%%%%%%%%%%%%%%%%%%%%%%%%%%%%%%%%%%%%%%%%%%%%%%%%%%%@@@@@@++@@@@+@@@@@@@@@++@@@@+@@@%%%%%%%%%%%%%%%%%%%%%%%%%%%%%o%%@@@++@@@@@@@@@@@@@@@@@@@@@@@@@@@@@@@@@@@@@@@@@@@@@@@@@@@@@@@@@@@@@@@@@@@@@@@@@@@@@@@@@@@@@@@@@@@@%%%%%%%%%%%%%%%%%%%%%%%%%%%%%%%oooooooooooooooooo",
"%%%%%%%%%%%%%%%%%%%%%%%%%%%%%%%%%%oooooooooooooooooo%%%%%%%%%%%%%%%%%%%%%%%%%%%%%%%%%%%%%%%%%%%%%%=================================================================%%%%%%%%%%%%%%%%%%%%%%%%%%%%%%%%%%%%%%%%%%%%%%%%%%%%%%%%%%%%%%%%%%%%%%%%%%%%%%%%%%%%%%%%%%%%%%%%%%%%%%%%%%%%%%%%%%%%oooooooooo%%%%%%%%%%%%%%%%%%%%%%%%%%%%%%oooooooooooooooooooooooooooooooooo%%%%%%%%%%%%%%%%%%%%%%%%%%%%%%%%%%%%%%%%%%%%%%%%%%%%%%%%%%%%%%%@@@@@@@@@@@@+@@@@@@@@@@@@@@@+@@@%%%%%%%%%%%%%%%%%%%%%%%%%%%%oooo@@++@@@@@@@+@@@@++@@@@@@@@++@@@@@@++@@@@++@@+@@@@@++@@@@@@@@@@@@@@@@@@@@@@@@@@@@@@@@@@@@@@@@@@@@@%%%%%%%%%%%%%%%%%%%%%%%%%%%%%%%oooooooooooooooooo",
"%%%%%%%%%%%%%%%%%%%%%%%%%%%%%%%%%%ooooooooooooo%%%%%%%%%%%%%%%%%%%%%%%%%%%%%%%%%%%%%%%%%%%%%%%%%%%=================================================================%%%%%%%%%%%%%%%%%%%%%%%%%%%%%%%%%%%%%%%%%%%%%%%%%%%%%%%%%%%%%%%%%%%%%%%%%%%%%%%%%%%%%%%%%%%%%%%%%%%%%%%%%%%%%%%%%%%%%%%%%%%%%%%%%%%%%%%%%%%%%%%%%%%%%%%%%%%%%%%%%%%%%%%%o%%%%%%%%%oooooooooooo%%%%%%%%%%%%%%%%%%%%%%%%%%%%%%ooooooooooooooooooooooooooooooooo@@@@@@@@@@@@++@@@@@@@@@@@@@@++@@@@@@@@@@@@@@@@@@@@@@@@@@@@@@@@@@@@@@@@@@@@@+@@@@++@@++@@@@++@@@@@@@+@@@@+@@@++@@@@+@@@@@@@@@@@@@@@@@@@@@@@@@@@@@@@@@@@@@@@@@@@@@@%%%%%%%%%%%%========%%%%%%%%%%%oooooooooooooooooo",
"%%%%%%%%%%%%%%%%%%%%%%%%%%%%%%%%%oooooooooooooo%o%%%%%%%%%%%%%%%%%%%%%%%%%%%%%%%%%%%%%%%%%%%%%%=================================%%%===%%%===%%%===%%%===%%%===%%%%%%%%%%%%%%%%%%%%%%%%%%%%%%%%%%%%%%%%%%%%%%%%%%%%%%%%%%%%%%%%%%%%%%%%%%%%%%%%%%%%%%%%%%%%%%%%%%%%%%%%%%%%%%%%%%%%%%%%%%%%%%%%%%%%%%%%%%%%%%%%%%%%%%%%%%%%%%%%%%%%%%%%%%%%%%%%%%%%%%%oooooooooooo%%%%%%%%%%%%%%%%%%%%%%%%%%%%%%ooooooooooooooooooooooo@@@@@@@@@@@@@@@@@@@@@@@@@@@@@@@@@@@@@@@@@@@@@@@@@@@@@@@@@@@@@@@@@@@@@@@@@@@@@@@@@@@@@@@@@@@@@@@@@@@@@@@@@@@@@@@@@@@@@@@@@@@@@@@@@@@@@@@@@@@@@@@@@@@@@@@@@@@@@@@@@@@@@@@@@@%%%%%%%%%=%===:::<:::===%%%%%%%%%ooooooooooooooooo",
"%%%%%%%%%%%%%%%%%%%%%%%%%%%%%%%%%ooooooo%%%ooooooooooooo%%%%%%%%%%%%%%%%%%%%%%%%%%%%%%%%%%%%%===================================%%%%====%%==%%%%====%%==%%%%=%%%%%%%%%%%%%%%%%%%%%%%%%%%%%%%%%%%%%%%%%%%%%%%%%%%%%%%%%%%%%%%%%%%%%%%%%%%%%%%%%%%%%%%%%%%%%%%%%%%%%%%%%%%%%%%%%%%%%%%%%%%%%%%%%%%%%%%%%%%%%%%%%%%%%%%%%%%%%%%%%%%%%%%%%%%%%%%%%%%%%%%%%%%%%%%%%%%%%%%%%%%%%%%%%%%%%%%%%%%%%%%%%%ooooooooooooooooooooooo@@@@@@@@@@@@@@@@@@@@@@@@@@@@@@@@@@@@@@@@@@@@@@@@@@@@@@@@@@@@@@@@@@@@@@@@@@@@@@@@@@@+@@@@@+@@@@@@@@@@@@@@@@@@@@@@@@@@@@@@@@@@@@@@@@@@@@@@@@@@@@@@@@@@@@@@@@@@@@@@@@@@@@@@@@%%%%%%%%=====::<<<<:::==%%%%==%%%%%%%%%%%%%%%%%ooo",
"%%%%%%%%%%%%%%%%%%%%%%%%%%%%%%%%%%%%%%%%%%%oooooooooooooooo%%%%%%%%%%%%%%%%%%%%%%%%%%%%%%%%%%=================================%%%%%%%%%%%%%%%%%%%%%%%%%%%%%%%%%%%%%%%%%%%%%%%%%%%%%%%%%%%%%%%%%%%%%%%%%%%%%%%%%%%%%%%%%%%%%%%%%%%%%%%%%%%%%%%%%%%%%%%%%%%%%%%%%%%%%%%%%%%%%%%%%%%%%%%%%%%%%%%%%%%%%%%%%%%%%%%%%%%%%%%%%%%%%%%%%%%%%%%%==%%%%%%%%%%%%%%%%%%%%%%%%%%%%%%%%%%%%%%%%%%%%%%%%%%%%%%%oooooooooooooooooooo@@@@@@@++@@@@@@@@@@@@@@@@@@@@@@@@@@@@@@@@@@@@@@@@@@@@@@@@@@@@@@@@@@@@@@@@@@@@@@@@@@@+++@@@@@+++@@@@@@@++@@@@+@@@@@@@@@@@@@@@@@@@@@@@@@@@@@@@@@@@@@@@@@@@@@@@@@@@@@@@@@@@@@@@@%%%%%%%======::<<<<<::===%====%%%%%%%%%%%%%%%%%ooo",
"%%%%%%%%%%%%%%%%%%%%%%%%%%%%%%%%%%%%%%%%%%oooooooooooooooooo%%%%%%%%%%%%%%%%%%%%%%%%%%%%%%%%%=================================%%%%%%%%%%%%%%%%%%%%%%%%%%%%%%%%%%%%%%%%%%%%%%%%%%%%%%%%%%%%%%%%%%%%%%%%%%%%%%%%%%%%%%%%%%%%%%%%%%%%%%%%%%%%%%%%%%%%%%%%%%%%%%%%%%%%%%%%%%%%%%%%%%%%%%%%%%%%%%%%%%%%%%%%%%%%%%%%%%%%%%%%%%%%%%%%%%%%%%====%%%%%%%%%%%%%%%%%%%%%%%%%%%%%%%%%%%%%%%%%%%%%%%%%%%%%%%ooooooooooooooooooo@@@@@@@@@@@@@@o%%%%%%%%%%%%%%%%%%%%%%%%%%%%%%@@@@@@@@@@@@@@@@@@@@@@@@@@@@@@@@@@@@@@+++@@@@@@++@@@@@++@++@@@@@+@@@@@@@@@@@@@@@@@@@@@@@@@@@@@@@@@@@@@@@@@@@@@@@@@@@@@@@@@@@@@@@@%%%%%%%%=====::<<<<<::=========%%%%%%%%%%%%%%%%ooo",
"%%%%%%%%%%%%%%%%%%%%%%%%%%%%%%%%%%%%oooooooooooooooooooooooooooo%%%%%%%%%%%%%%%%%%%%%%%%%%%%%%================================%%%%%%%%%%%%%%%%%%%%%%%%%%%%%%%%%%%%%%%%%%%%%%%%%%%%%%%%%%%%%%%%%%%%%%%%%%%%%%%%%%%%%%%%%%%%%%%%%%%%%%%%%%%%%%%%%%%%%%%%%%%%%%%%%%%%%%%%%%%%%%%%%%%%%%%%%%%%%%%%%%%%%%%%%%%%%%%%%%%%%%%%%%%%%%%%%%%%%%=%%%==%%%%%%%%%%%%%%%%%%%%%%%%%%%%%%%%%%%%%%%%%%%%%%%%%%%%%ooooooooooooooooooo@@+@@@@@++@@@@o%%%%%%%%%%%%%%%%%%%%%%%%%%%%%%@@@@@@@@@@@@@@@@@@@@@@@@@@@@@@@@@@@@@@@@@@@@@@@@@@@@+++@@@@@@@@@@@@@@@@@@@@@@@@@@@@@@@@@@@@@@@@@@@@@@@@@@@@@@@@@@@@@@@@@@@@@@@@@@%%%%%%%%=====:::::::::========%%%%%%%%%%%%%%%%%ooo",
"%%%%%%%%%%%%%%%%%%%%%%%%%%%%%%%%ooooooooooooooooo%%%%%%%oooooooo%%%%%%%%%%%%%%%%%%%%%%%%%%%%%%%==============================%=%%%%%%%%%%%%%%%%%%%%%%%%%%%%%%%%%%%%%%%%%%%%%%%%%%%%%%%%%%%%%%%%%%%%%%%%%%%%%%%%%%%%%%%%%%%%%%%%%%%%%%%%%%%%%%%%%%%%%%%%%%%%%%%%%%%%%%%%%%%%%%%%%%%%%%%%%%%%%%%%%%%%%%%%%%%%%%%%%%%%%%%%%%%%%%%%%===========%%%%%%%%%%%%%%%%%%%%%%%%%%%%%%%%%%%%%%%%%%%%%%%%%%%%ooooooooooooooooooo@@+@@@@@++@@@@o%%%%%%%%%%%%%%%%%%%%%%%%%%%%%%@@@@@@@@@@@@@@@@@@@@@@@@@@@@@@@@@@@@@@@@@@@@@@@@@@@@@@+@@@@@@@@@@@@@@@@@@@@@@@@@@@@@@@@@@@@@@@@@@@@@@@@@@@@@@@@@@@@@@@@@@@@@@@@@@%%%%%%%%%=====::::============%%%%%%%%%%%%%%%%%ooo",
"%%%%%%%%%%%%%%%%%%%%%%%%%%%%%%%%oooooooo%%%%%%%%%%%%%%%%%%%%%%%%==%%%%%%%%%%%%%%%%%%%%%%%%%%%%%%==%%%%%%%%%===%%%%%%===%====%%%%%%%%%%%%%%%%%%%%%%%%%%%%%%%%%%%%%%%%%%%%%%%%%%%%%%%%%%%%%%%%%%%%%%%%%%%%%%%%%%%%%%%%%%%%%%%%%%%%%%%%%%%%%%%%%%%%%%%%%%%%%%%%%%%%%%%%%%%%%%%%%%%%%%%%%%%%%%%%%%%%%%%%%%%%%%%%%%%%%%%%%%%%%%%%%%%%==========%%%%%%%%%%%%%%%%%%%%%%%%%%%%%%%%%%%%%%%%%%%%%%%%%%%%%ooooooooooooooooo@@@@@@@@@@+@@@@@o%%%%%%%%%%%%%%%%%%%%%%%%%%%%%%@@@@@@@@@@@@@@@@@@@@@@@@@@@@@@@@@@@@@++@@@@@@@@@@@@@@@@@@@@@@++@@@@@@@@@@@@@@@@@@@@@@@@@@@@@@@@&&@@@@@@@@@@@@@@@@@@@@@@@@@@@@@@@@%%%%%%%%%=============:::::===%%%%%%%%%%%%%%%%%ooo",
"%%%%%%%%%%%%%%%%%%%%%%%%%%%%%%%%%%%%%%%%%%%%%%%%%%%%%%%%%%%%%%%====%%%%%%%%%%%%%%%%%%%%%%%%%%%%%%%%%%%%%%%%%%%%%%%%%%%%%%%%%%%%%%%%%%%%%%%%%%%%%%%%%%%%%%%%%%%%%%%%%%%%%%%%%%%%%%%%%%%%%%%%%%%%%%%%%%%%%%%%%%%%%%%%%%%%%%%%%%%%%%%%%%%%%%%%%%%%%%%%%%%%%%%%%%%%%%%%%%%%%%%%%%%%%%%%%%%%%%%%%%%%%%%%%%%%%%%%%%%%%%%%%%%%%%%%%%%%%=======%=%%%%%%%%%%%%%%%%%%%%%%%%%%%%%%%%%%%%%%%%%%%%%%%%%%%%%%%%%%%%%%%%%%%%%%%oo@@@@@@@@@@@@@@%%%%%%%%%%%%%%%%%%%%%%%%%%%%%%%@@@@@@@@@@@@@@@@@@@@@@@@@@@@@@@@@@@@@+@@@@@@@@@@@@@@@@@@@+@@@@++@@@@@@@@@@@@@@@@@@@@@@@@@@@@@@@&&@@@@@@@@@@@@@@@@@@@@@@@@@@@@@@@@%%%%%%%%%=======%%%%%==:::::===%%%%%%%%%%%%%%%%ooo",
"%%%%%%%%%%%%%%%%%%%%%%%%%%%%%%%%%%%==%%%%%oooooooo%%%%%%%%%%%%=====%%%%%%%%%%%%%%%%%%%%%%%%%%%%%%%%%%%%%%%%%%%%%%%%%%%%%%%%%%%%%%%%%%%%%%%%%%%%%%%%%%%%%%%%%%%%%%%%%%%%%%%%%%%%%%%%%%%%%%%%%%%%%%%%%%%%%%%%%%%%%%%%%%%%%%%%%%%%%%%%%%%%%%%%%%%%%%%%%%%%%%%%%%%%%%%%%%%%%%%%%%%%%%%%%%%%%%%%%%%%%%%%%%%%%%%%%%%%%%%%%%%%%%%%%%%%%========%%%%%%%%%%%%%%%%%%%%%%%%%%%%%%%%%%%%%%%%%%%%%%%%%%%%%%%%%%%%%%%%%%%%%%%%%%%@@@@@@@@@@@@@%%%%%%%%%%%%%%%%%%%%%%%%%%%%%%%@@@@@@@@@@@@@@@@@@@@@@@@@@@@@@@@@+ooooooooooooooooooooooooooooooo@@@@@@@@@@@@@@@@@@@@&&&&&&&&&&&&===%%%%%@@%%%%%%%%%%%%%%%%%%%%%%%%%%%%%%%=====%%%%%%%===:::====%%%%%%%%%%%%%%%%ooo",
"%%%%%%%%%%%%%%%%%%%%%%%%%%%%%%%========%%%%%%%%%%%%%%%%%%%%%%%%%==%%%%%%%%%%%%%%%%%%%%%%%%%%%%%%%%%%%%%%%%%%%%%%%%%%%%%%%%%%%%%%%%%%%%%%%%%%%%%%%%%%%%%%%%%%%%%%%%%%%%%%%%%%%%%%%%%%%%%%%%%%%%%%%%%%%%%%%%%%%%%%%%%%%%%%%%%%%%%%%%%%%%%%%%%%%%%%%%%%%%%%%%%%%%%%====%%%%%%==%%%%%===%%%%====%%%%%%%%%%%%%%%%%%%%%%%%%%%%%%%%%%%%===%=%%%%%%%%%%%%%%%%%%%%%%%%%%%%%%%%%%%%%%%%%%%%%%%%%%%%%%%%%%%%%%%%%%%%%%%%%%%%%%%%%%@@@@@@@@@%%%%%%%%%%%%%%%%%%%%%%%%%%%%%%%@@@@@@@@@@@@@@@@@@@@@@@@@@@@@@@@@+oooooooooooooooooooooooooooooooo%%%%%%%%%%%%%%%%%%%=%=============%%%%%%%%%%%%%%%%%%%%%%%%%%%%%%%%%%%%=%==%%%%o%oo%%%==:::====%%%%%%%%%%%%%%%%ooo",
"%%%%%%%%%%%%%%%%%%%%%%%%%%%%%%%%%%%%%================%%%%%%%%%%%%%%%%%%%%%%%%%%%%%%%%%%%%%%%%%%%%%%%%%%%%%%%%%%%%%%%%%%%%%%%%%%%%%%%%%%%%%%%%%%%%%%%%%%%%%%%%%%%%%%%%%%%%%%%%%%%%%%%%%%%%%%%%%%%%%%%%%%%%%%%%%%%%%%%%%%%%%%%%%%%%%%%%%%%%%%%%%%%%%%%%%%%%%%%%%%%================================%%%%=====%==%%%%====%%%%====%%%%==%%%%%%%%%%%%%%%%%%%%%%%%%%%%%%%%%%%%%%%%%%%%%%%%%%%%%%%%%%%%%%%%%%%%%%oooo%%%%ooo%%%%%oooo%%%%%%%%%%%%%%%%%%%%%%%%%%%%%%%%%%%%@@@@@@@@@@@@@@@@@@@@@@@@@@@@@@@@oooooooooooooooooooooooooooooooo%%%%%%%%%%%%%%%%==%%%%%%%%%%%%%%==%%%%%%%%%%%%%%%%%%%%%%%%%%%%%%%%%%%%%%%%%%%%%oooo%%%===:====%%%%%%%%%%%%%%%%%ooo",
"%%%%%%%%%%%%%%%%%%%%%%%%%%%%%%%%%%%%%%%=%===========%%%%%%%%%%%%%%%%%%%%%%%%%%%%%%%%%%%%%%%%%%%%%%%%%%%%%%%%%%%%%%%%%%%%%%%%%%%%%%%%%%%%%%%%%%%%%%%%%%%%%%%%%%%%%%%%%%%%%%%%%%%%%%%%%%%%%%%%%%%%%%%%%%%%%%%%%%%%%%%%%%%%%%%%%%%%%%%%%%%%%%%%%%%%%%%%%%%%%%%%%%%%=================================================================%%%%%%%%%%%%%%%%%%%%%%%%%%%%%%%o%%%%%%%%%%%%%%%%%%%%%%%%%%%%%%oooooooooooooooooooooooooooooooooo%%%%%%%%%%%%%%%%%%%%%%%%%%%%%%%@@@@@@@@@@@@@@@@@@@@@@@@@@@@@@@@oooo%%%%%%%%%%%%%ooooooooooooooo%%%%%%%%%%%%%%%%%===%%%%%%%%%%%%=%%%%%%%%%%%%%%%%%%%%%%%%%%%%%%%%%%%====%%%%%%ooooo%%%%=======%%%%%%%%%%%%%%%%%ooo",
"%%%%%%%%%%%%%%%%%%%%%%%%%%%%%%%%%%o%o%%%%%%%%%%%%%%%%%%%%%%%%%%%%%%%%%%%%%%%%%%%%%%%%%%%%%%%%%%%%%%%%%%%%%%%%%%%%%%%%%%%%%%%%%%%%%%%%%%%%%%%%%%%%%%%%%%%%%%%%%%%%%%%%%%%%%%%%%%%%%%%%%%%%%%%%%%%%%%%%%%%%%%%%%%%%%%%%%%%%%%%%%%%%%%%%%%%%%%%%%%%%%%%%%%%%%%%%%%%================================================================%%%%%%%%%%%%%%%%%%%%%%%%%%%oooo%o%%%%%%%%%%%%%%%%%%%%%%%%%%%%%%oooooooooooooooooooooooooooooooooo%%%%%%%%%%%%%%%%%%%%%%%%%%%%%%%@@@@@@@@@@@@@@@@@@@@@@@@@@@@@@@@%%%%%%%%%%%%%%%%%oooooooooooooo%%%%%%%%%%%%%%%%%%%%%%%%%%%%%%%%%%%%%%%%%%%%%%%%%%%%%%%%%%%%%%%%%%%%%====%%oooooooooo%%%========%%%%%%%%%%%%%%%%ooo",
"%%%%%%%%%%%%%%%%%%%%%%%%%%%%%%%%%%%oo%%%%ooooooooooo%%%%%%%%%%%%%%%%%%%%%%%%%%%%%%%%%%%%%%%%%%%%%%%%%%%%%%%%%%%%%%%%%%%%%%%%%%%%@@@@@@@@@@@@@@@@@@@@@@@@@@@@@@@@%%%%%%%%%%%%%%%%%%%%%%%%%%%%%%%%%%%%%%%%%%%%%%%%%%%%%%%%%%%%%%%%%%%%%%%%%%%%%%%%%%%%%%%%%%%%%%%%=================================================================%%%%%%%%%%%%%%%%%%%%%%%%%ooooooo%%%%%%%%%%%%%%%%%%%%%%%%%%%%oooooooooooooooooooooooooooooooooooooo%%%%%%%%%%%%%%%%%%%%%%%%%%%%%@@@@@@@@@@@@@@@@@@@@@@@@@@@@@@@@%%%%%%%%%%%%%%%%%%%%%%%%%%%%o%%%%%%%%%%%%%%%%%%%%%%%%%%%%%%%%%%%%%%%%%%%%%%%%%%%%%%%%%%%%%%%%%%%%%%%====%%%oooooooo%%%%%%%%%====%%%%%%%%%%%%%%%ooo",
"%%%%%%%%%%%%%%%%%%%%%%%%%%%%%%%%==%%%%%%%ooooooo%%%%%%===========%%%%%%%%%%%%%%%%%%%%%%%%%%%%%%%%%%%%%%%%%%%%%%%%%%%%%%%%%%%%%%%@@@@@@@@@@@@@@@@@@@@@@@@@@@@@@@@%%%%%%%%%%%%%%%%%%%%%%%%%%%%%%%%%%%%%%%%%%%%%%%%%%%%%%%%%%%%%%%%%%%%%%%%%%%%%%%%%%%%%%%%%%%%%%%%=================================================================%%%%%%%%%%%%%%%%%%%%%%%%oooooooo%%%%%%%%%%%%%%%%%%%%%%%%%%%%oooooooooooooooooooooooooooooooooooooo%%%%%%%%%%%%%%%%%%%%%%%%%%%%%@@@@@@@@@@@@@@@@@@@@@@@@@@@@@@@@%%%%====%%%%%%%%%%%%%%%%%%%%%%%%%%%==%%%%%%%%%%%%%%%%%%%o%%%oo%%%%%%%%%%%%%%%%%%%%%%%%%%%%%%%%%%%%%%====%%oooooooo%%%%%%%%%%===%%%%%%%%%%%%%%%oooo",
"%%%%%%%%%%%%%%%%%%%%%%%%%%%%%%%%==%%%%%%%%%%%%%%%%%%%==========%%%%%%%%%%%%%%%%%%%%%%%%%%%%%%%%%oooooooooooooooooooooooooooooooo@@@@@@@@@@@@@@@@@@@@@@@@@@@@@@@@%%%%%%%%%%%%%%%%%%%%%%%%%%%%%%%%%%%%%%%%%%%%%%%%%%%%%%%%%%%%%%%%%%%%%%%%%%%%%%%%%%%%%%%%%%%%%%%%=================================================================%%%%%%%%%%%%%%%%%%%%%%%ooooooooo%%%%%%%%%%%%%%%%%%%%%%%%%%%%oooooooooooooooooooooooooooooooooooooo%%%%%%%%%%%%%%%%%%%%%%%%%%%%%@@@@@@@@@@@@@@@@@@@@@@@@@@@@@%%%%%========%%%==%%%%%%%%%%%%%%%%%%%%==%%%%%%%%%%%%%oooooooooooooo%%%%%%%%%%%%%%%%%%%%%%%%%%%%%%%%%%%%===%%%ooooooo%%%%%%%%%%%%===%%%%%%%%%%%%%%oooo",
"%%%%%%%%%%%%%%%%%%%%%%%%%%%%%%%%%%%%%%%%===========%%%%%%%%%%%%o%%%%%%%%%%%%%%%%%%%%%%%%%%%%%%%%oooooooooooooooooooooooooooooooo@@@@@@@@@@@@@@@@@@@@@@@@@@@@@@@@%%%%%%%%%%%%%%%%%%%%%%%%%%%%%%%%%%%%%%%%%%%%%%%%%%%%%%%%%%%%%%%%%%%%%%%%%%%%%%%%%%%%%%%%%%%%%%%%=================================================================%%%%%%%%%%%%%%%%%%%%oooooooooooo%%%%%%%%%%%%%%%%%%%%%%%%%%%%oooooooooooooooooooooooooooooooooooooo%%%%%%%%%%%%%%%%%%%%%%%%%%%%%@@@@@@@@@@@@@@@@@@@@@@@@@@@@@%%%%%=================%=%%%%%%%%%%%%%%%%%%%%%%%ooo%%ooooooooooooooo%%%%%%%%%%%%%%%%%%%%%%%%%%%%%%%%%%%===%%%%oooooo%%%%%%%oooo%%%%=%%%%%%%%%%%%%%%ooo",
"%%%%%%%%%%%%%%%%%%%%%%%%%%%%%%%%%%%%%%%====::=======%%%%%%%%%%%%%%%%%%%%%%%%%%%%%%%%%%%%%%%%%%%ooooooooooooooooooooooooooooooooo@@@@@@@@@@@@@@@@@@@@@@@@@@@@@@@@%%%%%%%%%%%%%%%%%%%%%%%%%%%%%%%%%%%%%%%%%%%%%%%%%%%%%%%%%%%%%%%%%%%%%%%%%%%%%%%%%%%%%%%%%%%%%%%%=================================================================%%%%%%%%%%%%%%%%%%%ooooooooooooo%%%%%%%%%%%%%%%%%%%%%%%%%%%%oooooooooooooooooooooooooooooooooooooo%%%%%%%%%%%%%%%%%%%%%%%%%%%%%%%%%%%%%%%%%%%%%%%%%%%%%==%%==:=======================%%%%%%%%%%%%%%%%%%oooooooooooooooooooooooo%%%%%%%%%%%%%%%%%%%%%%%%%%%%%%%%%%%=%%%%%%ooooo%%%%%%%ooooo%%%%%%%%%%%%%%%%%%%%ooo",
"%%%%%%%%%%%%%%%%%%%%%%%%%%%%%%%===============%%=%==%=%%%%====%%%%%%%%%%%%%%%%%%%%%%%%%%%%%%%%%ooooooooooooooooooooooooooooooooo@@@@@@@@@@@@@@@@@@@@@@@@@@@@@@@@%%%%%%%%%%%%%%%%%%%%%%%%%%%%%%%%%%%%%%%%%%%%%%%%%%%%%%%%%%%%%%%%%%%%%%%%%%%%%%%%%%%%%%%%%%%%%%%%=================================================================%%%%%%%%%%%%%%%%%%%ooooooooooooo%%%%%%%%%%%%%%o%%%%%%%%%%%%%o@oooooooooooooooooooooooooooooooooooo%%%%%%%%%%%%%%%%%%%%%%%%%%%%%%%%%%%%%%%%%%%%%%%%%%%%=<<==<22<:=::::=================%%%%%%%%%oooo%%%%oooooooooooooooooooooooo%%%%%%%%%%%%%%%%%%%%%%%%%%%%%%%%%%%%%%%%%%%oo%%%%%%%%ooooooo%%%%%%%%%%%%%%%%%%%ooo",
"%%%%%%%%%%%%%%%%%%%%%%%%%%%%%%%=========%%%%%%%%%%%%%%===========%%%%%%%%%%%%%%%%%%%%%%%%%%%%%%oooooooooooooooooooooooooooooooooo%%%%o%%%%%%%%%%%%%%%%%%%%%%%%%%%%%%%%%%%%%%%%%%%%%%%%%%%%%%%%%%%%%%%%%%%%%%%%%%%%%%%%%%%%%%%%%%%%%%%%%%%%%%%%%%%%%%%%%%%%%%%%%%=================================================================%%%%%%%%%%%%%%%%%%%ooooooooooooo%@@@@@@@@@@@@@@@@@@@@@@@@@@@@@@@@@@@@@@@@@@@@@ooooooooooooooooo%%%%%%%%%%%%%%%%%%%%%%%%%%%%%%%%%%%%%%%%%%%===%%%%%%%%%=24<:<22<::::::=================%%%%%%%%%oooo%%%ooooooooooooooooooooooo%%%%%%%%%%%%%%%%%%%%%%%%%%%%%%%%%%==%%%%%%%%o%%%%%%%%%%ooooooo%%%%%%%%%%%%%%%%%%%ooo",
"%%%%%%%%%%%%%%%%%%%%%%%%%%%%%%%%%%%%%%%%%%%%%%%%%%%%%%%%%%%%%%%%%%%%%%%%%%%%%%%%%%%%%%%%%%%%%%%oooooooooooooooooooooooooooooooooo%%%%%%%%%%%%%%%%%%%%%%%%%%%%%%%%%%%%%%%%%%%%%%%%%%%%%%%%%%%%%%%%%%%%%%%%%%%%%%%%%%%%%%%%%%%%%%%%%%%%%%%%%%%%%%%%%%%%%%%%%%%%%%%================================================================%%%%%%%%%%%%%%%oooooooooooooooooo@@@@@@@@@@@@@@@@@@@@@@@@@@@@@@@@@@@@@@@@@@@@@@@@@@@@@@@@@@@@@oo%%%%%%%%%%%%%%%%%%%%%%%%%%%%%%%%%%%%%%%%%%%=<<=%%%%%%%%:3453:::::::::::===============%%%%%%%%%%ooooooooooooooooooooooooooooooo%%%%%%%%%%%%%%%%%%%%%%%%%%%%%%%%===%%%%%ooo%%%%%%%%%%oooooooo%%%%%%%%%%%%%%%%%%%ooo",
"%%%%%%%%%%%%%%%%%%%%%%%%%%%%%%%%oooooooo%%%%%%%%%%%%%%%%%%%%%%%%%%%%%%%%%%%%%%%%%%%%%%%%%%%%%%%oooooooooooooooooooooooooooooooooo%%%%%%%%%%%%%%%%%%%%%%%%%%%%%%%%%%%%%%%%%%%%%%%%%%%%%%%%%%%%%%%%%%%%%%%%%%%%%%%%%%%%%%%%%%%%%%%%%%%%%%%%%%%%%%%%%%%%%%%%%%%%%%%%===============================================================%%%%%%%%%%%%%oooooooooooooooooooo@@@@@@@@@@@@@@@@@@@@@@@@@@@@@@@@@@@@@@@@@@@@@@@@@++@@@@@@@@@@@@%%%%%%%%%%%%%%%%%%%%%%%%%%%%%%%%%%%%%%%%%%%=<<=====%%%%:3453:====::::::==============%%%%%%%%%%%ooooooooooooooooooooooooooooo%%%%%%%%%%%%%%%%%%%%%%%%%%%%%%%%%%%==%%%%%%oo%%%%==%%%%ooooooo%%%%%%%%%%%%%%%%%%%%ooo",
"%%%%%%%%%%%%%%%%%%%%%%%%%%%%%%%%oooooooo%%%%%%%%%%%%%%%%%%%%%%%%%%%%%%%%%%%%%%%%%%%%%%%%%%%%%%%oooooooooooooooooooooooooooooooooo%%%%%%%%%%%%%%%%%%%%%%%%%%%%%%%%%%%%%%%%%%%%%%%%%%%%%%%%%%%%%%%%%%%%%%%%%%%%%%%%%%%%%%%%%%%%%%%%%%%%%%%%%%%%%%%%%%%%%%%%%%%%%%%%%%%==%%%%%%====%%%%===%==%%%%%%%%%%====%%%%===%%%%%==%%%%%%===%%%%%%%%%%%%%%oooooooooooooooooooo@@@@@@@@@@@@@@@@@@@@@@@@@@@@@@@@@@@@@@@@@@@@@@@@@@@@@@@@@@@@@@@%%%%%%%%%%%%%%%%%%%%%%%%%%%%%%%%%%%%%%%%%%%=====<<=%%%%:24<:3<===:::::::============%%%%%%%%%%%%oooooooooooooooooooooooo%%%%%%%%%%%%%%%%%%%%%%%%%%%%%%%%%%%%%%%====%%%%%o%%%%===%%%ooooo%%%%%%%%%%%%%%%%%%%%%%%ooo",
"%%%%%%%%%%%%%%%%%%%%%%%%%%%%=%%%%%%%%%%%%%%%%%%%%%%%%%ooo%%%%%%%%%%%%%%%%%%%%%%%%%%%%%%%%%%%%%%%%%%%%%%%%%%o%%%%%%%%%%%%%%%%%%%%%%%%%%%%%%%%%%%%%%%%%%%%%%%%%%%%%%%%%%%%%%%%%%%%%%%%%%%%%%%%%%%%%%%%%%%%%%%%%%%%%%%%%%%%%%%%%%%%%%%%%%%%%%%%%%%%%%%%%%%%%%%%%%%%%%%%%%%%%%%%%%%%%%%%%%%%%%%%%%%%%%%%%%%%%%%%%%%%%%%%%%%%%%%%%%%%%%%%%%%%%%%%ooooooooooooooooooooo@@@@@@@@@@@@@@@@@@@@@@@@@@@@@@@@@@@@@@@@@@@@@@@@@@@@@@@@@@@@@@@o%%%%%%%%%%%%%%%%%%%%%%%%%%%%%%%%%%%%%%%%%%%%%%=<<=%%%%=<<==<<===:::::::===========%%%%%%%%%%%%oooooooooooooooooooooooo%%%%%%%%%%%%%%%%%%%%%%%%%%%%%%%%%%%%%%%=====%%o%%o%%====%%%%oooo%%%%%%%%%%%%%%%%%%%%%%%%ooo",
"%%%%%%%%%%%%%%%%%%%%%%%%%%%%%===%%%%%%%%ooooooooooooooooo%%%%%%%%%%%%%%%%%%%%%%%%%%%%%%%%%%%%%%%%%%%%%%%%%%%%%%%%%%%%%%%%%%%%%%%%%%%%%%%%%%%%%%%%%%%%%%%%%%%%%%%%%%%%%%%%%%%%%%%%%%%%%%%%%%%%%%%%%%%%%%%%%%%%%%%%%%%%%%%%%%%%%%%%%%%%%%%%%%%%%%%%%%%%%%%%%%%%%%%%%%%%%%%%%%%%%%%%%%%%%%%%%%%%%%%%%%%%%%%%%%%%%%%%%%%%%%%%%%%%%%%%%%%%%%%%%%oooooooooooooooooooooo@@@@@@@@@@@@@@@@@@@@@@@@@@@@@@@@@@@@@@@@+@@@@@@@@@@@@@@@@@@@@ooo%%%%%%%%%%%%%%%%%%@@%%%%%%%%%%%%%%%%%%%%%%%%%%====%%%%=========================%=%%%%%%%%%%%ooooooooooooooooooooooooo%%%%%%%%%%%%%%%%%%%%%%%%%%%%%%%%%%%%%%%%=====%%%%%%%%=====%%oooo%%%%%%%%%%%%%%%%%%%%%%%%%ooo",
"%%%%%%%%%%%%%%%%%%%%%%%%%%%%%===%=%%%%%%%ooooooooooooooo%%%%%%%%%%%%%%%%%%%%%%%%%%%%%%%%%%%%%%%%%%%%%%%%%%%%%%%%%%%%%%%%%%%%%%%%%%%%%%%%%%%%%%%%%%%%%%%%%%%%%%%%%%%%%%%%%%%%%%%%%%%%%%%%%%%%%%%%%%%%%%%%%%%%%%%%%%%%%%%%%%%%%%%%%%%%%%%%%%%%%%%%%%%%%%%%%%%%%%%%%%%%%%%%%%%%%%%%%%%%%%%%%%%%%%%%%%%%%%%%%%%%%%%%%%%%%%%%%%%%%%%%%%%%%%%%%%%oooooooooooooooooooooo@@@@@@@@@@@@@@@@@@@@@@@@@@@@@@@@@@@@@@@@+@@@@@@@@@@@@ooooooooo%%%%%%%==%%%%%%%%%%%==%%%%%%%%%%%%%%%%%%%%%%%%%%%%%%%%%%%%%%%%%==================%%%%%%%%%%%%oooooooooooooooooooooooooo%%%%%%%%%%%%%%%%%%%%%%%%%%%%%%%%%%%%%%%======%%%%%%%%%===%%%ooo%%%%%%%%%%%%%%%%%%%%%%%%%%ooo",
"%%%%%%%%%%%%%%%%%%%%%%%%%%%%%%%%%%%%%%%%%%===%%%%%%%%%%%%%%%%%%%%%%%%%%%%%%%%%%%%%%%%%%%%%%%%%%%%%%%%%%%%%%%%%%%%%%%%%%%%%%%%%%%%%%%%%%%%%%%%%%%%%%%%%%%%%%%%%%%%%%%%%%%%%%%%%%%%%%%%%%%%%%%%%%%%%%%%%%%%%%%%%%%%%%%%%%%%%%%%%%%%%%%%%%%%%%%%%%%%%%%%%%%%%%%%%%%%%%%%%%%%%%%%%%%%%%%%%%%%%%%%%%%%%%%%%%%%%%%%%%%%%%%%%%%%%%%%%%%%%%%%%%%%%%oooooooooooooooooooooo@@@@@@@@@@@@@@@@@@@@@@@@@@@@@@@@@@@@@@@@@@@@@@@@o%%oooooooooo%=::=%%=::%%%%::%%%=<<<:%%%=::=%%%%%%%%%%%%%%%%%%%%%%%%%%%%%%%%===============%%=%%%%%%%%o%%%%oooooooooooooooooooooooooo%%%%%%%%%%%%%%%%%%%%%%%%%%%%%%%%%%%%%%%=========%%%%%%%%%%%%oo%%%%%%%%%%%%%%%%%%%%%%%%%%%ooo",
"%%%%%%%%%%%%%%%%%%%%%%%%%%%%%%%%ooooo%%%%%====%%%%%%%%%%%%%%%%%%%%%%%%%%%%%%%%%%%%%%%%%%%%%%%%%%%%%%%%%%%%%%%%%%%%%%%%%%%%%%%%%%%%%%%%%%%%%%%%%%%%%%%%%%%%%%%%%%%%%%%%%%%%%%%%%%%%%%%%%%%%%%%%%%%%%%%%%%%%%%%%%%%%%%%%%%%%%%%%%%%%%%%%%%%%%%%%%%%%%%%%%%%%%%%%%%%%%%%%%%%%%%%%%%%%%%%%%%%%%%%%%%%%%%%%%%%%%%%%%%%%%%%%%%%%%%%%%%%%%%%%%%%%%oooooooooooooooooooooo@@@@@@@@@@@@@@@@@@@@@@@@@@@@@@@@oo%%%%%oooooooo%%%%oooo%%%%%%%=<:%%=:<<====<:%%=:<<<:%%%=:<=%%%%%%%%%%%%%%%%%%%%%%%%%%%%%%%%===============%%%%%%%%%%oo%%ooooooooo%oooooooooooooooooo%%%%%%%%%%%%%%%%%%%%%%%%%%%%%%%%%%%%%%%===========%%%%%%%%%%%%%%%%%%%%%%%%%%%%%%%%%%%%%%%ooo",
"%%%%%%%%%%%%%%%%%%%%%%%%%%%%%%%%o%%%o%%%ooooooo%%%%%%%%%%%%%%%%%%%%%%%%%%%%%%%%%%%%%%%%%%%%%%%%%%%%%%%%%%%%%%%%%%%%%%%%%%%%%%%%%%%%%%%%%%%%%%%%%%%%%%%%%%%%%%%%%%%%%%%%%%%%%%%%%%%%%%%%%%%%%%%%%%%%%%%%%%%%%%%%%%%%%%%%%%%%%%%%%%%%%%%%%%%%%%%%%%%%%%%%%%%%%%%%%%%%%%%%%%%%%%%%%%%%%%%%%%%%%%%%%%%%%%%%%%%%%%%%%%%%%%%%%%%%%%%%%%%%%%%%%%%%oooooooooooooooooooooo@@@@@@@@@@@@@@@@@@@@@@@@@@@@@@@@%%%%%%%%%%%%%%%%%%%%%==%%%%=====%%%:<==,<<<:%%=:<===%%%%%%=<:%%%%%%%%%%%%%%%%%%%%%%%%%%%%%%%%==============%%%%%%%%%ooooooooooo%%%%%%%%%ooo%%%%%%oooo%%%%%%%%%%%%%%%%%%%%%%%%%%%%%%%%%%%%%%%%===========%%%%%%%%%%%%%%%%%%%%%%%%%%%%%%%%%%%%%%ooo",
"%%%%%%%%%%%%%%%%%%%%%%%%%%%%%%%%%%%%%%%ooooooooooooo%%%%%%%%%%%%%%%%%%%%%%%%%%%%%%%%%%%%%%%%%%%%%%%%%%%%%%%%%%%%%%%%%%%%%%%%%%%%%%%%%%%%%%%%%%%%%%%%%%%%%%%%%%%%%%%%%%%%%%%%%%%%%%%%%%%%%%%%%%%%%%%%%%%%%%%%%%%%%%%%%%%%%%%%%%%%%%%%%%%%%%%%%%%%%%%%%%%%%%%%%%%%%%%%%%%%%%%%%%%%%%%%%%%%%%%%%%%%%%%%%%%%%%%%%%%%%%%%%%%%%%%%%%%%%%%%%%%%%%%oooooooooooooooooooooo@@@@@@@@@@@@@@@@@@@@@@@@@@@@@@@@%%%==%%%%%%%%%%===========%====%%%=<:%%&<<<:=%=::%%%%%%%%%%::%%%%%%%%%%%%%%%%%%%%%%%%%%%%%%%%%========%=%%%%%%%%%%%oooooooooooo%%%%%%%%%%%%%%%%%%%ooo%%%%%%%%%%%%%%%%%%%%%%%%%%%%%%%%%%%%%%%%%=%=========%%%%o%%%%%%%%%%%%%%%%%%%%%%%%%%%%%%%%ooo",
"%%%%%%%%%%%%%%%%%%%%%%%%%%%%%%%%%%%%%%%ooooooooooooooooo%%ooooooo%%%%%%%%%%%%%%%%%%%%%%%%%%%%%%%%%%%%%%%%%%%%%%%%%%%%%%%%%%%%%%%%%%%%%%%%%%%%%%%%%%%%%%%%%%%%%%%%==%%%%====%%%%%%%%%%%%%%%%%%%%%%%%%%%%%%%%%%%%%%%%%%%%%%%%%%%%%%%%%%%%%%%%%%%%%%%%%%%%%%%%%%%%%%%%%%%%%%%%%%%%%%%%%%%%%%%%%%%%%%%%%%%%%%%%%%%%%%%%%%%%%%%%%%%%%%%%%%%%%%%oooooooooooooooooooooooo@@@@@@@@@@@@@@@@@@@@@@@@@@@@@&%%%%=============================%%%=%@%@&==<<=%%%%%%%%%%%%%=%%%%%%%%%%%%%%%%%%%%%%%%%%%%%%%%%%%%%%===%%%%%%%%%%%%%%oooooooooooo%%%%%%%%%%%%%%%%%%%%ooooooooo%%%%%%%%%%%%%%%%%%%%%%%%%%%%%%%%%%%%%====:===%%%%%o%%%%%%%%%%%%%%%%%%%%%%%%%%%%%%%ooo",
"%%%%%%%%%%%%%%%%%%%%%%%%%%%%%%%%%%%%%%%%%%%%%oooooooooooooooooooo%%%%%%%%%%%%%%%%%%%%oooooooooooo%%%%%%%%%%%%%%%%%%%%%%%%%%%%%%%%%%%%%%%%%%%%%%%%%%%%%%%%%%%%%%%====%%=====%%%%%%%%%%%%%%%%%%%%%%%%%%%%%%%%%%%%%%%%%%%%%%%%%%%%%%%%%%%%%%%%%%%%%%%%%%%%%%%%%%%%%%%%%%%%%%%%%%%%%%%%%%%%%%%%%%%%%%%%%%%%%%%%%%%%%%%%%%%%%%%%%%%%%%%%%%%%%%%oooooooooooooooooooooooo%%%%%%%%%%%%%%%%%%%%%%%%%%%%==%%==============================%%%%%@@%@@%=<<=%%%%%%%%%%%%%%%%%%%%%%%%%%%%%%%%%%%%%%%%%%%%%%%%%%%%%%%%%%%%%%%%%%%%%ooooooooooo%%%%%%%%%%%%%%%%%%%%%oooooooooo%%%%%%%%%%%%%%%%%%%%%%%%%%%%%%%%%%%%========%%%%oo%%%%%%%%%%%%%%%%oooooooooooooooooo",
"%%%%%%%%%%%%%%%%%%%%%%%%%%%%%%%%%%%%%%%%%%%%%oooooooooooooooooooo%%%%%%%%%%%%%%%%%%%%oooooooooooo%%%%%%%%%%%%%%%%%%%%%%%%%%%%%%%%%%%%%%%%%%%%%%%%%%%%%%%%%%%%===%%%===%%%%==%%%%%%%%%%%%%%%%%%%%%%%%%%%%%%%%%%%%%%%%%%%%%%%%%%%%%%%%%%%%%%%%%%%%%%%%%%%%%%%%%%%%%%%%%%%%%%%%%%%%%%%%%%%%%%%%%%%%%%%%%%%%%%%%%%%%%%%%%%%%%%%%%%%%%%%%%%%%%%%ooooooooooooooooooo%%%%%%%%%%%%%%%%%%%%%%%%%%%%%%%===%%==============================%%%%%%%%%%%%==%%%%%%%%%%%%%%%%%%%%%%%%%%%%%%%%%%%%%%%%%%%%%%%%%%%%%%%%%%%%%%%%%%%%%%oooooooooo%%%%%%%%%%%%%%%%%%%%%%oooooooooo%%%%%%%%%%%%%%%%%%%%%%%%%%%%%%%%%%%%========%%%%oo%%%%%%%%%ooooooooooooooooooooooooo",
"%%%%%%%%%%%%%%%%%%%%%%%%%%%%%%%%%%%%%%%%%%%%%%%%%%%oooooooooooooo%%%%%%%%%%%%%%%%%%%%oooooooooooo@@@@@@%%%%%%%%%%%%%%%%%%%%%%%%%%%%%%%%%%%%%%%%%%%%%%%%%%%%%%===%@%===%%%%===%%%%%%%%%%%%oooooo%%%%%%%%%%%%%%%%%%%%%%%%%%%%%%%%%%%%%%%%%%%%%%%%%%%%%%%%%%%%%%%%%%%%%%%%%%%%%%%%%%%%%%%%%%%%%%%%%%%%%%%%%%%%%%%%%%%%%%oooooooooooo%%%%%%%%%%%%%%%%%%%%ooooooooo%%%%==============================================================%%%%%%%%%%%%%%%%%%%%%%%%%%%%%%%%%%%%%%%%%%%%%%%%%%%%%%%%%%%%%%%%%%%%%%%%%%%%%%%%%%%%%ooooooooo%%%%%%%%%%%%%%%%%%%%%%oooooooooo%%%%%%%%%%%%%%%%%%%%%%%%%%%%%%%%%%%%========%%%%%%%%%%%%%%oooooooooooooooooooooooooo",
"%%%%%%%%%%%%%%%%%%%%%%%%%%%%%%%%%%%%%%%%%%%%%%%%%%%oooooooooooooo%%%%%%%%%%%%%%%%%%%%oooooooooooo@@.@@@%%%%%%%%%%%%%%%%%%%%%%%%%%%%%%%%%%%%%%%%%%%%%%%%%%%%%%===%%============%%%%%%%%%%%oooooo%%%%%%%%%%%%%%%%%%%%%%%%%%%%%%%%%%%%%%%%%%%%%%%%%%%%%%%%%%%%%%%%%%%%%%%%%%%%%%%%%%%%%%%%%%%%%%%%%%%%%%%%%%%%%%%%%%%%%%oooooooooooo%%%%%%%%%%%%%%%%%%%%ooooooooo%%%===============================================================%%%%%%%%%%%%%%%%%%%%%%%%%%%%%%%%%%%%%%%%%%%%%%%%%%%%%%%%%%%%%%%%%%%%%%%%%%%%%%%%%%%%%%oooo%%oo%%%ooooooooooooooooooooooooooooo%%%%%%%%%%%%%%%%%%%%%%%%%%%%%%%%%%%%==%%%%=%%%%%%%%%%%%ooooooooooooooooooooooooooooo",
"%%%%%%%%%%%%%%%%%%%%%%%%%%%%%%%%%%%%%%%%%%%%%%%%%%%%%%%%%%%%%%%%%%%%%%%%%%%%%%%%%%%%%oooooooooooo@@..@@@@%%%%%%%%%%%%%%%%%%%%%%%%%%%%%%%%%%%%%%%%%%%%%%%%%%%%===%%============%%%%%%%%%%%ooooooo%%%%%%%%%%%%%%%%%%%%%%%%%%%%%%%%%%%%%%%%%%%%%%%%%%%%%%%%%%%%%%%%%%%%%%%%%%%%%%%%%%%%%%%%%%%%%%%%%%%%%%%%%%%%%%%%%%%oooooooooooooo%%%%%%%%%%%%%%%%%%%%%%%%%%%%%%%================================================================%%%%%%%%%%%%%%%%%%%%%%%%%%%%%%%%%%%%%%%%%%%%%%%%%%%%%%%%%%%%%%%%%%%%%%%%%%%%%%%%%%%%%%oooo%%oo%%oooooooooooooooooooooooooooooo%%%%%%%%%%%%%%%%%%%%====%%%%====%%%%%%%%%%%%%%%%%%%%%%oooooooooooooooooooooooooooooo",
"%%%%%%%%%%%%%%%%%%%%%%%%%%%%%%%%%%%%%%%%%%%%%%%%%%%%%%%%%%%%%%%%%%%%%%%%%%%%%%%%%%%%%oooooooooooo@@. .@@@%%%%%%%%%%%%%%%%%%%%%=%=%%%%%%%%%%%%%%%%%%%%%%%%%%%%===%=========%%===%%%%%%%%%%oooooooo%%%%%%%%%%%%%%%%%%%%%%%%%%%%%%%%%%%%%%%%%%%%%%%%%%%%%%%%%%%%%%%%%%%%%%%%%%%%%%%%%%%%%%%%%%%%%%%%%%%%%%%%%%%%%%%%%%oooooooooooooo%%%%%%%%%%%%%%%%%%%%%%%%%%%%%%%==:=:==:====:::::=======::======================================%%%%%%%%%%%%%%%%%%%%%%%%%%%%%%%%%%%%%%%%%%%%%%%%%%%%%%%%%%%%%%%%%%%o%%ooooooooooooooooooooooooooooooooooooooooooooooooooooooooo%%%%%%%%%%%%%%%%%%==============%=%%%%%%%%%%%%%%%%%%%oooooooooooooooooooooooooooooo",
"%%%%%%%%%%%%%%%%%%%%%%%%%%%%%%%%%%%%%%%%%%%%%%%%%%%%%%%%%%%%%%%oooooooooooooooooooo%%oooooooooooo@@@  .@@%%%%%%%%%%%%%==%%%%%%====%%%%%%%%%%%%%%%%%%%%%%%%%%%%==%==========%===%%%%%%%%%%oooooooo%%%%%%%%%%%%%%%%%%%%%%%%%%%%%%%%%%%%%%%%%%%%%%%%%%%%%%%%%%%%%%%%%%%%%%%%%%%%%%%%%%%%%%%%%%%%%%%%%%%ooooooooooooo%%o%oooooooooooo%%%%%%%%%%%%%%%%%%%%%%%%%%%==%%=::::::::::::::::::::::::::::==================================%%%%%%%%%%%%%%%%%%%%%%%%%%%%%%%%%%%%%%%%%%%%%%%%%%%%%%%%%%%%%%%%%%%oo%%ooooooooooooooooooooooooooooooooooooooooooooooooooooooooo%%%%%%%%%%%%%%=%%==================%%%%%%%%%%%%%%%%%%oooooooooooooooooooooooooooooo",
"%%%%%%%%%%%%%%%%%%%%%%%%%%%%%%%%%%%%%%%%%%%%%%%%%%%%%%%%%%%%%%%oooooooooooooooooooo%%oooooooooooo@@@   .@%%%%%%%%%%%===============%%%%%%%%%%%%%%%%%%%%%%%%%%%================%%%%%%%%%%%oooooooo%%%%%%%%%%%%%%%%%%%%%%%%%%%%%%%%%%%%%%%%%%%%%%%%%%%%%%%%%%%%%%%%%%%%%%%%%%%%%%%%%%%%%%%%%%%%%%oooooooooooooooooo%%ooo%%ooooooooo%%%%%%%%%%%%%%%;;%%%%%%%%%=<<=%==:::::::::::::::::::::::::::=====%%%%%%%%====%%%%%%===%==%=%%%%%%%%%%%%%%%%%%%%%%%%%%%%%%%%%%%%%%%%%%%%%%%%%%%%%%%%%%%%%%%%%%%%%%oooooooooooooooooooooooooooooo%%%%%%%%%%%%%%%%%%%%%%%%%%%%%%%%%%%%%%%%%%%========================%%%%%%%%%%%%%%%%%oooooooooooooooooooooooooooooo",
"==============%%%%%%%%%%%%%%%%%%%%%%%%%%%%%%%%%%%%%%%%%%%%%%%oooooooooooooooooooooo%%%%%%%%%%%%%%%%@.. .@%%%%%%%%%=================%%%%%%%%%%%%%%%%%%%%%%%%%%%============%===%%%%%%%%%%%oooooooo%%%%%%%%%%%%%%%%%%%%%%%%%%%%%%%%%%%%%%%%%%%%%%%%%%%%%%%%%%%%%%%%%%%%%%%%%%%%%%%%%%%%%%%%%%%%oooooooooooooooooooo%%%%%%%%%%%%%%%%%%%%%%%%%%%%%%%;;%%%%%%%%%%;<=%==::====::====:::::===:::=::======%%%%%%%%%%%%%%%%%%%%%%%%%%%%%%%%%%%%%%%%%%%%%%%%%%%%%%%%%%%%%%%%%%%%%%%%%%%%%%%%%%%%%%%%%%%%%%%%oooooooooooooooooooooooooooooo%%%%%%%%%%%%%%%%%%%%%%%%%%%%%%%%%%=================================%%%%%%%%%%%%%%%%%oooooooooooooooooooooooooooooo",
"===============%==%%%%====%%%%%%%%%%%%%%%%%%%%%%%%%%o%%%%%%%%oooooooooooooooooooooo%%%%%%%%%%%%%%%%%%@@%%%%%%%%===================%%%%%%%%%%%%%%%%%%%%%%%%%%%%===%========%%%%%%%%%%%%%%%oooooooo%%%%%%%%%%%%%%%%%%%%%%%%%%%%%%%%%%%%%%%%%%%%%%%%%%%%%%%%%%%%%%%%%%%%%%%%%%%%%%%%%%%%%%%%%%%%o%ooooooooooooooooo%%%%%%%%%%%%%%%%%%%%<;%%%%%%%%%%==%%%%%%%%%%%=%%===============================%==%%%%%%%%%%%%%%%%%%%%%%%%%%%%%%%%%%%%%%%%%%%%%%%%%%%%%%%%%%%%%%%%%%%%%%%%%%%%%%%%%%%%%%%%%%%%%%%%ooooooooooooooooooooooooooooooo%%%%%%%%%%%%%%%%%%%%%%%%%%%%%%%%=%===============================%%%%%%%%%%%%%%%%%%oooooooooooooooooooooooooooooo",
"===================%%=====%%%%%%%%ooooooooooooooooooooooooooooooooooooooooooooooo%%%%%%%%%%%%%%%%%%%%%%%%%====%================%=%%%%%%%%%%%%%%%%%%%%%%%%%%%%===%%========%%%%%%%%%%%%%%%oooooooo%%%%%%%%%%%%%%%%%%%%%%%%%%%%%%%%%%%%%%%%%%%%%%%%%%%%%%%%%%%%%%%%%%%%%%%%%%%%%%%%%%%%%%%%%%%%%%ooooooooooooooo%%%%%%%%%%%%%%===%%%%=<<=%%%%%%%%%%%%%%%%%%%%%%%%%===============================%==%%%%%%%%%%%%%%%%%%%%%%%%%%%%%%%%%%%%%%%%%%%%%%%%%%%%%%%%%%%%%%%%%%%%%%%%%%%%%%%%%%%%%%%%%%%%%%%%%oooooooooooooooooooooooooooooooo%%%%%%%%%ooo%%%%%%%oo%%%%%%%%%==============================%%%%%%%%%%%%%%%%%%%%ooooooooooooooooooooooooooooooo",
"==================%%%=====%%==%%%%ooooooooooooooooooooooooooooooooooooooooooooooo%%%%%%%%%%%%%%%===============%==%%%%%%===%%%%=%%%%%%%%%%%%%%%%%%%%%%%%%%%%%===%%%%%%======%%%%%%%%%%%%%oooooooo%%%%%%%%%%%%%%%%%%%%%%%%%%%%%%%%%%%%%%%%%%%%%%%%%%%%%%%%%%%%%%%%%%%%%%%%%%%%%%%%%%%%%%%%%%%%%%%oooooo%%oooo%%%%%%%%%%%%=======%%=<<::<<=%%%%%%%%%%%%%%%%%%%%%%%%==%%%%%=%%%====%%%%%=======%%%%%%%%%%%%%%%%%%%%%%%%%%%%%%%%%%%%%%%%%%%%%%%%%%%%%%%%%%%%%%%%%%%%%%%%%%%%%%%%%%%%%%%%%%%%%%%%%%%%%oooooooooooooooooooooooooooooooooooooooooooooooooooooooooooo%%%%=============%%%%%%%%=%%%%%=%%%%%%%%%%%%%%%%%%%%%%%oooooooooooooooooooooooooooooo",
"===================%%%====%%=%%%%oooooooooooooooooooooooooooooooooooooooooooooooo%%%%%%%%%%%%%%%===============%%%%%%%%%%%%%%%%%%%%%%%%%%%%%%%%%%%%%%%%%%%%%%===%%%%=%%====%%%%%%%%%%%%%%oooooooooooooooooooooooooooooooooooooooo%%%%%%%%%%%%%%%%%%%%%%%%%%%%%%%%%%%%%%%%%%%%%%%%%%%%%%%%%%%%%%%%%%%%%%%%%%%%%%%%%===%%==========:<<==33=%%%%%%%%%%%%%%%%%%%%%%%%%%%%%%%%%%%%%%%%%%%%%%%%%%%%%%%%%%%%%%%%%%%%%%%%%%%%%%%%%%%%%%%%%%%%%%%%%%%%%%%%%%%%%%%%%%%%%%%%%%%%%%%%%%%%%%%%%%%%%%%%%%%%%%%%%%%%%%%%%%%%%%%%%%%%%%%%%%%%oooooooooooooooooooooooooooooooooo%%============%%%%%%%%%%%%%%%%%%%%%%%%%%%%%%%%%%%%%%ooooooooooooooooooooooooooooooo",
"%%====%%%%====%%===%===%%%%%%%%%%ooooooooooooooooooooooooooooooooooooooo%%%%%%%%%%%%%%%%%%%%%%==============%%%%%%%%%%%%%%%%%%%%%%%%%%%%%%%%%%%%%%%%%%%%%%%%%%======%=%%%%%%%%%%%%%%%%%%%oooooooooooooooooooooooooooooooooooooooo%%%%%%%%%%%%%%%%%%%%%%%%%%%%%%%%%%%%%%%%%%%%%%%%%%%%%%%%%%%%%%%%%%%===========================:<<:=%=33=%%%%%%%%%%%%%%%%%%%%%%%%%%%oooooooo%%%%oooooooo%%%%oooo%%%%%%%%%%%%%%%%%%%%%%%%%%%%%%%%%%%%%%%%%%%%%%%%%%%%%%%%%%%%%%%%%%%%%%%%%%%%%%%%%%%%%%%%%%%%%%%%%%%%%%%%%%%%%%%%%%%%%%%%%%%%%oooooooooooooooooooooooooooooooooo%%=============%%%%%%%%%%%%%%%%%%%%%%%%%%%%%%%%%%%%%ooooooooooooooooooooooooooooooo",
"%%%%%%%%%%%%%%%%%%%%%%%%%%%%%%%%%ooooooooooooooooooooooooooooooooooooooo%%%%%%%%%%%%%%%%%%%%%===============%%%%%%%%%%%%%%%%%%%%%%%%%%%%%%%%%%%%%%%%%%%%%%%%%%%%====%%%%%%%%%%%%%%%%%%%%%ooooooooooooooooooooooooooooooooooooooo@@@@@@@@@@@@@@@@@@@@@@@@@@@@@@@@oooooooooo%%%%%%%%%%%%%%%%%%%%%%======::=:::===================:<<=%=:<<=%%%==%%%%%%%%%%%%%%%%%%oooooooooooooooooooooooooooooooo%%%%%%%%%%%%%%%%%%%%%%%%%%%%%%%%o%%%%%%%%%%%%%%%%%%%%%%%%%%%%%%%%%%%%%%%%%%%%%%%%%%%%%%%%%%%%%%%%%%%%%%%%%%%%%%%%%%%%%%%%%%%%ooooooooooooooooooooooooooooooooooo%========%%%%%%%%%%%%%%%%%%o%%%%%%%%%%%%%%%%%%%%%%%ooooooooooooooooooooooooooooooo",
"%%%%%%%%%%%%%%%%%%%%%%%%%%%%%%%%%ooooooooooooooooooooooooooooooo%%%%oooo%%%%%%%%%%%%%%%%%%%%%%==============%%%%%%%%%ooooooooo%%%%%%%%%%%%%%%%%%%%%%%%%%%%%%%%%%====%%%%%%%%%%%%%%%%%%%%%ooooooooooooooooooooooooooooooooooooooo@@@@@@@@@@@@@@@@@@@@@@@@@@@@@@@@oooooooooo%%%%%%%%%%%%%%%%%%%%%===::::::::::::==::================%=<<:=%%%=<<=%%%%%%%%%%%%%%%%ooooooooooooooooooooooooooooooooo%%oooooo%%%%oooooo%%ooooooooo%%%o%%%%%%%%%%%%%%%%%%%%%%%%%%%%%%%%%%%%%%%%%%%%%%%%%%%%%%%%%%%%%%%%%%%%%%%%%%%%%%%%%%%%%%%%%%%%ooooooooooooooooo%%oooooooooooooooo%%%%%%%%=%%%%%%%%%%%%%%%%%%%%%%%%%%%%%%%%%%%%%%%%%%ooooooooooooooooooooooooooooooo",
"%%%%%%%%%%%%%%%%%%%%%%%%%%%%%%%%%ooooooooooooooooooooooooooooooo%%%%%%%%%%%%%%%%%%%%%%%%%%%%%%=============%%%%%%%%%ooooooooooo%%%%%%%%%%%%%%%%%%%%%%%%%%%%%%%%%%%=%%%%%%%%%%%%%%%%%%%%%%%%%%%%%%%%%%%%%%%%%%%%%%%%%%%%%%%%%%%%%@@@@@@@@@@@@@@@@@@@@@@@@@@@@@@@@oooooooooo%%%%%%%%%%%%%%%%%%%%%==:::::::::::::=::========%=====%%%%=<<=%%%%=<<=%%%%%%%%%%%%%%%%oooooooooooooooooooooooooooooooooooooooooooooooooooooooooooooooooo%%%%%%%%%%%%%%%%%%%%%%%%%%%%%%%%%%%%%%%%%%%%%%%%%%%%%%%%%%%%%%%%%%%%%%%%%%%%%%%%%%%%%%%%%%%%%%%ooo%%%oooo%%%%%%%%%%%%oo%%%o%%%%%%%%%%%%%%%%%%%%%%%%%%%%%%%%%%%%%%%%%%%%%%%%%%%%%%%ooooooooooooooooooooooooooooooo",
"%%%%%%%%%%%%%%%%%%%%%%%%%%%%%%%%%%%%%%oooo%%%%%%ooooooo%oooo%%%%%%%%%%%%%%%%%%%%%%%%%%%%%%%%%%=========%%%%%%%%%%%%ooooooooooooooo%%%%%%%%%%%%%%%%%%%%%%%%%%%%%%%%%%%%%%%%%%%%%%%%%%%%%%%%%%%%%%%%%%%%%%%%%%%%%%%%%%%%%%%%%%%%%%@@@@@@@@+@@@@@@@@@@@@@@@@@@@@@@@oooooooo%%%%%%%%%%%%%%%%%%%%%%===:::::::==::========%%%%=%%%%%%%%%%%==%%%%%%==%%%%%%%%%%%%%%%%%%ooooooooooooooooooooooooooooooooooooooooooooooooooooooooooooooooo%%%%%%%%%%%%%%%%%%%%%%%%%%%%%%%%%%%%%%%%%%%%%%%%%%%%%%%%%%%%%%%%%%%%%%%%%%%%%%%%%%%%%%%%%%%%%%%%%%%%%%%%%%%%%%%%%%%%%%%%%%%%%%%%%%%%%%%%%%%%%%%%%%%%%%%%%%%%%%%%%%%%%%%%%%%%%%%%%%ooooooooooooooooooooooooooooooo",
"%%%%%%%%%%%%%%%%%%%%%%%%%%%%%%%%%%%%%%%%%%%%%%%%%%%%%%%%%%%%%%%%%%=======%%=%%%%%%%%%%%%%%%%%%%=%====%%%%%%%%%%o%%ooooooooooooooooo%%%%%%%%%%%%%%%%%%%%%%%%%%%%%%%%%%%%%%%%%%%%%%%%%%%%%%%%%%%%%%%%%%%%%%%%%%%%%%%%%%%%%%%%%%%%%@@@@@@++@@@@@@@@@@@@@@@@@@@@@@@@%%%%%%%%%%%%%%%%%%%%%%%%%%%%%%=%=====:===========%=%%%%%%%%%%%%%%%%%%%%%%%%%%%%%%%%%%%%%%%%%%%%%ooooooooooooooooooooooooooooooooooooooooooooooooooooooooooooooooo%%%%%%%%%%%%%%%%%%%%%%%%%%%%%%%%%%%%%%%%%%%%%%%%%%%%%%%%%%%%%%oooooooooooooooooooooooooooooooo%%%%%%%%%%%%%%%%%%%%%%%%%%%%%%%%%%%%%%%%%%%%%%%%%%%%%%%%=%%%%%%%%%%%%%%%%%%%%%%%%%%%ooooooooooooooooooooooooooooooo",
"%%%%%%%%%%%%%%%%%%%%%%%%%%%%%%%%%%%%%%%%%%%%%%%%%%%%%%%%%%%%%%%==================%%%%%%%%%%%%%%%%%==%%%%%%%%%%ooooooooooooooooooooo%%%%%%%%%%%%%%%%%%%%%%%%%%%%%%%%%%%%%%%%%%%%%%%%%%%%%%%%%%%%%%%%%%%%%%%%%%%%%%%%%%%%%%%%%%%%%@@@@@@@@@@@@@@@@@@@@@@@@@@@@@@@@%%%%%%%%%%%%%%%%%%%%%%%%%%%%%%%%%%%%%%%%%%%%%%%%%%%%%%%%%%%%%%%%%%%%%%%%%%%%%%%%%%%%%%%%%%%%%%%%ooooooooooooooooooooooooooooooooooooooooooooooooooooooooooooooooo%%%%%%%%%%%%%%%%%%%%%%%%%%%%%%%%%%%%%%%%%%%%%%%%%%%%%%%%%%%%%%oooooooooooooooooooooooooooooooo%%%%%%%%%%%%%%%%%%%%%%%%%%%%%%%%%%%%%o%%%%%%%%%%%%%%%%%=========%%%%%%%%%%%%%%%%%%%%ooooooooooooooooooooooooooooooo",
"%%====%%%%====%%====%%%%========%%%%%%%%%%%%%%%%%%%%%%%%%%%%%%%%=================%%%%%%%%%%%%%%%%%%%%%oo%%%%%%ooooooooooooooooooooo%%%%%%%%%%%%%%%%%%%%%%%%%%%%%%%%%%%%%%%%%%%%%%%%%%%%%%%%%%%%%%%%%%%%%%%%%%%%%%%%%%%%%%%%%%%%%@@@@@@@@@@@@@@@@@@@@@@@@@@@@@%==%%%%%%%%%%%%%%%%%%%%%%%%%%%%%%%%%%ooo%%%oooo%%%%%%%%%%%%%%%%%%%%%%%%%%%%%%%%%%%%%%%%%%%%%%%%%%%%%ooooo%%%%%%%%oo%%%%ooo%%%%%%%ooooooooooooooooooooooooooooooooooo%%%%%%%%%%%%%%%%%%%%%%%%%%%%%%%%%%%%%%%%%%%%%%%%%%%%%%%%%%%%%%oooooooooooooooooooooooooooooooooo%%%%%%%%%%%%%%%%%%%%%%%%%%%%%%%%%%%%%%%%%%%%%%%%%%%============%%%%%%%%%%%%%%%%%%%ooooooooooooooooooooooooooooooo",
"=================================%%%%==%%%====%%%%%%==%==%%%%%%%=================%%%%%%%%%%%%%%%%%%%ooooo%%%ooooooooooooooooooooooo%%%%%%%%%%%%%%%%%%%%%%%%%%%%%%%%%%%%%%%%%%%%%%%%%%%%%%%%%%%%%%%%%%%%%%%%%%%%%%%%%%%%%%%%%%%%%@@@@@@@@@+@@@@@@@@@@@@%%%%%%%=<<=%%%%%%%%%%%%%%%%%%%%%%%%%%%%%%ooooooooooooooooooooo%%%%%%%%%%%%%%%%%%%%%%%%%%%%%%%%%%%%%%%%%%%%%%%%o%%%%%%%%%%%%%%%o%%%%%%%%%%oooooooooooooooooooooooooooooooooo%%%%%oo%%%%%%%%%%%%%%%%%%%%%%%%%%%%%%%%%%%%%%%%%%%%%%%%%%%%%%%oooooooooooooooooooooooooooooooooo%%%%%%%%%%%%%%%%%%%%%%%%%%%%%%%%%%%%%%%%%%%%%%%%%%=============%%%%%%%%%%%%%%%%%%%ooooooooooooooooooooooooooooooo",
"================================%=%%%%%%%%==%=%%%%%%%%%=%%%%==%==================%%%%%%%%%%%%%%%ooooooooooooooooooooooooooooooooooo%%%%%%%%%%%%%%%%%%%%%%%%%%%%%%%%%%%%%%%%%%%%%%%%%%%%%%%%%%%%%%%%%%%%%%%%%%%%%%%%%%%%%%%%%%%%%@@@@@@@@++@@@%%%%%==%%%%%%%%%=<<=%%%%%%%%%%%%%%%%%%%%%%%%%%%%%oooooooooooooooooooooo%%o%%%%%%%%%%%%%%%%%%%%%%%%%%%%%%%%%%%%%%%%%%%%%%%%%%%%%%%%%%%%%%%%%%%%%%%%oooooooooooooooooooooooooooooooooooooooooooooooooooooooooooooooooo%%%%%%%%%%%%%%%%%%%%%%%%%%%%%%o@@@@@@@@@@@@@@@@@@@@@@@@@@@@@oooo%%%%%%%%%%%%%%%%%%%%%%%%%%%%%%%%%====%%%%%%====%%==============%%%%%%%%%%%%%%%%%%%ooooooooooooooooooooooooooooooo",
"============================================================================%%%%%%%%%%%%%%%%%%%%ooooooooooooooooooooooooooooooooooo%%%%%%%%%%%%%%%%%%%%%%%%%%%%%%%%%%%%%%%%%%%%%%%%%%%%%%%%%%%%%%%%%%%%%%%%%%%%%%%%%%%%%%%%%%%%%%%%%%%%%o%%%%%%%%=<<=%%%%%%%%%==%%%%%%%%%%%%%%%%%%%%%%%%%%%%%%%ooooooooooooooooooooo%%%%%%%%%%%%%%%%%%%%%%%%%%%%%%%%%%%%%%%%%%%%%%%%%%%%%%%%%%oo%%%%%%%%%%%%%%ooooooooooooooooooooooooooooooooooooooooooooooooooooooooooooooooooo%%%%%%%%%%%%%%%%%%%%%%%%%%%%%%o@@@@@@@@@@@@@@@@@@@@@@@@@@@@@oooo%%%%%%%%%%%%%%%%%%%%%%%%%%%%%%%%%%=============================%%%%%%%%%%%%%%%%%%%ooooooooooooooooooooooooooooooo",
"===========================================================================%%%%%%%%%%%%%%%%%%%%%ooooooooooooooooooooooooooooo%%%%%%%%%%%%%%%%%%%%%%%%%%%%%%%%%%%%%%%%%%%%%%%%%%%%%%%%%%%%%%%%%%%%%%%%%%%%%%%%%%%%%%%%%%%%%%%%%%%%%==%%===%%%%%%%=:<<=%%%%%%%%%%%%%%%%%%%%%%%%%%%%%%%%%%%%%%%%%%%oooooooooooooo%%%%%%%%%%%%%%%%%%%%%%%%%%%%%%%%%%%%%%%%%%%%%%%%%oooooooooooooooooooooooooooooooooooooooooooooooooooooooooooooooooooooooooooooooooooooooooooooooooo%%%%%%%%%%%%%%%%%%%%%%%%%%%%%%o@@@@@@@@@@@@@@@@@@@@@@@@@@@@@ooo%%%%%%%%%%%%%%%%%%%%%%%%%%%%%%==%%=============================%%%%%%%%%%%%%%%%%%%%ooooooooooooooooooooooooooooooo",
"================================================================%%%%%%%%%%%%%%%%%%%%%%%%%%%%%%oooooooooooooooooooooooo%%%%%%%%%%%%%%%%%%%%%%%%%%%%%%%%%%%%%%%%%%%%%%%%%%%%%%%%%%%%%%%%%%%%%%%%%%%%%%%%%%%%%%%%%%%%%%%%%%%%%%%%%%%=<<==<22<=%%%%=<<:=%%%%%%%%%%%%%%%%%%%%%%%%%%%%%%%%%%%%%%%%%%%%oooo%%%%%%%%%%%%%%%%%%%%%%%%%%%%%%%%%%%%%%%%%%%%%%%%%%%%%%%%%%%oooooooooooooooooooooooooooooooooooooooooooooooooooooooooooooooooooooooooooooooooooooooooooooooooo%%%%%%%%%%%%%%%%%%%%%%%%%%%%%%o@@@@@@@@@@@@@@@@@@@@@@@@@@@@@o%%%%===================================================%%==%%%====%%%%%%%%%%%%%%%%%%%ooooooooooooooooooooooooooooooo",
"====::======::::====::::::::::=:===============================%%%%%%%%%%%%%%%%%oo%%%%%%%%%%%%ooooooooooooooooooooooooo%oo%%%%%%%%%%%%%%%%%%%%%%%%%%%%%%%%%%%%%oooooooooo%%oooo%%%%%%%%%%%%%%%%%%%====%=%%%%%%==%===%%%%%%===%%==:42==<22<=%%%%=<<=%%%%%%%%%%%%%%%%%%%%%%%%%%%%%%%%%%%%%%%%%%%%%%%%%%%%%%%%%%%%%%%%%%%%%%%%%%%%%%%%%%%%%%%%%%%%%%%%%%%%%%%%%%%%ooooooooooooooooooooooooooooooooooo%%%%%%%%%%%%%%%%%%%%%%oo%%%%%oooooooooooooooooooooooooooooooooo%%%%%%%%%%%%%%%%%%%%%%%%%%%%%%%@@@@@@@@@@@@@@@@@@@@@@@@@@@@@%%%======:::====::===::::==:::==========================%%%%%%%%%%%%%%%%%%%%%%%%%%%%%%ooooooooooooooooooooooooooooooo",
"::::::::::::::::::::::::::::::::==============================%%%%oooooooooo%%ooooooooo%%%%%%oooooooooooooooooooooooooo%oo%%%%%%%%%%%%%%%%%%%%%%%%%%%%%%%%%%%%%oooooooooo%%oooo%%%%%%%%%%%%%%%%%%%==============================<563:%====%%%%%%==%%%%%%%%%%%%%%%%%%%%%%%%%%%%%%%%%%%%%%%%%%%%%%%%%%%%%%%%%%%%%%%%%%%%%%%%%%%%%%%%%%%%%%%%%%%%%%%%%%%%%%%%%%%%%oooooooooooooooooooooooooooooooooo%%%%%%%%%%%%%%%%%%%%%%%%%%%%%%oooooooooooooooooooooooooooooooooo%%%%%%%%%%%%%%%%%%%%%%%%%%%%%%%o%%%%%%%%%%%%%%%%%%%%%%%%%%%%%%==:::::::::::::::::::::::::::::================%%====%%%%%%%%%%%%%%%%%%%%%%%%%%%%%%oooooooooooooooooooooooooooooooo",
"::::::::::::::::::::::::::::::::===%=%%%==%%%%====%%%%%%%%%%%%%%ooooooooooooooooooooooo%%%%%%oooooooooooooooooooooo%%%%%oo%%%%%%%%%%%%%%%%%%%%%%%%%%%%%%%%%%%%%oooooooo%o%%oooo%%%%%%%%%%%%%%%%%%%=============================:333<=%%%%%%%%%%%%%%%%%%%%%%%%%%%%%%%%%%%%%%%%%%%%%%%%%%%%%%%%%%%%%%%%%%%%%%%%%%%%%%%%%%%%%%%%%%%%%%%%%%%%%%%%%%%%%%%%%%%%%%%%%%oooooooooooooooooooooooooooooooooo%%%%%%%%%%%%%%%%%%%%%%%%%%%%%%oooooooooooooooooooooooooooooooooo%%%%%%%%%%%%%%%%%%%%%%%%%%%%%%%%%%%%%%%%%%%%%%%%%%%%%%%%%%%%===:::::::::::::::::::::::::::::::==============%%%%%%%%%%%%%%%%%%%%%%%%%%%%%%%%%%%%%oooooooooooooooooooooooooooooooo",
"::::::::::::::::::::::::::::::::==%%%%%%%%%%%%%%%%%%%%%%%%%%%%ooooooooooooooooooooooooo%%%%%%oooooooooooooooooooooo%%%%%%%%%%%%%%%%%%%%%%%%%%%%%%%%%%%%%%%%%%%%oooooo%%%%%%oooo%%%%%%%%%%%%%%%%%================================:::=%%%%%%%%%%%%%%%%%%%%%%%%%%%%%%%%%%%%%%%%%%%%%%%%%%%%%%%%%%%%%%%%%%%%%%%%%%%%%%%%%%%%%%%%%%%%%%%%%%%%%%%%%%%%%%%%%%%%%%%%%%%oooooooooooooooooooooooooooooooooo%%%%%%%%%%%%%%%%%%%%%%%%%%%%%%oooooooooooooooooooooooooooooooooo%%%%%%%%%%%%%%%%%%%%%%%%%%%%%%%=================================::::::::::::::::::::::::::::::=====%=======%%%%%%%%%%%%%%%%%%%%%%%%%%%%%%%%%%%%%%%ooooooooooooooooooooooooooooooo",
":::::::::::::::::::::::::::::::===%%%%%%%%%%%%%%%%%%%%%%%%%%%oooooooooooooooooooooooooo%%%%%%oooooooooooooooooo%%%%%%%%%%%%%%%%%%%%%%%%%%%%%%%%%%%%%%%%%%ooooooooo%%%%%%%%%%%%%%%%%%%%%%%%%%%%%%=================================%%%%%%%%%%%%%%%%%%%%%%%%%%%%%%%%%%%%%%%%%%%%%%%%%%%%%%%%%%%%%%%%%%%%%%%%%%%%%%%%%%%%%%%%%%%%%%%%%%%%%%%%%%oooooo%%%%%%%%%%%%%%oooooooooooooooooooooooooooooooooo%%%%%%%%%%%%%%%%%%%%%%%%%%%%%%oooooooooooooooooooooooooooooooooo%%%%%%%%%%%%%%%%%%%%%%%%%%%%%%%=================================:========:=====:::====:====:====%%%%%%%%%%%%%%%%%%%%%%%%%%%%%%%%%%%%%%%%%%%%%%%%%%ooooooooooooooooooooooooooooooo",
"::::::::::::::::::::::::::::::======%%%%%%%%%%%%%%%%%%%%%%%%%%ooooooooooooooooooooooooo%%%%%ooooooooooooooooooo%%%%%%%%%%%%%%%%%%%%%%%%%%%%%%%%%%%%%%%%%%ooooooooo%%%%%%%%%%%%%%%=%%====%%%%%%%%=================================%%%%%%%%%%%%%%%%%%%%%%%%%%%%%%%%%%%%%%%%%%%%%%%%%%%%%%%%%%%%%%%%%%%%%%%%%%%%%%%%%%%%%%%%%%%%%%%%%%%%%%%%%%oooooo%%%%%%%%%%%%%%oooooooooooooooooooooooooooooooooo%%%%%%%%%%%%%%%%%%%%%%%%%%%%%%oooooooooooooooooooooooooooooooooo%%%%%%%%%%%%%%%%%%%%%%%%%%%%%%=========::::====::==::====::::=================================%%%%%%%%%%%%%%%%%%%%%%%%%%%%%%%%%%%%%%%%%%%%%%%%%%%%ooooooooooooooooooooooooooooooo",
"==:::======::===:=:::::::::::=========%%%%%%%%%%%%%%%%%%%%%%%%oooo@@@@@@@@@@@@@@@@@@@@@@@@@@@@ooooooooooooooooooooooooooooooooo%%%%%%%%%%%%%%%%oooooooooooooooo%%%%%%%%%%%%%%%%%===%%%===%%%%%%%==================================%%%===%%%%%%%%%%%%%%%%%%%%%%%%%%%%%%%%%%%%%%%%%%%%%%%%%%%%%%%%%ooooooo%%%%oooo%%%ooooo%%%%ooooo%%%%%%%%%%oooooo%%%%%%%%%%%%ooooooooooooooooooooooooooooooooooooooooooooooooooooooooooooooooooo@@@@@@@@@@@@@@@@@@@@@@@@@@@@@@ooo%%%%%%%%%%%%%%%%%%%%%%%%%%%%%%=====:===::::==::::==:::===::::=======================%%%%%%===%%%%%%%%%%%%%%%%%%%%%%%%%%%%%%%%%%%@@@@@@@@@@@@@@@@@@@@@@@@@@@@@oooooooooooooooooooo",
"=======================================%%%%%%%%%%%%%%%%%%%%%%%%%o@@@@@@@@@@@@@@@@@@@@@@@@@@@@@@oooooooooooooooooooooooooooooooo%%%%%%%%%%%%%%%%%%oooooooooooo%%%%%=====================================================================%%%%%%%%%%%%%%%%%%%%%%%%%%%%%%%%%%%%%%%%%%%%%%%%%%%%%%%%%ooooooooooooooooo%%oooooooooooooooo%@@@@oooo@@@@oo%%@@@@oooo@@@@ooooooooooooooooooooooooooooooooooooooooooooooooooooooooooooooo@@@@@@@@@@@@@@+@@@@++@@@@@@@@@@@ooo%%%%%%%%%%%%%%%%%%%%%%%%%%%%%====================================================%%%%%%%%%%%%%%%%%%%%%%%%%%%%%%%%%%%%%%%%%%%%%@@@@@@@@@@@@@@@@@@@@@@@@@@@@@@@ooooooooooooooooooo",
"=====================================%=%%%%%%%%%%%%%%%o%%%%%%%ooo@@@@@++@@@@@@@@@@@@@@@@@@@@@@@oooooooooooooooooooooooooooooooo%%%%%%%%%%%%%%%%%%ooooooooooo%%%%%=======================================================================%%=%%%%%%%%%%%%%%%%%%%%%%%%%%%%%%%%%%%%%%%%%%%%%%%%%%%%%oooooooooooooooooooooooooooooooo@o@@@@@@@@@@@@@@@@@@@@@@@@@@@@@+ooooooooooooooooooooooooooooooooooooooooooooooooooooooooooooooo@@@@@@@@@@@+@@@@@@@++@@@@@@@@@@@ooo%%%%%%%%%%%%%%%%%%%%%%%%%%%%===============================================%%%%%%%%%%%%%%%%%%%%%%%%%%%%%%%%%%%%%%%%%%%%%%%%%%@@@@@@@@@@@@@@@@@@@@@@@@@+@@@@@+ooooooooooooooooooo",
"================================%%%%%%%%%%%%%%%%%%%%%%ooooooooooo@@@@@@@+@@@@@@@@++@@@@@++@@@@@ooooooooooooooooooooooooooooooooo%%%%%%%%%%%%%%%%%%%%%%%%%%%%%%%%===========================================================================%=%%%%%%%%%%%%%%%%%%%%%%%%%%%%%%%%%%%%%%%%%%%%%%%%%%%oooooooooooooooooooooooooooooooo@@@@++@@@@++@@@@@@+@@@@@@@@@@@++@oooooooooooooooooooooooooooooooooooooooooooooooooooooooooooooo@@@@@+@@@@@++@@@@@@@@@@@@@@@@@+@o%%%%%%%%%%%%%%%%%%%%%%%%%%%%%================================================%%%%%%%%%%%%%%%%%%%%%%%%%%%%%%%%%%%%%%%%%%%%%%%%%%@@@@@@@@@@@@@@++@@@@+@@+++@@@@@+ooooooooooooooooooo",
"================================%%%%%%%%%%%oo%%%%%%%oooooooooooo@@@@@@@@+@@@++@@@+@@@@@@++@@@@@ooooooooooooooooooooooooooooooooo%%%%%%%%%%%%%%%%%%%%%%%%%%%%%%===============================================================================%%%%%%%%%%%%%%%%%%%%%%%%%%%%%%%%%%%%%%%%%%%%%%%%%%%oooooooooooooooooooooooooooooooo@@@@@@@@@@+@@@@+@@+@@@@+@@@@@@+@@oooooooooooooooooooooooooooooooooooooooooooooooooooooooooooooo@@@@@++@@@@@+@@@@@@@@@@@@@@@@++@o%%%%%%%%%%%%%%%%%%%%%%%%%%%%%==============================================%=%%%%%%%%%%%%%%%%%%%%%%%%%%%%%%%%%%%%%%%%%%%%%%%%%%@@@@@@@@@@@@@@+@@@+++@@@+@@@@@@@ooooooooooooooooooo",
"==%%%====%====%%====%%%%==%%%==%%%%%%%o%ooooooo+ooooooooooooooo@+++@@+@+++@@@@@@@@@@@@@@@@@@@@@ooooooooooooooooooooooooooooooooo%%%%%%%%%%%%=%%%=============================================================================================%%%%%%%%%%%%%%%%%%%%%%%%%%%%%%%%%%%%%%%%%%%%%%%%%%%oooooooooooooooooooooooooooooooo@@@@++@@@@@@@@@+@@@@@@++@@@@@@@@@oooooooooooooooooooooooooooooooooooooooooooooooooooooooooooooo@@@@@@@@@@@@@@@@@@@@@+@@@@@@@@@@%%%%%%%%%%%%%%%%%%%%%%%%%%%%%%%==========================================%%==%%%%%%%%%%%%%%%%%%%%%%%%%%%%%%%%%%%%%%%%%%%%%%%%%%%@@@@@@@@@@@@@@@@@@@+@@@@+++@@@@@ooooooooooooooooooo",
"%%%%%%%%%%%%%%%%%%%%%%%%%%%%%%%%ooooo%ooooooooo@ooooooooooooooo@@@+@@@+@@@@@++@@@@@@@@@@@@@@@@@ooooooooooooooooooooooooooooooooo%%%%%=============================================================================================%%%%=====%%%%%%%%%%%%%%%%%%%%%%%%%%%%%%%%%%%%%%%%%%%%%%%%%%o%ooooooooooooooooooooooooooooooooo@@@@@@@@@@@@@@++@@@@@@++@@@@@@@@@oooooooooooooooooooooooooooooooooooooooooooooooooooooooooooooo@@@@@@@@@@@@@@@@@@@@@++@@@@@@@@@%%%%%%%%%%%%%%%%%%%%%%%%%%%%%%%%=======================================%%%%%%%%%%%%%%%%%%%%%%%%%%%%%%%%%%%%%%%%%%%%%%%%%%%%%%%%%@@@@@@@@@@@@@@@@@@@+@@@@@++@@@@@@oooooooooooooooooo",
"%%%%%%%%%%%%%%%%%%%%%%%%%%%%%%%%oooooooooooooo@@ooooooooooooooo@@@@@@@@@@@@@@@@@@@@@@@@@@@@@@@@ooooooooooooooooooooooooooooooooo%%=====================:====::::===================================================================%%===%%%%%%%%%%%%%%%%%%%%%%%%%%%%%%%%%%%%%%%%%%%%%%%%%%%%oooooooooooooooooooooooooooooooooooo@@@@++@@@@@@@@@@@@@@@@@@@@@@@@@@@ooooooooooooooooooooooooooooooooooooooooooooooooooooooooooooooo@@@@@@@@@@@@@@@@@@@@@@@@@@@@@@o%%%%%%%%%%%%%%%%%%%%%%%%%%%%%%%%========================================%%%%%%%%%%%%%%%%%%%%%%%%%%%%%%%%%%%%%%%%%%%%%%%%%%%%%%%@@@@@@XXXXXXX@@@@@@@@@@@@@@@@@@@@@oooooooooooooooooo",
"%%%%%%%%%%%%%%%%%%%%%%%%%%%%%%%%oooooooooooooo@@ooooooooooooooo@@@@@@@@@@@@@@@@@@@@@@@@@@@@@@@@ooooooooooooooooooooooooooooooooo%====================:::::::::::==================================================================%%%%=%%%%%%%%%%%%%%%%%%%%%%%%%%%%%%%%%%%%%%%%%%%%%%%%%%%%%oooooooooooooooooooooooooooooooooooo@@@@@@@@@@@@@@@@@@@@@@@@@@+@@@@+@oooooooooooooooo%%o%%%%%%%%%%%oooooooooooooooooooooooooooooooooooooooooooooooooooooooooooooooo%%%%%%%%%%%%%%%%%%%%%%%%%%%%%%%%=%======================================%%%%%%%%%%%%%%%%%%%%%%%%%%%%%%%%%%%%%%%%%%%%%%%%%%%%%%%@@@@@XXXXXXXXXXX@@@@@@@@@@@@@@@@@@oooooooooooooooooo",
"%%%%%%%%%%%%%%%%%%%%%%%%%%%%%%%o@@@@+++@@@@@@@@@@@@@@@@@@@@@@@@@@@@@@@@@@@@@@@@@@@@+@@@@@@@@@@@@oooooooooooooooooooooooooooooo%%%===========::::===::::::::::=:=================================%%%%%=======%%%%%%%%%%%%%===%%%%%%%%%%%%%%%%%%%%%%%%%%%%%%%%%%%%%%%%%%%%ooo%%%%%%%%%%%%%oooooo%ooooooooooooooooooooooooooooooooo@@@@@@@@@@@@@@@@@@@@@@@@@@@@@@++@ooooooo%%o%%%ooo%%%%%%%%%%%%%%%%%%%%%%%%%%%%%%%%%%%%%%%%%%%%%%%ooooooooooooooooooooooooooooooo%%%%%%%%%%%%%%%%%%%%%%%%%%%%%%%%%%%%%===============%====%%============%%%%%%%%%%%%%%%%%%%%%%%%%%%%%%%%%%%%%%%%%%%%%%%%%%%%%%%%@@@@@X@@@@@XXX@@@@@@@@@@@@@@@@@@@@oooooooooooooooooo",
"%%%%%%%%%%%%%%%%%%%%%%%%%%%%%%%o@@@@+@@@@@@@@@@@@@@@@@@@@@@@@@@@@@@@@@@@@@@@@@@@@@++@@@@@@@@@@@@oooooooooooooooooooooooooooo%%%%============::::==::::==::::=:==================================%%%%%%%%%%%%%%%%%%%%%%%%%%%%%%%%%%%%%%%%%%%%%%%%%%%%%%%%%ooooooooooooooooooooooooooooooooooooooooooooooooooooooooooooooooooooooo@@++@@@@@@@@@@@+@@@@@@@@@@@@@@@@@%%%%%%%%%%%%%%%%%%%%%%%%%%%%%%%%%%%%%%%%%%%%%%%%%%%%%%%%%%%%%%%%%oooooooooooooooooooooooooooo%%%%%%%%%%%%%%%%%%%%%%%%%%%%%%%%%%%%%%%%%%%%%%%%%%%%%%%%%%%%%%%%%%%%%%%%%%%%%%%%%%%%%%%%%%%%%%%%%%%%%%%%%%%%%%%%%%%%%%%%%%%%%%%%@@@@@@@@@@@@@@@@@@@@@@@@@@@@@@@@@@oooooooooooooooooo",
"%%%%%%%%%%%%%%%%%%%%%%%%%%%%%%o@@@@@@@@@++@@@@@@@@@@@@@@@@@@@@@@@@@@@@@@@@@@@@@@@@@@@@@@@@@@@@oooo%%%%%%oooooo%%%%%%%%%%%%%%%%====::::=======:::================================================%%%%%%%%%%%%%%%%%%%%%%%%%%%%%%%%%%%%%%%%%%%%%%%%%%%%%%%%%ooooooooooooooooooooooooooooooooooooooooooooooooooooooooooooooooooooooo@@@++@@@@@@@@@+@@++@@+@@@@@@@@@@ooo%%%%%%%%%%%%%%%%%%%%%%%%%%%%%%%%%=%==%==%=%====%=%%==%%%%%%%%%%oooooooooooooooooooooooooooo%%%%%%%%%%%%%%%%%%%%%%%%%%%%%%%%%%%%%%%%%%%%%%%%%%%%%%%%%%%%%%%%%%%%%%%%%%%%%%%%%%%%%%%%%%%%%%%%%%%%%%%%%%%%%%%%%%%%%%%%%%%%%%@@@@@@@@@@@@@@@@@@@@@@@@@@@@@@@@@@@@oooooooooooooooooo",
"%%%%%%%%%%%%%%%%%%%%%%%%%%%%%%o@@@@@@@@@@@@@@++@@@@@@@@@@@@@@@@@@@@@@@@@@@@@@@@@@@@@@@@@@@@@@ooo%%%%%%%%%%%%%%%%%%%%%%%%%%%%%%====:::::===:==:::===============================================%%%%%%%%%%%%%%%%%%%%%%%%%%%%%%%%%%%%%%%%%%%%%%%%%%%%%%%%ooooooooooooooooooooooooooooooooooooooooooooooooooooooooooooooooooooooooo@@@++@@@@@@@@@@@@+@+@++@@@@@@@@@oo%%%%%%%%%%%%%%%%%%%%%%%%%%%%%%%%%%====%%%%======%%%%=%%%%%%%%%%%%ooooooooooooooooooooooooooo%%%%%%%%%%%%%%%%%%%%%%%%%%%%%%%%%%%%%%%%%%%%%%%%%%%%%%%%%%%%%%%%%%%%%%%%%%%%%%%%%%%%%%%%%%%%%%%%%%%%%%%%%%%%%%%%%%%%%%%@@@@@@@@@@@@@@@@@@@@@@@@@@@@@@@@@@@@@@@@@+@%ooooooooooooooooo",
"%%%%%%%%%%%%%%%%%%%%%%%%%%%%ooo@@@@@@@@@@@@+++@@@+++@@@@@@@@@@@+@%%%ooooo@@@%%oo@@oooooo@@oooooo%%%%%%%%%%%%%%%%%%%%%%%%%%%%%=====:::::=================%%%%======%%%%==%%%%=%==%%%%%%%%%%%%%%%%%%%%%%%%%%%%%%%%%%%%%%%%%%%%%%%%%%%%%%%%%%%%%%%%%%%%%%%ooooooooooooooooooooooooooooooooooooooooooooooooooooooooooooooooooooooooo@@@@@@@@@@@@@@@@@@@@@@@@@@@@@@@@%%%%%%%%%%%%%%%%%%%%%%%%%%%%%%%%%==============================%%%%%ooooooooooooooooooooooooooo%%%%%%%%%%%%%%%%%%%%%%%%%%%%%%%%%%%%%%%%%%%%%%%%%%%%%%%%%%%%%%%%%%%%%%%%%%%%%%%%%%%%%%%%%%%%%%%%%%%%%%%%%%%%%%%%%oo%%@@@@@@@@@+@@@@@@@@@@@@@@@@@@@@@@==%%%%=%%%%o%ooooooooooooooooo",
"%%%%%%%%%%%%%%%%%%%%%%%%%%%%ooo@@@@@@@@@@@@@@+@@++@@@@@@@@@@@@@+@%%%%%%%@@o@%%%%@@oo%%%%@@oo%%%%%%%%%%%%%%%%%%%%%%%%%%%%%%%%%======:::==================%%%%%%%%%%%%%%%%%%%%%%%%%%%%%%%%%%%%%%%%%%%%%%%%%%%%%%%%%%%%%%%%%%%%%%%%%%%%%%%%%%%%%%%%%%%%%%%ooooooooooooooooooooooooooooooooooooooooooooooooooooooooooooooooooooooooo@@@@@@@@@@@@@@@@@@@@@@@@@@@@@@@@@@@@@@@@@@@@@@@@@@@@@@@@@@@@%%%%%%==============================%%%%oooooooooooooooooooooooooooo%%%%%%%%%%%%%%%%%%%%%%%%%%%%%%%%%%%%%%%%%%%%%%%%%%%%%%%%%%%%%%%%%%%%%%%%%%%%%%%%%%%%%%%%%%%%%%%%%%%%%%%%%%%%%%%%+@@@@@@@@@@@@@@@@@@@@@@@@@@%==%%@@%@==%%%==%%%%%%ooooooooooooooooo",
"@@@@@@@@@@@@@@@@@@@@@@@@@@@@@+@@@@@@@++@@@@@@@@@@@@@@@@@@@@@@@@@@%%%%%%%%%%%%%%%@%%%%%%%@%%%%%%%%%%%%%%%%%%%%%%%%%%%%%%%%%%%%%====================%%====%%%%%%%%%%%%%%%%%%%%%%%%%%%%%%%%%%%%%%%%%%%%%%%%%%%%%%%%%%%%%%%%%%%%%%%%%%%%%%%%%%%%%%%%%%%%%%%ooooooooooooooooooooooooooooooooooooooooooooooooooooooooooooooooooooooooooooooooooooo%%oo%%oooooooooooo%%%%==%%%%%%%%%%%%%%%%%%%%%%%%%%%%%==============================%%%%ooooooooooooooooooooooooooooo%%%%%%%%%%%%%%%%%%%%%%%%%%%%%%%%%%%%%%%%%%%%%%%%%%%%%%%%%%%%%%%%%%%%%%%%%%%%%%%%%%%%%%%%%%%%%%%%%%%%%%%%%%%%%%%%+@@@@@@@@@@@@@@@%@%%%==%%@%%====%%%%%===%%%===%%%%oooooooooooooooo",
"@@@@@@@@@@@@@@@@@@@@@@@@@@@@@@@@@@@@@+@@@@@@@@@@@@@@@@@@@@@@@@@@%%%%%%%%%%%%====%%%%%%%%%%%%%%%%%%%%%%%%%%%%%%%%%%%%%%%%%%%%%%%%%=%=====%%%======%%%%%%%%%%%%%%%%%%%%%%%%%%%%%%%%%%%%%%%%%%%%%%%%%%%%%%%%%%%%%%%%%%%%%%%%%%%%%%oooo%ooooo%%%%%%%%%%%%%%ooooooooooooooooooooooooooooooooooooooooooooooooooooooooooooooooooooooooooooooooooo%%%%%%%%oooooooooooo%%%%%%%%%%%%%==%%%%%%%%%%%%%%%%%%%%%==%%%%====%%%%%%%%%%%==%%%==%%%%oooooooooooooooooooooooooooooo%%%%%%%%%%%%%%%%%%%%%%%%%%%%%%%%%%%%%%%%%%%%%%%%%%%%%%%%%%%%%%%%%%%%%%%%%%%%%%%%%%%%%%%%%%%%%%%%%%%%%%%%%%%%%%@@+@@@@@@@@@@@@@@@%@%%%===%@%%====%%============%%%%oooooooooooooooo",
"@@@@@@@@@@@@@@@@@@@@@@@@@@@@@@@@@@@@@@@@@@@@@@@@@@@@@@@@@@@@@@@@==================================%%%%%%%%%%%%%%%%%%%%%%%%%%%%%%%%%%%%%%%%%===%%%=%%%%%%%%%%%%%%%%%%%%%%%%%%%%%%%%%%%%%%%%%%%%%%%%%%%%%%%%%%%%%%%%%%%%%%%%%%%%%oooooooooo%%%%%%%%%%%%%%ooooooooooooooooooooooooooooooooooooooooooooooooooooooooooooooooooooo%%%%%%%%%%%%%%%%%%oo%%%%%%%%%%%%%%%%==========%%%%%%%%%%%%%%%%%%%%%%%%%%%%%%%%%%%%%%%%%%%%%%%%%%%%%%%ooooooooooooooooooooooooooooooo%%%%%%%%%%%%%%%%%%%%%%%%%%%%%%%%%%%%%%%%%%%%%%%%%%%%%%%%%%%%%%%%%%%%%%%%%%%%%%%%%%%%%%%%%%%%%%%%%%%%%%%%%%%%%%@@@@@@@@@@@@@@@@@@%%==%%%%=%%%%==%===============%%%oooooooooooooooo",
"@@@@@@@@@@@@@@@@@@@@@@@@@@@@@@@@@@@@@@@@@@@@@@@@@@@@@@@@@@@@@@@&===================================%%%%%%%%%%%%%%%%%%%%%%%%%%%%%%%%%%%%%%%%%%%%%%%%%%%%%==%%%%%%%%%%%%%%%%%%%%%%%%%%%%%%%%%%%%%%%%%%%%%%%%%%%%%%%%%%%%%%%%%%%%%oooooooooo%%%%%%%%%%%%%%%%%%%%%%%%%%%%%%%%%%%%ooooooooooooooooooooooo%%%%%%%%%%%%%%%%%%%%%%%%%%%%%%%%%%%%%%%%%%%%%%%%%%%%%%%%%%=%==========%%%%%%%%%%%%%%%%%%%%%o%%%%%%%%%%%%%%%%%%%%%%%%%%%%%%%%oooooooooooooooooooooooooooooooo%%%%%%%%%%%%%%%%%%%%%%%%%%%%%%%%%%%%%%%%%%%%%%%%%%%%%%%%%%%%%%%%%%%%%%%%%%%%%%%%%%%%%%%%%%%%%%%%%%%%%%%%%%@@@@@@@@@@@@@@@@@@@@@@%%%=%%%%=======%=============%%%%%oooooooooooooooo",
"@@@@@+@@@@@@@@@@@++@@@@+@@@@@@@@@@@@@@@@@@@@@@@@@@@@@&&&&&&&&&&&===================================%%%%%%%%%%%%%%%%%%%%%%%%%%%%%%%%%o%%%%%%%%%%%%%%%%%%========%%%%%%%%%%%%%%%%%%%%%%%%%%%%%%%%%%%%%%%%%%%%%%%%%%%%%%%%%%%%%%%%oooooooooo%%%%%%%%%%%%%%%%%%%%%%%%%%%%%%%%%%%%oooooooooooooooooooo%oo%%%%%%%%%%%%%%%%%%%%%%%%%%%%%%%%%=%%%========================================%%%%%%%%%%%%%%%%ooooooooooooooooo%%oooooooooooooooooooooooooooooooooooooooooooo%%%%%%%%%%%%%%%%%%%%%%%%%%%%%%%%%%%%%%%%%%%%%%%%%%%%%%%%%%%%%%%%%%%%%%%%%%%%%%%%%%%%%%%%%%%%%%%%%%%%%%%%%%%%%%@@@@@@@@++@@+++@@@%%%%%%%%====%%%%====%%%%%%%%%%%%%%oooooooooooooooo",
"@@@@+@@@@@@@@@@@@+@@@+++@@@@@@@@@@@@@@@@@@@@@@&&@@@@&&&&&&&&&&&&==================================%%%%%%%%%%%%%%%%%%%%%%%%%%%%%%%%%oo%%%%%%%%%%%%%%%%%%======%=%%%%%%%%%%%%%%%%%%%%%%%%%%%%%%%%%%%%%%%%%%%%%%%%%%%%%%%%%%%%%%%%oooooooooo%%%%%%%%%%%%%%%%%%%%%%%%%%%%%%%%%%%%oooooooooooooooooooo%%o%%%%%%%%%%%%%%%%%%%%%%%%%%%%%%%%=============================================%%%%%%%%%%%%%%%oooooooooooooooooo%%oooooooooooooooooooooooooooooooooooooooooooo%%%%%%%%%%%%%%%%%%%%%%%%%%%%%%%%%%%%%%%%%%%%%%%%%%%%%%%%%%%%%%%%%%%%%%%%%%%%%%%%%%%%%%ooooooooooo%%%%%%%%%%@@@@@@@@@@@@+@@+@++@o%%%%%%%%%%%%%%%%%%%%%%%%%%%%%%%%%%oooooooooooooooo",
"@@@@@@@@@@@@@@@@@@@@@@@@@@@@@%%@@@@@&&&&&&&&&&&&&&&&&&&&&&&&&&&=======%%======================%%%%%%%%%%%%%%%%%%%%%%%%%%%%%%%%%%%%%%%%%%%%%%%%%%%%%%%%%%%%%%%%%%%%%%%%%%%%%%%%%%%%%%%%%%%%%%%%%%%%%%%%%%%%%%%%%%%%%%%%%%%%%%%%%oooooooooo%%%%%%%%%%%%%%%%%%%%%%%%%%%%%%%%%%%%ooooooo%%%%ooooooooo%%%%%%%%%%%%%%%%%%%%%%%%%%%%%%%=====::===::=====================================%%%%%%%%%%%%%%%oooooooooooooooooooooooooooooooooooooooooooooooooooooooooooooooo%%%%%%%%%%%%%%%%%%%%%%%%%%%%%%%%%%%%%%%%%%%%%%%%%%%%%%%%%%%%%%%%%%%%%%%%%%%%%oooooooooooooooooooo%%%%%%%%ooooo@@@@@@@@@@@@@@@@@@ooooooooo%%%oooo%%%%%%%%oo%%%%o%oooooooooooooooooo",
"@@@@+@@@@@@@@@@@@@@@@@@@@@@@@%%@@@=%============&&=================%%%%%====%%%%====%%%%====%%%%%%%%%%%%%%%%ooo%%%%%%%%%%%%%%%%%%%%%%%%%%%%%%%%%%%%%%%%%%%%%%%%%%%%%%%%%%%%%%%%%%%%%%%%%%%%%%%%%%%%%%%%%%%%%%%%%%%%%%%%%%%%%%%%oooooooo%%%%%%%%%%%%%%%%%%%%%%%%%%%%%%%%%%%%%%%%%%%%%%%%%oo%%%%%%%%%%%%%%%%%%%%%%%%%%%%%%%%%%%%%%===:::::=:::==========::==::=:===================%%%%%%%%%%%%%%%%ooooooooooooooooooooooooooooooooooooooooooooooooooooooooooooooo%%%%%%%%%%%%%%%%%%%%%%%%%%%%%%%%%%%%%%%%%%%%%%%%%%%%%%%%%%%%%%%%%%%%%%%o%%ooooooooooooooooooooooooooooooooo@@@@@@@@@@@@@@@@@@@@@oooooooooooooooooooooooooooooooooooooooooooooooooo",
"%%%%%%%%%%%%%%%%%%%%%%%%%%%%%%%%================&&&==============%%%%%%%%%%%%%%%%%%%%%%%%%%%%%%%%%oo%%%%oooooooooooo%%%%ooooo%%%%%%%%%%%%%%%%%%%%%%%%%%%%%%%%%%%%%%%%%%%%%%%%%%%%%%%%%%%%%%%%%%%%%%%%%%%%%%%%%%%%%%%%%%%%%%%%%%oooooooo%%%%%%%%%%%%%%%%%%%%%%%%%%%%%%%%%%%%%%%%%%%%%%%%%o%%%%%%%%%%%%%%%%%%%%%%%%%%%%%%%%%%%%%%%==::::===============:::::::::::::::==========%%%%%%%%%%%%%%%%%%%%%%%%%%%%%%%%%%%%%%%%%%%%%%%%%%ooooooooooooooooooooooooooooooooo%%%%%%%%%%%%%oo%%%%%%%%%%%%%%%%%%%%%%%%%%%%%%%%%%%%%%%%%%%%%%%%%%%%%%%ooooooooooooooooooooooooooooooooooooooooo@@@@++@@@@@@@+@@oooooooooooooooooooooooooooooooooooooooooooooooooo",
"%%%%%%%%%%%%%%%%%%%%%%%%%%%%%%%%%==============================%%%%%%%oo%%%%%%%%%%%%%%%%%%%%oooooooooooooooooooooooooooooooooo%%%%%%%%%%%%%%%%%%%%%%%%%%%oooooooo%%%%%%%%%%%%%%%%%%%%%%%%%%%%%%%%%%%%%%%%%%%%%%%%%%%%%%%%%%%%%%%%%%%%%%%%%%%%%%%%%%%%%%%%%%%%%%%%%%%%%%%%%%%%%%%%%%%%%%%oo%%%%%%%%%%%%%%%%%%%%%%%%%%%%%%%%%%%%%====:::====::::::::==::::::::::::::::==========%%%%%%%%%%%%%%%%%%%%%%%%%%%%%%%%%%%%%%%%%%%%%%%%%%oooooooooooooooooooooooooooooooooooooo%%ooooooooooooo%%%ooooooooo%%%%%%%%%%%%%%%%%%%%%%%%%%%%%%%%%%%%ooooooooooooooooooooooooooooooooooooooooo@@+@@@@++@@@@+++@@oooooooooooooooooooooooooooooooooooooooooooooooooo",
"%%%%===%%%%%===%%%%%===%%%%%==%%%%=============%%%%====%===%%=%%%%oooooooooooooooooooooooooooooooooooooooooooooooooooooooooooo%%%%%%%%%%%%%%%%%%%%%%%%%%%oooooooo%%%%%%%ooooo%%%%%%%oooo%%%%%%%%%%%%%%%%%%%%%%%%%%%%%%%%%%%%%%%%%%%%%%%%%%%%%%%%%%%%%%%%%=====%%==%%%%==%%=%%%%%%%%%%%%%%%%%%%%%%%%%%%%%%%%%%%%%%%%%%%%%%%%%%%%%======::::::::<:<<:::::=======================%%%%%%%%%%%oooooo%%%%%%%%%%%%%%%%%%%%%%%%%%%%%%%%%ooooooooooooooooooooooooooooooooooooooooooooooooooooooooooooooooo%%%%%%%%%%%%%%%%%%%%%%%%%%%%%%%%%%%%oooooooooooooooooooooooooooooooooooooooooooo@@@@@@@@@@@@@+@oooooooooooooooooooooooooooooooooooooooooooooooooo",
"%%%%==%%%%%%==%%%%%%==%%%%%%==%%%%%%%%%%%%%%%%%%%%%%%%%%%%%%%%%%oooooooooooooooooooooooooooooooooooooooooooooooooooooooooooooo%%%%%%%%%%%%%%%%%%%%%%%%%oooooooooo%%%%%%%oooo%%%%%%%%oooo%%%%%%%%%%%%%%%%%%%%%%%%%%%%%%%%%%%%%%%%%%%%%%%%%%%%%%%%%%%%%%%%======%%===%%===%%=%%%%%%%%%%%%%%%%%%%%%%%%%%%%%%%%%%%%%%%%%%%%%%%%%%%%%======::::::::::::::::=:=====================%%%%%%%%%%%oooooooo%%%%%%%%%%%%%%%%%%%%%%%%%%%%%%%%ooooooooooooooooooooooooooooooooooooooooooooooooooooooooooooooooo%%%%%%%%%%%%%%%%%%%%%%%%%%%%%%%%%%%%oooooooooooooooooooooooooooooooooooooooooooo@@@@@@@@@@@@@@@oooooooooooooooooooooooooooooooooooooooooooooooooo",
"================================%%%%%%%%%%%%%%%%%%%%%%%%%%%%%%%%oooooooooooooooooooooooooooooooooooooooooooooooooooooooooooooo%%%%%%%%%%%%%%%%%%%%%%%%%ooooooooo@@@@@@@@@@@@@@@@@@@@@@+@@@@@@%%%%%%%%%%%%%%%%%%%%%%%%%%%%%%%%%%%%%%%%%%%%%%%%%%%%%%%%%%%%%=======%=%%%%%%=%%%%%%%%%%%%%%%%%%%%%%%%%%%%%%%%%%%%%%%%%%%%%%%%%%%%%===::::=========%========:::::::::===========%%%%%%%%%%%%ooooooooo%%%%%%%%%%%%%%%%%%%%%%%%%%%%%%oooooooooooooooooooooooooooooooooooooooooooooooooooooooooooooooooo%%%%%%%%%%%%%%%%%%%%%%%%%%%%%%%%%%%%oooooooooooooooooooooooooooooooooooooooooooooooo@@@@@@@@@@@oooooooooooooooooooooooooooooooooooooooooooooooooo",
"================================%%%%%===%%%%%%%%%%%%%%%%%%%%%%%%oooooooooooooooooooooooooooooooooooooooooooooooooooooooooooooo%%oo%%ooo%%%%%%%%%%%%%%%%ooooooooo@@@@@@@@@@@@@@@@@@@@@@+@@@@@@@@@@@%%%%%%%%%%%%%%%%%%%%%%%%%%%%%%%%%%%%%%%%%%===%%%%%===========================%%%%%%%%%%%%%%%%%%%%%%%%%%%%%%%%%%%%%%%%%%%%%%%%===::=========%%%%=%======::::::::===========%%%%%%%%%%%%ooooooooooo%%%%%%%%%%%%%%%%%%%%%%%%%%%%oooooooooooooooooooooooooooooooooooooooooooooooooooooooooooooooo%%%%%%%%%%%%%%%%%%%%%%%%%%%%%%%%%%%%%%%%%%%%oooooooooooooooooooooooooooooooooooooooooo@@@@@@@@@@@oooooooooooooooooooooo%%oooooooooooooooooooooooooo",
"=========================================%%%%%%%%%%%%%%%%%%%%%%%oooooooooooooooooooooooooooooooooooooooooooooooooooooooooooooooooooooooo%%ooooo%%%%%%%%ooooooooo@@@@@@@@@@@++@@@@@@@@@@+@@@@@@@@@@%%%%%%%%%%%%%%%%%%%%%%%%%%%%%%%%%%%%%%%%%====================================%=%%%%%%%%%%%%%%%%%%%%%%%%%%%%%%%%%%%%%%%%%%%%%%%%%==%=======::=:==========%%%%%==============%%%%%%%%%ooooooooooooo%%%%%%%%%%%%%%%%%%%%%%%%%%%%oooooooooooooooooooooooooooooooooooooooooooooooooooooooooooooooo%%%%%%%%%%%%%%%%%%%%%%%%%%%%%%%%%%%%%%%%%%%%ooooooooooooooooooooooooooooooooooooooooooooo@@@@@@@@oooooooo%%%%%%%%%ooo%%%%%%%%oooooooooooooooooooooo",
"=========================================%%%%%==%%%%%%%%%%%%%%%%ooooooooooooooooooooooooooooooooooooooooooooooooooooooooooooooooooooooooooooooo%%%%%%%%%%%%%%%%%@@@@@@@@@@+++@@@@@@@@@+@@@@@@@@@%%%%%%%%%%%%%%%%%%%%%%%%%%%%%%==%%%%%%%=%%%%=====================================%%%%%%%%%%%%%%%%%%%%%%%%%%%%%%%%%%%%%%%%%%%%%%%%%%%%%%====:::==========%%%%%%%%=============%%%%%%%%%ooooooooooooooooooooooooooooooooooooooooooooooooooooooooooooooooooooooooooooooooooooooooooooooooooooooooo%%%%%%%%%%%%%%%%%%%%%%%%%%%%%%%%%%%%%%%%%%%%ooooooooooooooooooooooooooooooooooooooooooooo@@@@@@@@o%%%oooo%%%%%%%%%%%%%%%%%%%%%%%%oooooooooooooooooo",
"=========================================%%%%%===%%%%%%%%%%%%%%%ooooooooooooooooooooooooooooooooooooooooooooooooooooooooooooooooooooooooooooooo%%%%%%%%%%%%%%%%%@@@@@@@@@@@@+@@@@@@@@@@@@@@@@@@@%%%%%%%%%%%%%%%%%%%%%%%%%%%%%======%%%%==========================================%%%%%%%%%%%%%%%%%%%%%%%%%%%%%%%%%%%%%%%%%%%%%%%%%%%%%%=======%=======================%%====%%%%%%%%%%oooooooooooooooooooooooooooooooooooooooooooooooooooooooooooooooooooooooooooooooooooooooooooooooooooooooooo%%%%%%%%%%%%%%%%%%%%%%%%%%%%%%%%%%%%%%%%%%%oooooooooooooooooooooooooooooooooooooooooooooo@@@@+ooo%%%%%%%%%%%%%%%%%%%%%%%%%%%%%%%oooooooooooooooooo",
"=========================================%%%%%==%%%%%%%%%%%%%%%%oooooooooooooooooooooooooooooooooooooooooooooooooooooooooooooooo@@@@@@@@@@@@@@@@@@@@@@@@@@@@@@@@@@@@@@@@@@@@@@@@@@@@@@@@@@@@@%%%%%%%%%%%%%%%%%%%%%%%%%%%%%%%====================::::=============================%%%%%%%%%%%%%%%%%oo%%%%%%%%%%%%%%%%%%%%%%%%%%%%%%%=%%==%=%%%%%%%%%%================%%%%%%%%%%%%%%%%%oooooooooooooooooooooooooooooooooooooooooooooooooooooooooooooooooooooooooooooooooooooooooooooooooooooooooooooo%%%%%%%%%%%%%%%%%%%%%%%%%%%%%%%%oooooooooooooooooooooooooooooooooooooooooooooooooooooo@@@@+ooo%%%%%%%%%%%%%%%%%%%%%%%%%%%%%%%oooooooooooooooooo",
"========================================%%%%%%=%%%%%%%%%%oooooooooooooooooooooooooooooooooooooooooooooo@ooooooooooooo@@@oooo++@@@+@@@@++@@@@@@@@@@@@@@@@@+@@@@@@++@@@@@@@@@@@@@@@@@@@@@@@@@@@oo%%%%%%%%%%%%%%%%%%%%%%%%=====::===========:::::==::::::==::======================%%%%%%%%%%%%%%%oooooooooooooooooooooooooooooo%%%%%%%%%%%%%%%%%==%%%========:::=====@%%%%%%%%%%%%%%%%%oooooooooooooooooooooooooooooooooooooooooooo%%%%%%%%%%%%%%%%%%%%%%%%%%%%%%%ooooooooooooooooooooooooooooooooo%%%%%%%%%%%%%%%%%%%%%%%%%%%%%%%oo%ooooooooooooooooooooooooooooooooooooooooooooooooooooooooooooo%%%%%%%%%%%%%%%%%%%%%%%%%%%%%%%%oooooooooooooooooo",
"=======================================%%%%%%%%%%%%%%%%%oooooooooooooooooooooooooooooooooooooooooo@@@@@@@@@@@@@@@@@@@@@@@@@@+@@@@++@@@@+@@@@+@@@@@@@@@@@@+@@@@@@@@@@@@@@@@@@@@@@@@@@@@@@@@@@@o%%%%%%%%%%%%%%%%%%%%%%%===::::::::::=:====::::::::::::::===:=====================%%%%%%%%%%%%%%%oooooooooooooooooooooooooooooooo%%%%==%===%%%%%%============:=::=====%%%%%%%%%%%%%%%%%%%%%%oooooooooooooooooooooooooooooooooooooooo%%%%%%%%%%%%%%%%%%%%%%%%%%%%%%%oooooooooooooooooooooooooooooooooo%%%%%%%%%%%%%%%%%%%%%%%%%%%%%%oooooooooooooooooooooooooooooooooooooooooooooooooooooooooooooooo%%%%%%%%%%%%%%%%%%%%%%%%%%%%%%%%oooooooooooooooooo",
"======================================%=%%%%%%%%%%%%%%%%ooooooooooooooooooooooooooooooooooooooooo@@@@@@@@@@@@@@@@@@@@@@@@@@@+@@@@@@@@@@@@+@@+@@@@@++@@@@@@@@@@@@@@@@@@@@@@@@@@@@@@@@@@@@@@@@@%%%%%%%%%%%%%%%%%%%%%=====::::<<:::::::===:::::::::::::::======================%%%%%%%%%%%ooooooooooooooooooooooooooooooooooooooo%%%%================================%%%%%%%%%%%%%%%%%%%%%%%ooooooooooooooooooooooooooooooooooooooo%%%%%%%%%%%%%%%%%%%%%%%%%%%%%%%%oooooooooooooooooooooooooooooooooooooooooooooooooooooooooooooooooooooooooooooooooooooooooooooooooooooooooooooooooooooooooooooooo%%%%%%%%%%%%%%%%%%%%%%%%%%%%%%%%oooooooooooooooooo",
"================================%%%%%%%%%%%%%%%%%%%%%ooooooooooooooooooooooooooooooooooooooooooo@@@@@@@@@@@@@@@@@@+@@@@+@@@@@@@@@@@@@@@@++@@@@@@@@+@@@@+@@@@@@@@@ooooooooo%%oooooooo%%ooooooo%%%%%%%====%%%%%%%%%====::::<<<<<:::::::=::::::::::::::::=====================%%%%%%%%%%%oooooooooooooooooooooooooooooooooooooooo%%%==============================%%%%%%%%%%%%%%%%%%%%%%%%%%%%%%%%ooooooooooooooooooooooooooooooooo%%%%%%%%%%%%%%%%%%%%%%%%%%%%%%%%oooooooooooooooooooooooooooooooooooooooooooooooooooooooooooooooooooooooooooooooooooooooooooooooooooooooooooooooooooooooooooooooo%%%%%%%%%%%%%%%%%%%%%%%%%%%%%%%%oooooooooooooooooo",
"================================%%%%%%%%%%%%%%%%%%%%%oooooooooooooooooooooooooooooooooooooooooo+@@@@@@++@@@@@@@@@@@@@@@+@@@@@@@@@@@@@@@@+@@@@@@@@@++@@@+@@@@@@@@@ooooo%oooooooo%oooooooo%%oooooo%======%=%%%%%%%====::::<<<<<<<::::::::::::::::::::::=======%%%%====%%%%==%%%%%%%%oooooooooooooooooooooooooooooooooooooooooooo%%%%================%===%%%%==%==%%%%%%%%%%%%%%%%%%%%%%%%%%%%%%%%ooooooooooooooooooooooooooooooooo%%%%%%%%%%%%%%%%%%%%%%%%%%%%%%%%oooooooooooooooooooooooooooooooooooooooooooooooooooooooooooooooooooooooooooooooooooooooooooooooooooooooooooooooooooooooooooooooo%%%%%%%%%%%%%%%%%%%%%%%%%%%%%%%%oooooooooooooooooo",
"================================%%%%%%%%%%%%%%%%%%%oooooooooooooooooooooooooooooooooooooooooooo+@@@@@@++@@@@+@@@@@@@@@++@@@@@+@@@@@@@@@@@@@@@@@@@@@+@@@@@@@@@@@@@o%%oo%%ooo%oo%%%ooooooo%%%o%%%%============%%=%=====::::<<<<<::::====::==:=::=============%%%%%%%%%%%%%%%%%%%%%%%oooooooooooooooooooooooooooooooooooooooooooo%%%%===============%%%%%%%%%%%%%%%%%%%%%%%%%%%%%%%%%%%%%%%%%%%%%%ooooooooooooooooooooooooooooooooo%%%%%%%%%%%%%%%%%%%%%%%%%%%%%%%%oooooooooooooooooooooooooooooooooooooooooooooooooooooooooooooooooooooooooooooooooooooooooooooooooooooooooooooooooooooooooooooooo%%%%%%%%%%%%%%%%%%%%%%%%%%%%%%%%oooooooooooooooooo",
"%%%%==%%%%%%%%%%%%%%==%%%%%%%%%%%%%%%%%%%%%%%%%%%%%ooooooooooooooooooooooooooooooooooooooooooo@@@@@@@@@@@@@@@+@@@@@@@@@@@@@@++@@@@@@@@++@@@@@@@@@@@@@@@@++@@@@@@@%%%oo%%%%%%%%%%%%%%%%%%%%oo%%%=:::<:::::===============::::::::============::==========%=%%%%%%%%%%%%%%%%%%%%%%%%%%oooooooooooooooooooooooooooooooooooooooooo%%%%============%=%%%%%%%%%%%%%%%%%%%%%%%%%%%%%%%%%%%%%%%%%%%%%%%ooooooooooooooooooooooooooooooooo%%%%%%%%%%%%%%%%%%%%%%%%%%%%%%%%oooooooooooooooooooooooooooooooooooooooooooooooooooooooooooooooooooooooooooooooooooooooooooooooooooooooooooooooooooooooooooooooo%%%%%%%%%%%%%%%%%%%%%%%%%%%%%%%%oooooooooooooooooo",
"%%%%%%%%%%%%%%%%%%%%%%%%%%%%%%%%%%%%%%%%%%%%%%%%%ooooooooooooooooooooooooooooooooooooooooooooo@@@@@@@@@@@@+@+@@@@@@@@@@@@+@@@@@@@+++@@+@@@@@@@@@@@@@@@@@@+++@@@@@%==%%========%%%%========%%===:<<<<<<:::::=======%%%%=================================%%%%%%%%%%%%%%%%%%%%%%%%%%%%%%ooooooooooooooooooooooooooooooooooooooooo%%%%%========%=%%%%%%%%%%%%%%%%%%%%%%%%%%%%%%%%%%%%%%%%%%%%%%%%%%ooooooooooooooooooooooooooooooooo%%%%%%%%%%%%%%%%%%%%%%%%%%%%%%%%oooooooooooooooooooooooooooooooooooooooooooooooooooooooooooooooooooooooooooooooooooooooooooooooooooooooooooooooooooooooooooooooo%%%%%%%%%%%%%%%%%%%%%%%%%%%%%%%%oooooooooooooooooo",
"%%%%%%%%%%%%%%%%%%%%%%%%%%%%%%%%%%%%%%%%%%%%oo%%oooooooooooooooo@@@ooooooooo@@@@oooo@@++@@oo@@@@@@@@@@@@@@@@@@@@@@@@@@@@@@@@@@@@@@++@@@@@@@@@@@@@@@@@@@@@@@@@@@@@==::::::===:::::::====:::::::::<<<<<<<:::::==%%%%%%ooo%%%%%%%%%%%================%%%==%%%%%%oooo%%%%%%%%%%%%%%%%%%%%%%%oooooooooooooooooooooooooooooooooooooo%%%%%=%%%=====%%%%%%%%%%%%%oooooo%%%%%%%%%%%%%%%%%%%%%%%%%%%%%%%%ooooooooooooooooooooooooooooooooo%%%%%%%%%%%%%%%%%%%%%%%%%%%%%%%%oooooooooooooooooooooooooooooooooooooooooooooooooooooooooooooooooooooooooooooooooooooooooooooooooooooooooooooooooooooooooooooooo%%%%%%%%%%%%%%%%%%%%%%%%%%%%%%%%oooooooooooooooooo",
"%%%%%%%%%%%%%%%%%%%%%%%%%%%%%%%%%%%%oo%%%%%%oo%ooooooooooooooooo@@@@@@@@@@@@@@@@@@@@@@++@@@@@@@@@@++@@@@@@@@@@@@@@@@@@@@@@@@@@@@@@+@@@@@@@@@@@@@@@@@@@@@@@@@@@@&&=::<<:::::::<::::::::::::<<<::<<<<<<<<<:::==%%%%%%oooooooooo%%%%%%%%==============%%%%%%%%%oooooo%%%%%%%%%%%%%%%%%%%%%%%o%ooooooooooooooooooooooooooooooooooo%%%%%%%%%%%%%%%%%%%%%%%%%%%%ooooo%o%%%%%%%%%%%%%%%%%%%%%%%%%%%%%%ooooooooooooooooooooooooooooooooo%%%%%%%%%%%%%%%%%%%%%%%%%%%%%%%%oooooooooooooooooooooooooooooooooooooooooooooooooooooooooooooooooooooooooooooooooooooooooooooooooooooooooooooooooooooooooooooooo%%%%%%%%%%%%%%%%%%%%%%%%%%%%%%%%oooooooooooooooooo",
"%%%%%%%%%%%%%%%%%%%%%%%%%%%%%%%%%%%%oooo%%%%ooooooooooooooooooo@@@@@@@@@@@+@@@@@@@@@@@@@@@@@@@++@@@++@@@@@@@@@@@@++@@@@@@@@@@@@@@@@@@@@@@@@@@@@@@++@@@@@@@@@@@&,<<::<:::<<<<<<::::<<<<<<:::<<<<<<<<<<:::=====%%%%oooooooooooooo%%%%%%%====%%%%%%==%%%%%%%ooooooooo%%%%%%%%%%%%%%%%%%%%%%%oo%%%%%oooooooooooooooooooooooooooooo%%%%%%%%%%%%%%%%%%%%%%%%%%%%%oooooo@@@@@@@@%%%%%%%%%%%%%%%%%%%%%%ooooooooooooooooooooooooooooooooo%%%%%%%%%%%%%%%%%%%%%%%%%%%%%%%%oooooooooooooooooooooooooooooooooooooooooooooooooooooooooooooooooooooooooooooooooooooooooooooooooooooooooooooooooooooooooooooooo%%%%%%%%%%%%%%%%%%%%%%%%%%%%%%%%oooooooooooooooooo",
"%%%%%%%%%%%%%%%%%%%%%%%%%%%%%%%%%%%%oooo%%%oooooooooooooooooooo@@@@@@@@@@@@@@@@@@@@@@@@@@@@@@@++@@@++@@@@@@@@@@@@++@@+++@@@@@@@@@@@@@@@@%%%%%%@@@@+@@@@&=%%%%=<33<<<<<::<<<<3<<::<<3<<<<::<<<<<<<:::::====%%%%ooooooooooooooooo%%%%%%%%%%%%%%%%%%%%%%%%%oooooooooo%%%%%%%%%%%%%%%%%%%%%%%%%%%%%%%ooooooooooooooooooooooooooooo%%%%%%%%%%%%%%%%%%%%%%%%%%%%%%%%%%@@@@@@@@@@@@@@@@%%%%%%%%%%%%%%%ooooooooooooooooooooooooooooooooo%%%%%%%%%%%%%%%%%%%%%%%%%%%%%%%%oooooooooooooooooooooooooooooooooooooooooooooooooooooooooooooooooooooooooooooooooooooooooooooooooooooooooooooooooooooooooooooooo%%%%%%%%%%%%%%%%%%%%%%%%%%%%%%%%oooooooooooooooooo",
"%%%%%%%%%%%%%%%%%%%%%%%%%%%%oooo%%%%%%%%%%%oooooooooooo@@@ooooo@@@@@@@@@@@@@@@@@@@@@@@@@@@++@@@@@@@@+@@@@@@@@@@@@@@@@@@@@@@@@@%%%%%%@%%%%%%%%%%%%%%%@%:<<:=%%=<3<<<<<<<<<<<<<<<<<<<<:<<<<<<<<<<:====%%%%%%oooooooooooooooooooo%%%%%%%%%%%%%%%%%%%%%%%%%%oooooooooo%%%%%%%%%%%%%%%%%%%%%%%%%%%%%oooooooooooooooooooooooooooooooo%%%%%%%%%%%%%%%%%%%%%%%%%%%%%%%%%@@@@@@@@@@@@@@@@%%%%%%%%%%%%%%%ooooooooooooooooooooooooooooooooo%%%%%%%%%%%%%%%%%%%%%%%%%%%%%%%%oooooooooooooooooooooooooooooooooooooooooooooooooooooooooooooooooooooooooooooooooooooooooooooooooooooooooooooooooooooooooooooooo%%%%%%%%%%%%%%%%%%%%%%%%%%%%%%%%oooooooooooooooooo",
"oooo%%oooooooooooooo%%oooooooooo@@@@@@@@@@@@@@@@@@@@@@@@@@@@@@@@@@@@@@@@@@@@@@@@@@@@@@@@@@@@@@@@@@@@@@@@@@@@@@@@@@@@@@%%%%%%%%%%%%%==%%%%%=======%%%%%:<<:=%%=:<:::<<<<<<::::<<<<<<<::::<<<<<::==%%ooooooooooooooooooooooooooo%%%%%%%%%%%%%%%%%%%%%%%%%%oooooooooo%%%%%%%%%%%%%%%%%%%%%%%%%%%%%ooooooooooooooooooooooooooooooooo%%%%%%%%%%%%%%%%%%%%%%%%%%%%%%%%@@@@@@@@@@@@@@&&@%%%%%%%%%%%%%%ooooooooooooooooooooooooooooooooo%%%%%%%%%%%%%%%%%%%%%%%%%%%%%%%%oooooooooooooooooooooooooooooooooooooooooooooooooooooooooooooooooooooooooooooooooooooooooooooooooooooooooooooooooooooooooooooooo%%%%%%%%%%%%%%%%%%%%%%%%%%%%%%%%oooooooooooooooooo",
"ooooooooooooooooooooooooooooooo@@@@@@@@@@@@@@@@@@@@@@@@@@@@@@@@@@@@@@@@@@@@@@@@@@@@@@@@+@@@@@@@@@@@@@@@@@@@@@%%%%%%%%%%%%%%%%%%%%=:<<:=%%=:<<<<<<:=%%%====%%%%==::::::::::<<::::::::<::::::=::==%%oooooooooooooooooooooooooo%%%%%%%%%%%%%%%%%%%%%%%%%ooooooooooooo%%%%%%%%%%%%%%%%%%%%%%%%%%%%%ooooooooooooooooooooooooooooooooo%%%oooo%%%%%%%%%%%%%%%%%%%%%%%%%@@@@@@@@@@@@@&>>=%%%%%%%%%%%%%%ooooooooooooooooooooooooooooooooo%%%%%%%%%%%%%%%%%%%%%%%%%%%%%%%%oooooooooooooooooooooooooooooooooooooooooooooooooooooooooooooooooooooooooooooooooooooooooooooooooooooooooooooooooooooooooooooooo%%%%%%%%%%%%%%%%%%%%%%%%%%%%%%%%oooooooooooooooooo",
"ooooooooooooooooooooooooooooooo@@@@@@@@@@@@@@@@@@@@@@@@@@@@@@@@@@@@@@@@@@@@@@@@@@@@@@@+@@@@@@@@@@@@@%%%%%%%%%%%%%%%%%%%%%%%%%%%==:<<<<:=%=:3333<<:=%%%%%%%%%%%%%=======:==:::======::::=:======%%ooooooooooooooooooooooooooo%%%%%%%%%%%%%%%%%%%%%%%ooooooooooooooooo%%%%%%%%%%%%%%%%%%%%%%%%%%%ooooooooooooooooooooooooooooooooo%%%%ooo%%%%%%%%%%%%%%%%%%%=%%%%%@@&@@@&&@@@@@=22=%%%%%%%%%%%%%%ooooooooooooooooooooooooooooooooo%%%%%%%%%%%%%%%%%%%%%%%%%%%%%%%%oooooooooooooooooooooooooooooooooooooooooooooooooooooooooooooooooooooooooooooooooooooooooooooooooooooooooooooooooooooooooooooooo%%%%%%%%%%%%%%%%%%%%%%%%%%%%%%%%oooooooooooooooooo",
"ooooooooooooooooooooooooooooooo@@+@@@@@@@@@@@@@@@@@@@@@@@@@@@@++@@@@@@@+@@@@@@@@@@@@@@@@@@@@@@@@@%%%%%%%%%%%%%%%%%%%%%%%%%%%%%%=<<:==:<:=%=:33:===%%%%%%%%%%%%%%%%=============================%ooooooooooooooooooooooooo%%%%%%%%%%%%%%%%%%%%%%%%%%ooooooooooooooooo%%%%%%%%%%%%%%%%%%%%%%%%%%%ooooooooooooooooooooooooooooooooo%%%%%%%%%%%%%%%%%%%%%%%===%%===%%=22==22=%%%%%==%%%%%%%%%%%%%%%ooooooooooooooooooooooooooooooooo%%%%%%%%%%%%%%%%%%%%%%%%%%%%%%%%oooooooooooooooooooooooooooooooooooooooooooooooooooooooooooooooooooooooooooooooooooooooooooooooooooooooooooooooooooooooooooooooo%%%%%%%%%%%%%%%%%%%%%%%%%%%%%%%%oooooooooooooooooo",
"ooooooooooooooooooooooooooooooo@@@@@@@@@@@@@@@@@@@@@@@@@@@@@@@@@@@@@@@@@+@@@@@@@@@@@@@@@@@@@@@@@@%%%%%%%%%%%%%%%%%%%%%%%%%%%%%%=<<=%=:<<=%%=33=%%%%%%%%%%%%%%%%%%%%%%===%%%%%%=====%%%%%===%=%%%ooooooooooooooooooooooooooooooo%%%%%%%%%%%%%%%%%%%%ooooooooooooooooo%%%%%%%%%%%%%%%%%%%%%oooooooo%%%%%%%%%%%%%%%%%%%%%%%%%%%%%%%%%%%%%%%%%%%%%%%%%%%%%%=%%%%==%%%=22==22=%%%%%%%%%%%%%%%%%%%%%%ooooooooooooooooooooooooooooooooo%%%%%%%%%%%%%%%%%%%%%%%%%%%%%%%%oooooooooooooooooooooooooooooooooooooooooooooooooooooooooooooooooooooooooooooooooooooooooooooooooooooooooooooooooooooooooooooooo%%%%%%%%%%%%%%%%%%%%%%%%%%%%%%%%oooooooooooooooooo",
"oooooooooooooooooooooooooooooooo+@@@@@@@@@@@@@@@@@@@@@@@@@@@@@@@@@@@@@@@@@@@@@@@@@@@@@@@@@@@@@@@@%%%%%%%%%%%%%%%%%%%%%%%%%%%%%%=3<==<<:=%%%=<3=%%%%%%%%%%%%%%%%%%%%%%%%%%%%%%%%%%%%%%%%%%%%%%%%%%%%%%%%%ooooooooooooooooooooooo%%%%%%%%%%%%%%%%%%%%ooooooooooooooo%%%%%%%%%%%%%%%%%%%%%%%oooooooo%%%%%%%%%%%%%%%%%%%%%%%%%%%%%%%%%%%%%%%%%%%%%%%%%%%%%%%%=====%%%%==%%==%%%%%%%%%%%%%%%%%%%%%%%ooooooooooooooooooooooooooooooooo%%%%%%%%%%%%%%%%%%%%%%%%%%%%%%%%oooooooooooooooooooooooooooooooooooooooooooooooooooooooooooooooooooooooooooooooooooooooooooooooooooooooooooooooooooooooooooooooo%%%%%%%%%%%%%%%%%%%%%%%%%%%%%%%%oooooooooooooooooo",
"oooooooooooooooooooooooooooooooo@@@@@@@@@@@@@@@@@@@@@@@@@@@@@@@@@@@@@@@@@@@@@@@@@@@@@@@@@@@@@@@%%%%%%%%%%%%%%%%%%%%%%%%%%%%%%%%=<<==<:=%%%%=::=%==%%%%%%%%%%%%%%%%%%%%%%%%%%%%%%%%%%%%%%%%%%%%%%%%%%%%%%ooo%%oooooooooooooooooo%%%%%%%%%%%%%%%%%%%%%%%%%%%%%%%%%%%%%%%%%%%%%%%%%%%%%%%%%%oooooooo%%%%%%%%%%%%%%%%%%%%%%%%%%%%%%%%%%%%%%%%%%%%%%%%%%%%%%%%%%=%%%%%ooo%%%%%%%%%%%%%%%%%%%%%%%%%%%ooooooooooooooooooooooooooooooooo%%%%%%%%%%%%%%%%%%%%%%%%%%%%%%%%oooooooooooooooooooooooooooooooooooooooooooooooooooooooooooooooooooooooooooooooooooooooooooooooooooooooooooooooooooooooooooooooo%%%%%%%%%%%%%%%%%%%%%%%%%%%%%%%%oooooooooooooooooo",
"oooooooooooooooooooooooooooooooo@@@@@@@@@+@@o@@@@@@@@@@@@@@@@@@@@@@@@@@@@@@@@@@@@@@@@@@@@@@@%%@%%%%%%%%%%%%%%%%%%%%%%%%%%%%%%%%==:<<==%%%%%%==%=::=%%%%%%%%%%%%%%%%%%%%%%=%%%%%%%%%%%%%%%%%%%%%%%%%%%%%%oo%%%oooooooooooooooooo%%%%==%%%%%%%%%%%%%%%%ooo%%%%%%%%%%%%%%%%%%%%%%%%%%%%%%%%%oooooooo%%%%%%%%%%%%%%%%%%%%%%%%%%%%%%%%%%%%%%%%%%%%%%%%%%%%%%%%%%@@@@%oooooooo%%%%%%%%%%%%%%%%%%%%%%%ooooooooooooooooooooooooooooooooo%%%%%%%%%%%%%%%%%%%%%%%%%%%%%%%%oooooooooooooooooooooooooooooooooooooooooooooooooooooooooooooooooooooooooooooooooooooooooooooooooooooooooooooooooooooooooooooooo%%%%%%%%%%%%%%%%%%%%%%%%%%%%%%%%oooooooooooooooooo",
"oooooooooooooooooooooooooooooooo@@@@@@@@+@@+oo@@@@@@@@@@@@@@@@@+@@@@@@@@++@@@@@@@@@@%%%%@@@@%%%%%%%%%%%%%%%%%%%%%%%%%%%%%%%%%%%%%=::=%%%%%%%==%=::=%==%%%%%%%%%%%%%%%%oo%%%%%%%%%%%%%%%%oo%%%%%%%%%%%%%oooooooo%oooooooooooooo%%%%==%=%%%%%%%%%ooooooooo%%%%%%%%%%%%%%%%%%%%%%%%%%%%%%%%%oooooooo%%%%%%%%%%%%%%%%%%%%%%%%%%%%%%%%%==%%%%==%%%%%%%%%%%%%@@@@@@@@@@@@@@++@@@@%%%%%%%%%%%%%%%%%%%%ooooooooooooooooooooooooooooooooo%%%%%%%%%%%%%%%%%%%%%%%%%%%%%%%%ooooooooooooooooooooooooooooooooooooooooooooooooooooooooooooooooooooooooooooooooooooooooooooooooooooooooooooooooooooooooooooooooo%%%%%%%%%%%%%%%%%%%%%%%%%%%%%%ooooooooooooooooooo",
"oooooooooooooooooooooooooooooooooooo%%ooooo%%%%%@%%%%%%%%=%%%%%%@@@@@@%@@@@@@@%%%@@@%%%%%%@@%%%%%%%%%%%%%%%%%%%%%%%%%%%%%%%%%%%%%%==%%%%%%%=::=%==%=::=%%%%%%%%%%%%%%%%%%%%%%%%%%%%%%%%%%%%%%%%%%%ooooooooooooo%%ooooooooooooo%%%%==%%%%%%%%%%%ooooooooo%%%%%%%%%%%%%%%%%%%%%%%%%%%%%%%%%oooooooo%%%%%%%%%%%%%%%%%%%%%%%%%%%%%%%%=========%%%%%%%%%%%%%@@@@@@@@@@@@@@@@@@@@@@@@@@%%%%%%%%%%%%%%ooooooooooooooooooooooooooooooooo%%%%%%%%%%%%%%%%%%%%%%%%%%%%%%%%oooooooooooooooooooooooooooooooooooooooooooooooooooooooooooooooooooooooooooooooooooooooooooooooooooooooooooooooooooooooooooooooo%%%%%%%%%%%%%%%%%%%%%%%%%%%%%%%%oooooooooooooooooo",
"oooooooooooooooooooooooooooooooooooo%%%ooo%%%%%%%%%%%%%%==%%%%%%%%%%%%%%o%%%%%%%%%%%%%%%%%%%%%%%%%%%%%%%%%%%%%%%%%%%%%%%%%%%%%%%%%%%%%%%%%%=::=%%%%=::=%%%%%%%%%%%%%%%%%%%%%%%%%%%%%%%%%%%%%%%%%ooooooooooooooooooooo%%oooo%%%%%%%%=%%%%%%%oooooooooooooooo%%%%%%%%%%%%%%%%%%%%%%%%%%%%%%oooo%%%%%%%%%%%%%%%%%%%%%%%%%%%%%%%%%%%%=========%%%%%%%%%%%o@@@@@@@@@@@@@@@@@@@@@@@@@@@@@%%%%%%%%%%%%ooooooooooooooooooooooooooooooooo%%%%%%%%%%%%%%%%%%%%%%%%%%%%%%%%ooooooooooooooooooooooooooooooooooooooooooooooooooooooooooooooooooooooooooooooooooooooooooooooooooooooooooooooooooooooooooooooooo%%%%%%%%%%%%%%%%%%%%%%%%%%%%%%ooooooooooooooooooo",
"oooooooooooooooooooooooooooooooooo%%%%%%%%%%%%%%%%==%%%%==%%%%==%%%%%%%%%%%%%%%%%%%%%%%%%%%%%%%%%%%%%%%%%%%%%%%%%%%%%%%%%%%%%%%%%%%%%%%%%%%%==%%%%%%==%%%%%%%%%%%%%ooooooo%%%%%%%%%%%%ooooooo%%oooooooooooooooooooooo%%oooo%%%%%%%%%%%%%%%%oooooooooooooooo%%%%%%%%%%%%%%%%===%%%%%%%%%%%oooo%%%%%%%%%%%%%%%%%%%%%%%%%%%%%%%%%%%%%===%%%%%%%%%%%ooooo@+@@@@@@@@@@@@@@@@@@+@@@@@@@@@%%%%%%%%%%%%ooooooooooooooooooooooooooooooooo%%%%%%%%%%%%%%%%%%%%%%%%%%%%%%%%ooooooooooooooooooooooooooooooooooooooooooooooooooooooooooooooooooooooooooooooooooooooooooooooooooooooooooooooooooooooooooooooooo%%%%%%%%%%%%%%%%%%%%%%%%%%%%%%ooooooooooooooooooo",
"%%%%%%%%oo%%%%%%%%%%%%%%%%%%%%%%%%%%%%%%%%%%==%=================%%%%%%%%%%%%%%%%%%%%%%%%%%%%%%%%%%%%%%%%%%%%%%%%%%%%%%%%%%%%%%%%%%%%%%%%%%%%%%%%%%%%%%%%%%%%%%%%%%oooooooo%%ooo%%ooo%%oo%%oooooooooooooooooooooooooooooooooooo%%%%%%%%%%%oooooooooooooooooooo%%%%%%%%%%%%=====%%%%%%%%%%%%oo%%%%%%%%%%%%%%%%%%%%%%%%%%%%%%%%%%%%%%%%%%%%%%%%%%%%ooooo@+@@@@@@@@@@@@@@@@@@@@@@@@@@@@@%%%%%%%%%%%ooooooooooooooooooooooooooooooooo%%%%%%%%%%%%%%%%%%%%%%%%%%%%%%%%ooooooooooooooooooooooooooooooooooooooooooooooooooooooooooooooooooooooooooooooooooooooooooooooooooooooooooooooooooooooooooooooooo%%%%%%%%%%%%%%%%%%%%%%%%%%%%%%ooooooooooooooooooo",
"%%%%%%%%%%%%%%%%%%%%%%%%%%%%%%%%%%%%%%%%%%%======================%=%%%%%%%%%%%%%%%%%%%%%%%%%%%%%%%%%%%%%%%%%%%%%%%%%%%%%%%%%%%%%%%%%%%%%%%%%%%%%%%%%%%%%%%%%%%%%%ooooo%%ooo%ooo%%ooo%ooo%%oooooooooooooooooooooooooooooooooooo%%%%%%%%%%%oooooooooooooooooooo%%%%%%%%%%%%%%%%%%%%%%%%%%%%%%%%%%%%%%%%%%%%%%%%%%%%%%%%%%%%%%%%%%%%%%%%%%%%%%%%%%%ooooo@@@@@@@@@@@@@++@@@@+@@@@@@@@@@@%%%%%%%%%%%ooooooooooooooooooooooooooooooooo%%%%%%%%%%%%%%%%%%%%%%%%%%%%%%%%ooooooooooooooooooooooooooooooooooooooooooooooooooooooooooooooooooooooooooooooooooooooooooooooooooooooooooooooooooooooooooooooooo%%%%%%%%%%%%%%%%%%%%%%%%%%%%%%ooooooooooooooooooo",
"%%%%%%%%%%%%%%%%%%%%%%%%%%%%%%%%%%%%%%%%%%%========================%%%%%%%%%%%%%%%%%%%%%%%%%%%%%%%%%%%%%%%%%%%%%%%%%%%%%%%%%%%%%%%%%%%%%%%%%%%%%%%%%%%%%%%%%%%%%%ooooo%%ooo%ooo%%ooo%ooo%%ooooooooooooooooooooooooooooooooooooo%%%%%%%%%%oooooooooooooooooooo%%%%%%%%%%%%%%%%%%%==%%%%==%%%%%%%%%%%%%%%%%%%%%%%%%%%%%%%%%%%%%%%o%%%%%%%%%%oooo%%oooo@@@@@@@@@++@@++@++@@@@@@@@@@@@@%%%%%%%%%%%%ooooooooooooooooooooooooooooooooo%%%%%%%%%%%%%%%%%%%%%%%%%%%%%%%%ooooooooooooooooooooooooooooooooooooooooooooooooooooooooooooooooooooooooooooooooooooooooooooooooooooooooooooooooooooooooooooooooo%%%%%%%%%%%%%%%%%%%%%%%%%%%%%%ooooooooooooooooo@@",
"%%%%%%%%%%%%%%%%%%%%%%%%%%%%%%%%%%%%%%%%%%%========================%%%%%%%%%%%%%%%%%%%%%%%%%%%%%%%%%%%%%%%%%%%%%%%%%%%%%%%%%%%%%%%%%%%%%%%%%%%%%%%%%%%%%%%%%%%%%%oooooo%oo%%ooo%%ooo%%oo%ooooooooooooooooooooooooooooooooooooo%%%%%%%%%%%oooooooooooooooooooo%%%%%%%%%%%%%==============%%==%%%%%%%%%%%%%%%%%%%%%%%%%%%%%%%%%%%o%ooo%%%%ooooooo%%ooo@@@@@@@@@@@@@@@@@@@@@@@@@@@@@@@%%%%%%%%%%%%ooooooooooooooooooooooooooooooooo%%%%%%%%%%%%%%%%%%%%%%%%%%%%%%%%ooooooooooooooooooooooooooooooooooooooooooooooooooooooooooooooooooooooooooooooooooooooooooooooooooooooooooooooooooooooooooooooooo%%%%%%%%%%%%%%%%%%%%%%%%%%%%%%oooooooooooooooo@@@",
"%%%%%%%%%%%%%%%%%%%%%%%%%%%%%%%%%%%%%%%%%%%=%=====================%%%%%%%%%%%%%%%%%%%%%%%%%%%%%%%%%%%%%%%%%%%%%%%%%%%%%%%%%%%%%%%%%%%%%%%%%%%%%%%%%%%%==%%%%%%%%%%%%ooo%%%%%%%%%%%%%%%%%%oooooooooooooooooooooooo%%%%ooooooooo%%%%%%%%%%%%oooooooooooooooooo%%%%%%%%%%%%%%===============%%=%%%%=%%%%%%%%%%%%%%%%%%%%%%%%%%%%%%%oooo%%ooooooooo%%ooo@@@@@@@@@@@@@@@@@@@@@@@@@@@@@%%%%%%%%%%%%%%ooooooooooooooooooooooooooooooooo%%%%%%%%%%%%%%%%%%%%%%%%%%%%%%%%ooooooooooooooooooooooooooooooooooooooooooooooooooooooooooooooooooooooooooooooooooooooooooooooooooooooooooooooooooooooooooooooooo%%%%%%%%%%%%%%%%%%%%%%%%%%%%%%oooooooooooooooo@@@",
"%%%%%%%%%%%%%%%%%%%%%%%%%%%%%%%%%%%%%%%%%%%%%%%%=================%%%%%%%%%%%%%%%%%%%%%%%%%%%%%%%%%%%%%%%%%%%%%%%%%%%%%%%%%%%%%%%%%%%%%%%%%%%%%%%%%%%%=<<=%%%%%%%%%%%%%%%%%%%%%%%%%%%%%%%%%%%%%ooooooooooooooooooo%%%%ooooooooo%%%%%%%%%%%%oooooooooooooooooo%%%%%%%%%%%%%%%=%%%===================%%%%%%%%%%%%%%%%%%%%%%%%%%%%%%ooooooooooooooo%%ooo@@++@@@@++@@@@@@@@@@++@@@@%%%%%%%%%%%%%%%%%ooooooooooooooooooooooooooooooooo%%%%%%%%%%%%%%%%%%%%%%%%%%%%%%%%ooooooooooooooooooooooooooooooooooooooooooooooooooooooooooooooooooooooooooooooooooooooooooooooooooooooooooooooooooooooooooooooooo%%%%%%%%%%%%%%%%%%%%%%%%%%%%%%oooooooooooooooo@@@",
"%%%%%%%%%%%%%%%%%%%%%%%%%%%%%%%%%%%%%%%%%%%%%%%%%==============%%%%%%%%%%%%%%%%%%%%%%%%%%%%%%%%%%%%%%%%%%%%%%%%%%%%%%%%%%%%%%%%%%%%%%%%%%%%%%%%%%%%%%=<<=%%%%%%%%%%%%%%%%%%%%%%%%%%%%%%%%%%%%%%%ooooooooooooooooo%%%%%%%%ooooo%%%%%%%%%%%%%%%%%%ooooooooo%%%%%%%%%%%%%%%%%%==%%%=================%%%%%%%%%%%%%%%%%%%%%%%%%%%%%%%ooooooooooooooo%%oooo@+@@@@++@@@@@@++@@@@@oo%%%%%%%%%%%%%%%%%%%ooooooooooooooooooooooooooooooooo%%%%%%%%%%%%%%%%%%%%%%%%%%%%%%%%ooooooooooooooooooooooooooooooooooooooooooooooooooooooooooooooooooooooooooooooooooooooooooooooooooooooooooooooooooooooooooooooooooooooooooooooooooooooooooooooooooooooooooooooo@@@",
"%%%%%%%%%%%%%%%%%%%%%%%%%%%%%%%%%%%%%%%%%%%%%%%%====%=========%%%%%%%%%%%%%%%%%%%%%%%%%%%%%%%%%%%%%%%%%%%%%%%%%%%%%%%%%%%%%%%%%%%%%%%%%%%%%%%%%%%%%%%%==%%%%%%%%%%%%%%%%%%%%%%%%%%%%%%%%%%%%%%%%%%ooooooooooooooo%%%%%%%%oooooo%%%%==%%%%%%%%%%%%%%%%%%%%%%%%%%%%%%%%%%%%%%%%%%%=================%%%%%%%%%%%%%%%%%%%%%%%%%%%%%%%ooooooooooooooo%%oooooooo%%%%%%%@ooooooooo%%%%%%%%%%%%%%%%%%%%%o%%%%%%%%%%%%%%%%%%%%%%%%%%%%%%%%%%%%%%%%%%%%%%%%%%%%%%%%%%%%%%%%oooooooooooooooooooooooooooooooooooooooooooooooooooooooooooooooooooooooooooooooooooooooooooooooooooooooooooooooooooooooooooooooooooooooooooooooooooooooooooooooooooooooooooooooo@@",
"%%%%%%%%%%%%%%%%%%%%%%%%%%%%%%%%%%%%%%%%%%%%%%%%%%%%%%%%%%%%%%%%%%%%%%%%%%%%%%%%%%%%%%%%%%%%%%%%o%%%%%%%%%%%%%%%%%%%%%%%%%%%%%%%%%%%%%%%%%%%%%%%%%%%%%%%%%%%%%%%%%%%%%%%%%%%%%%%%%%%%%%%%%%%%%%%%%%oooooooooooooo%%%%%%%%ooooo%%%=====%%%%%%%%%%%%%%%%%%%%%%%%%%%ooooooo%%%%%%%%================%%%%%%%%%%%%%%%%%%%%%%%%%%%%%%%%ooooooooooooooo%%%%%%%%%%%%%%%%%%%%%%%%%%%%%%%%%%%%%%%%%%%%%%%%%%%%%%%%%%%%%%%%%%%%%%%%%%%%%%%%%%%%%%%%%%%%%%%%%%%%%%%%%%%%%%%%%oooooooooooooooooooooooooooooooooooooooooooooooooooooooooooooooooooooooooooooooooooooooooooooooooooooooooooooooooooooooooooooooooooooooooooooooooooooooooooooooooooooooooooooooooo",
"%%%%%%%%%%%%%%%%%%%%%%%%%%%%%%%%%%%%%%%%%%%%%%%%%%%%%%%%%%%%%%%%%%o%ooooooooooooooooooooooooooo%o%%%%%%%%%%%%%%%%%%%%%%%%===%%%%%%%%%%%%%%%%%%%%%%%%%%%%%%%%%%%%%%%%%%%%%%%%%%%%%%%%%%%%%%%%%%%%%%%ooooooooo%%ooo%%%%ooooooooo%%%==============%%%%%%%%%%%%%%%%%%ooooooo%%%%%%%%%%=%=%%========%%%%%%%%%%%%%%%%%%%%%%%%%%%%%%%%%ooooooooooooooo%%%%%%%%%%%%%%%%%%%%%%%%%%%%%%%%%%%%%%%%%%%%%%%%%%%%%%%%%%%%%%%%%%%%%%%%%%%%%%%%%%%%%%%%%%%%%%%%%%%%%%%%%%%%%%%%%oooooooooooooooooooooooooooooooooooooooooooooooooooooooooooooooooooooooooooooooooooooooooooooooooooooooooooooooooooooooooooooooooooooooooooooooooooooooooooooooooooooooooooooooooo",
"%%%%%%%%%%%%%%%%%%%%%%%%%%%%%%%%%%%%%%%%%%%%%%%%%%%%%%%%%%%%%%%%ooooooooooooooooooooooooooooooooo%%%%%%%%%%%%%%%%%%%%%%%======%%%%%%o%oooooooooooooooooooooooooo%%%%%%%%%%%%%%%%%%%%%%%%%%%%%%%%oo%%%%%%%%%%%%%o%%oooooooo%%%%%%%%==============%%%%%%%%%%%%%%%%%oooooooo%%%%%%%%%=%%%%%=======%%%%%%%%%%%%%%%%%%%%%%%%%%%%%%%%%%%%%%%%%%%%%%%%%%%%%%%%%%%%%%%%%%%%%%%%%%%%%%%%%%%%%%%%%%%%%%%%%%%%%%%%%%%%%%%%%%%%%%%%%%%%%%%%%%%%%%%%%%%%%%%%%%%%%%%%%%%%%%%%%oooooooooooooooooooooooooooooooooooooooooooooooooooooooooooooooooooooooooooooooooooooooooooooooooooooooooooooooooooooooooooooooooooooooooooooooooooooooooooooooooooooooooooooooo@o",
"%%%%%%%%%%%%%%%%%%%%%%%%%%%%%%%%%%%%%%%%%%%%%%%%%%%%%%%%%%%%%%%%ooooooooooooooooooooooooooooooooo%%%%%%%%%%%%%%%%%%%%%%%%%%===%%%%oooooooooooooooooooooooooooooo%%%%%%%%%%%%%%%%%%%%%%%%%%%%%%ooo%%%%%%%%%%%%%%%%%ooo%%%%%%%%%%%%%===============%%%%%%%%%%%%%%%%oooooooo%%%%%%%%%%%===%======%%=%%%%%%%%%%%%%%%%%%%%%%%%%%%%%%%%%%%%%%%%%%%%%%%%%%%%%%%%%%%%%%%%%%%%%%%%%%%%%%%%%%%%%%%%%%%%%%%%%%%%%%%%%%%%%%%%%%%%%%%%%%%%%%%%%%%%%%%%%%%%%%%%%%%%%%%%%%%%%%%oooooooooooooooooooooooooooooooooooooooooooooooooooooooooooooooooooooooooooooooooooooooooooooooooooooooooooooooooooooooooooooooooooooooooooooooooooooooooooooooooooooooooooooooo@o",
"%%%%%%%%%%%%%%%%%%%%%%%%%%%%%%%%%%%%%%%%%%%%%%%%%%%%%%%%%%%%%%%%ooooooooooooooooooooooooooooooooo%%%%%%%%%%%%%%%%%%%%%%%%%%===%%%oooooooooooooooooooooooooooooooo%%%%%%%%%%%%%%%%%%%%%%%%%%%%%ooo%%%%%%%%=%%%%%%%%%oo%%%%%%%%%%%%%===============%%%%%%%%%%%%%%%ooooooooo%%%%%%%%%%%===%======%%=%%%%%%%%%%%%%%%%%%%%%%%%%%%%%%%%%%%%%%%%%%%%%%%%%%%%%%%%%%%%%%%%%%%%%%%%%%%%%%%%%%%%%%%%%%%%%%%%%%%%%%%%%%%%%%%%%%%%%%%%%%%%%%%%%%%%%%%%%%%%%%%%%%%%%%%%%%%%%%%oooooooooooooooooooooooooooooooooooooooooooooooooooooooooooooooooooooooooooooooooooooooooooooooooooooooooooooooooooooooooooooooooooooooooooooooooooooooooooooooooooooooooooooooo@@",
"%%%%%%%%%%%%%%%%%%%%%%%%%%%%%%%%%%%%%%%%%%%%%%%%%%%%%%%%%%%%%%%%ooooooooooooooooooooooooooooooooo%%%%%%%%%%%%%%%%%%%%%%=%%%===%%%oooooooooooooooooooooooooooooooo%%%%%%%%%%%%%%%%%%%%%%%%%%%%%%%%%oo%%%%%%====%%%%%%%ooo%%%%%%%%=================%%%%%%%%%%%%%%%ooooooooo%%%%%%%%%====%%======%@=%%%%%%%%%%%%%%%%%%%%%%%%%%%%%%%%%%%%%%%%%%%%%%%%%%%%%%%%%%%%%%%%%%%%%%%%%%%%%%%%%%%%%%%%%%%%%%%%%%%%%%%%%%%%%%%%%%%%%%%%%%%%%%%%%%%%%%%%%%%%%%%%%%%%%%%%%%%%%%%oooooooooooooooooooooooooooooooooooooooooooooooooooooooooooooooooooooooooooooooooooooooooooooooooooooooooooooooooooooooooooooooooooooooooooooooooooooooooooooooooooooooooooooooooo",
"%%%%%%%%%%%%%%%%%%%%%%%%%%%%%%%%%%%%%%%%%%%%%%%%%%%%%%%%%%%%%%%%%%%%%%%%%%%%%%%%%%%%%%%%%%%%%%%%%%%%%%%%%%%%%%%%%%%%%%%=%%%==%%%%ooooooo%%%%%%%%%%%%%%%%oooooo%%%%%%%%%%%%%%%%%%%%%%%%%%%%%%%%%%%%%%%%%%%%====%%%%%%%%o%%%%%%%%%===============%=%%%%%%%%%%%%%%%ooooooooo%%%%%%%%%%===%%==&&==%%=%%%%%%%%%%%%%%%%%%%%%%%%%%%%%%%%%%%%%%%%%%%%%%%%%%%%%%%%%%%%%%%%%%%%%%%%%%%%%%%%%%%%%%%%%%%%%%%%%%%%%%%%%%%%%%%%%%%%%%%%%%%%%%%%%%%%%%%%%%%%%%%%%%%%%%%%%%%%%%%oooooooooooooooooooooooooooooooooooooooooooooooooooooooooooooooooooooooooooooooooooooooooooooooooooooooooooooooooooooooooooooooooooooooooooo@@@ooooooooooooo@@oooooooooooooooooooo",
"%%%%%%%%%%%%%%%%%%%%%%%%%%%%%%%%%%%%%%%%%%%%%%%%%%%%%%%%%%%%%%%%%%%%%%%%%%%%%%%%%%%%%%%%%%%%%%%%%%%%%%%%%%%%%%%%%%%%%%%%%%%%%%%%%ooo%%%o%%%%%%%%%%%%%%%%oooooo%%%%%%%%======%%==%%%%=%%%%====%%%%%%%%%%%%=%%%%%%%%%%%%%%%%%%==%%=%==============%%%%%%%%%%%%%%%%ooooooooo%%%%%%%%%=%%%%=%=====%%=%%%%%%%%%%%%%%%%%%%%%%%%%%%%%%%%%%%%%%%%%%%%%%%%%%%%%%%%%%%%%%%%%%%%%%%%%%%%%%%%%%%%%%%%%%%%%%%%%%%%%%%%%%%%%%%%%%%%%%%%%%%%%%%%%%%%%%%%%%%%%%%%%%%%%%%%%%%%%%%oooooooooooooooooooooooooooooooooooooooooooooooooooooooooooooooooooooooooooooooooooooooooooooooooooooooooooooooooooooooooooooooooooooo@@+++@@@oooooooo@@@@@@@@oooooooooooooooooo@@",
"%%%%%%%%%%%%%%%%%%%%%%%%%%%%%%%%%%%%%%%%%%%%%%%%%%%%%%%%%%%%%%%%%%%%%%%%%%%%%%%%%%%%%%%%%%%%%%%%%%%%%%%%%%%%%%%%%%%%%%%%%%%%%%%%%%%%%%%%%%%%%%%%%%%%%%%%%%%%%%%%%%%%%%==%==%%%%=%%%%=%%%%=====%%%%%%%%%%%=%%%%%%%%%%%%%%%%%%==%%=============%%%%%%%%%%%%%%%%%%%ooooooo%%%%%%%%%%%====%%%%====%%=%%%%%%%%%%%%%%%%%%%%%%%%%%%%%%%%%%%%%%%%%%%%%%%%%%%%%%%%%%%%%%%%%%%%%%%%%%%%%%%%%%%%%%%%%%%%%%%%%%%%%%%%%%%%%%%%%%%%%%%%%%%%%%%%%%%%%%%%%%%%%%%%%%%%%%%%%%%%%%%oooooooooooooooooooooooooooooooooooooooooooooooooooooooooooooooooooooooooooooooooooooooooooooooooooooooooooooooooooooooooooooooo@@@@@@@@+@@@@@+@@@@@@@@@@@@@@@@@oooooooooooooooo@@",
"%%%%%%%%%%%%%%%%%%%%%%%%%%%%%%%%%%%%%%%%%%%%%%%%%%%%%%%%%%%%%%%%%%%%%%%%%%%%%%%%%%%%%%%%%%%%%%%%%%%%%%%%%%%%%%%%%%%%%%%%%%%%%%%%%%%%%%%%%%%%%%%%%%%%%%%%%%%%%%%%=%================================%%%%%%%%%%%%%%%%===%%%=%%%%%%%=============%%%%%%%%%%%%%%%%%%%ooooooo%%%%%%%%%%%=====%%%====%%%%%%%%%%%%%%%%%%%%%%%%%%%%%%%%%%%%%%%%%%%%%%%%%%%%%%%%%%%%%%%%%%%%%%%%%%%%%%%%%%%%%%%%%%%%%%%%%%%%%%%%%%%%%%%%%%%%%%%%%%%%%%%%%%%%%%%%%%%%%%%%%%%%%%%%%%%%%%%%%oooooooooooooooooooooooooooooooooooooooooooooooooooooooooooooooooooooooooooooooooooooooooooooooooooooooooooooooooooooooooooooooo@@@@@@@@@@@@@@@@@@@@@@@@@@@++@+@@@ooooooooooooooo@@",
"%%%%%%%%%%%%%%%%%%%%%%%%%%%%%%%%%%%%%%%%%%%%%%%%%%%%%%%%%%%%%%%%%%%%%%%%%%%%%%%%%%%%%%%%%%%%%%%oooooooooo%%%%%%%%%%%%%%%%%%%%%%%%%%%%%%%%ooo%oooooooooo%%%%%%%%%==================================%%%%%%%o%%%%%%%%====%%%%%%o%%%=============%%%%%%%%%%%%%%%%%%%%%%%%%%%%%%%%%%%%%%===%%%%====%%%%%%%%%%%%%%%%%%%%%%%%%%%%%%%%%%%%%%%%%%%%%%%%%%%%%%%%%%%%%%%%%%%%%%%%%%%%%%%%%%%%%%%%%%%%%%%%%%%%%%%%%%%%%%%%%%%%%%%%%%%%%%%%%%%%%%%%%%%%%%%%%%%%%%%%%%%%%%%%%oooooooooooooooooooooooooooooooooooooooooooooooooooooooooooooooooooooooooooooooooooooooooooooooooooooooooooooooooooooooooooooooo@@@@@@@@@@@@@@@@@@@@@@@@@@++@++@@@ooooooooooooooo@@",
"%%%%%%%%%%%%%%%%%%%%%%%%%%%%%%%%%%%%%%%%%%%%%%%%%%%%%%%%%%%%%%%%%%%%%%%%%%%%%%%%%%%%%%%%%%%%%%%oooooooooo%%%%%%%%%%%%%%%%%%%%%%%%%%%%%%%%oooooooooooo%%%%%%%%%=================================%==%%%%oo%%ooo%%%%%%%%%%%%%%%o%%%%%======%%%%%%%%%%%%%%%%%%%%%%%%%%%%%%%%%%%%%%%%%%%%%%%%%%====%%%%%%%%%%%%%%%%%%%%%%%%%%%%%%%%%%%%%%%%%%%%%%%%%%%%%%%%%%%%%%%%%%%%%%%%%%%%%%%%%%%%%%%%%%%%%%%%%%%%%%%%%%%%%%%%%%%%%%%%%%%%%%%%%%%%%%%%%%%%%%%%%%%%%%%%%%%%%%%%%oooooooooooooooooooooooooooooooooooooooooooooooooooooooooooooooooooooooooooooooooooooooooooooooooooooooooooooooooooooooooooooooo@@@@@@@@@@@@@@@++@@@@@@@@@@@@@@@@@@ooooooooo@oooo@@",
"%%%%%%%%%%%%%%%%%%%%%%%%%%%%%%%%%%%%%%%%%%%%%%%%%%%%%%%%%%%%%%%%%%%%%%%%%%%%%%%%%%%%%%%%%%%%%%%oooooooooo%%%%%%%%%%%%%%%%%%%%%%%%%%%%%%%%%oooooooooo%%%%%%%%%%================================%%=%%%%%oo%ooooo%%%%%%%%%%%%%%%%%%%%======%%%%%%%%%%%%%%%%%%%%%%%%%%%%%%%%%%%%%%%%%%%%%%%%%%====%%%%%%%%%%%%%%%%%%%%%%%%%%%%%%%%%%%%%%%%%%%%%%%%%%%%%%%%%%%%%%%%%%%%%%%%%%%%%%%%%%%%%%%%%%%%%%%%%%%%%%%%%%%%%%%%%%%%%%%%%%%%%%%%%%%%%%%%%%%%%%%%%%%%%%%%%%%%%%%%%oooooooooooooooooooooooooooooooooooooooooooooooooooooooooooooooooooooooooooooooooooooooooooooooooooooooooooooooooooooooooooooooo@@@@@@@@@@+@@@@@+@@@@@@@@@@@@@@@@@@@@@@@@@@@@@@@@@@",
"%%%%%%%%%%%%%%%%%%%%%%%%%%%%%%%%%%%%%%%%%%%%%%%%%%%%%%%%%%%%%%%%%%%%%%%%%%%%%%%%%%%%%%%%%%%%%%%oooooooooo%%%%%%%%%%%%%%%%%%%%%%%%%%%%%%%%%%%%%%%%%%%%%%%%%%%%%%%%%%===%=%%%%%%%%==%==%=%%%%====%%%%%%%oooooooo%%%%%%%%%%%%%%%%%%%%======%%%%%%%%%%%%%%%%%%%%%%%%%%%%%%%%%%%%%%%%%%%%%%%%======%%%%%%%%%%%%%%%%%%%%%%%%%%%%%%%%%%%%%%%%%%%%%%%%%%%%%%%%%%%%%%%%%%%%%%%%%%%%%%%%%%%%%%%%%%%%%%%%%%%%%%%%%%%%%%%%%%%%%%%%%%%%%%%%%%%%%%%%%%%%%%%%%%%%%%%%%%%%%%%%%oooooooooooooooooooooooooooooooooooooooooooooooooooooooooooooooooooooooooooooooooooooooooooooooooooooooooooooooooooooooooooooooo@@@+@@@@@@+@@@@@+@@+@@@@@@@@@@@@@@@@@@@@@@@@@@@@@@@",
"%%%%%%%%%%%%%%%%%%%%%%%%%%%%%%%%%%%%%%%%%%%%%%%%%%%%%%%%%%%%%%%oooooooooooooooooooooooooooooooo%%%%%%%%%%%%%%%%%%%%%%%%%%%%%%%%%%%%%%%%%%%%%%%====%%=%%%%%%%%%%%%%%%%%%%%%%%%%%%%%%%%%%%%%%%%%%%%%%%%%%%%o%%%%%%%%%%%%%%%%%%%%%%%%%==%=%%%%%%%%%%%%%%%%%%%%%%%%%%%%%%%%%%%%%%%%%%%%%%=%=======%%%%%%%%%%%%%%%%%%%%%%%%%%%%%%%%%%%%%%%%%%%%%%%%%%%%%%%%%%%%%%%%%%%%%%%%%%%%%%%%%%%%%%%%%%%%%%%%%%%%%%%%%%%%%%%%%%%%%%%%%%%%%%%%%%%%%%%%%%%%%%%%%%%%%%%%%%%%%%%%%oooooooooooooooooooooooooooooooooooooooooooooooooooooooooooooooooooooooooooooooooooooooooooooooooooooooooooooooooooooooooooooooo@@@++@@@@@@@@@@@@@@++@@@@@@@+@@@@@@@@@@@@@@@@@@@@@@",
"%%%%%%%%%%%%%%%%%%%%%%%%%%%%%%%%%%%%%%%%%%%%%%%%%%%%%%%%%%%%%%%ooooo@@@@oooo@@@@oooo@@@oooooooo%%%%%%%%%%%%%%%%%%%%%%%%%%%%%%%%%%%%%%====================%%%%%%%%%%%%%%%%%%%%%%%%%%%%%%%%%%%%%%%%%%%%%%%%%%%%%%%%%%%%%%%%%%%%%%%%%====%%%%%%%%%%%%%%%%%%%%%%%%%%%%%%%%%%%%%%%%%%%%%%%%=====%%%%%%%%%%%%%%%%%%%%%%%%%%%%%%%%%%%%%%%%%%%%%%%%%%%%%%%%%%%%%%%%%%%%%%%%%%%%%%%%%%%%%%%%%%%%%%%%%%%%%%%%%%%%%%%%%%%%%%%%%%%%%%%%%%%%%%%%%@@%%%%%%%%%%@@@%%%%%%%%%@@@oooooooooooooooooooooooooooooooooooooooooooooooooooooooooooooooooooooooooooooooooooooooooooooooooooooooooooooooooooooooooooooooo@@+++++@@@@++@@@@@@@@@@@@@@@@@@XX@@XXXXXXXXXXXXXXXX",
"%%%%%%%%%%%%%%%%%%%%%%%%%%%%%%%%%%%%%%%%%%%%%%%%%%%%%%%%%%%%%%%ooooo@@@@ooooo@@@oooo@@oooooooo%%%%%%%%%%%%%%%%%%%%%%%%%%%%%%%%%%%%%%======================%%%%%%%oooooooooooooooooooooo%ooooooo%%o%%%%%%%%%%%%%%%%%%%%%%%%%%%===%%%%%%%%%%%%%%%%%%%%%%%%%%%%%%%%%%%%%%%%%%%%%%%%%%%%%%%===%%=%%%%%%%%%%%%%%%%%%%%%%%%%%%%%%%%%%%%%%%%%%%%%%%%%%%%%%%%%%%%%%%%%%%%%%%%%%%%%%%%%%%%%%%%%%%%%%%%%%%%%%%%%%%%%%%%%%%%%%%%%%%%%%%%%%%%%%%@@%%%%%%%%%%@@@%%%%%%%%%+@%oooooooooooooooooooooooooooooooooooooooooooooooooooooooooooooooooooooooooooooooooooooooooooooooooooooooooooooooooooooooooooooooo@@@@+@@@@@@++@@@@@@@@@@@@@@+@@@XX@@XXXXXXXXXXXXXX@@",
"%%%%%%%%%%%%%%%%%%%%%%%%%%%%%%%%%%%%%%%%%%%%%%%%%%%%%%%%%%%%%%%ooooooo@@oooooo@@oooo@@@@oooooo%%%%%==%%=========%%====%%%%%%%%%%%=%%%%%==================%%%=%%%%%%oooooooooooooooooooooooooooooo%%%%%%%====%%%%%%%%%%%%%%%%=====%=%%%%%%%%%%%%%%%%%%%%%%%%%%%%%%%%%%%%%%%%%%%%%%%%%%%%%%%===%%%%%%%%%%%%%%%%%%%%%%%%%%%%%%%%%%%%%%%%%%%%%%%%%%%%%%%%%%%%%%%%%%%%%%%%%%%%%%%%%%%%%%%%%%%%%%%%%%%%%%%%%%%%%%%%%%%%%%%%%%%%%%%%%%%%%%%@@@@%%%%%%%%@@+@%%%%%%%%@+@@ooooooooooooooooooooooooooooooooooooooooooooooooooooooooooooooooooooooooooooooooooooooooooooooooooooooooooooooooooooooooooooooo@@@@@@@@@@@@@@@@@@@@@+@@@@@++@@@@XX@X@@XXXXXXXXXX@@",
"%%%%%%%%%%%%%%%%%%%%%%%%%%%%%%%%%%%%%%%%%%%%%%%%%%%%%%%%%%%%%%%%@@@@@@@@@@@@@@@@@@@@@@@@@@@@@@@@%%%%%%%%========%%====%%%%%%%%%%==%==%%%%%===%%%====%%%%%%%%==%%%%%%oooooooooooooooooo%%oooooo%%%%%%%%%=========%%%%%%%%%%%=%=====%%%%%%%%%%%%%%%%%%%%%%%%%%%%%%%%%%%%%%%%%%%%%%%%%%%%%%%%%=%%%%%%%%%%%%%%%%%%%%%%%%%%%%%%%%%%%%%%%%%%%%%%%%%%%%%%%%%%%%%%%%%%%%%%%%%%%%%%%%%%%%%%%%%%%%%%%%%%%%%%%%%%%%%%%%%%%%%%%%%%%%%%%%%%%%@@@@@@@@@@@@@@@@@++@@@@@@@@@+@@@oooooooooo@ooooooooooooooo@oooooooooooooooooooooooooooooooooooooooooooooooooooooooooooooooooooooooooooooooooooooooooooooooooooo@@@@@@@@@@@@@@@@@@@@@++@@@@@+@@@@@@@@@@@@@@@@@@@@@@",
"%%%%%%%%%%%%%%%%%%%%%%%%%%%%%%%%%%%%%%%%%%%%%%%%%%%%%%%%%%%%%%%@@@@@@@@@@@@@@@@@@@@@@@@@@@@@@@@@@%=============================%====%%%%%%%%%%%%%%%%%%%%%%====%%%%%%ooooooooo%oooooo%%%%oooo%%%%%%%%%===========%%=%%%%%===%%%=====%%%%%%%%%%%%%%%%%%%%oooooo%%%%%%%%%%%%%%%%%%%%%%%%%%%%%%%%%%%%%%%%%%%%%%%%%%%%%%%%%%%%%%%%%%%%%%%%%%%%%%%%%%%%%%%%%%%%%%%%%%%%%%%%%%%%%%%%%%%%%%%%%%%%%%%%%%%%%%%%%%%%%%%%%%%%%%%%%%%%%%%%%%@@@@@@@@@@@@@@@@@@@@@@@@@@@@@@@@@@@ooooooo+@@@@+@@@ooooooo+@@@@+@ooooooooooooooooooooooooooooooooooooooooooooooooooooooooooooooooooooooooooooooooooooooooooooooo@@@@@@@@@@@@++@@@@@@@@@@@@@@@@@@@@@@@@@@@%%@@@@@@%%",
"%%%%%%%%%%%%%%%%%%%%%%%%%%%%%%%%%%%%%%%%%%%%%%%%%%%%%%%%%%%%%%%@@@@@@@@@@@@@@@@@@@@@@@@@@@@@@@@@@=============&===============%%====%%%%o%o%oooooooooooo%%%==%%%%%%%%%%%%%%%%%%%%%%%%%%%%%%%%%%%%%%%============%%====%%===========%%%%%%%%%%%%%%%%%%%oooooooo%%%%%%%%%%%%%%%%%%%%%%%%%%%%%%%%%%%%%%%%%%%%%%%%%%%%%%%%%%%%%%%%%%%%%%%%%%%%%%%%%%%%%%%%%%%%%%%%%%%%%%%%%%%%%%%%%%%%%%%%%%%%%%%%%%%%%%%%%%%%%%%%%%%%%%%%%%%%%%%%%@@@@@@@@@@@@@@@@@@@@@@@@@@@@@@@@@@@@@@@@@+@@@@++@@@@@@@@@+@@@@++@ooooooooooooooooooooooooooooooooooooooooooooooooooooooooooooooooooooooooooooooooooooooooooooooo@@@@@@@@@@@@++@@@@@@@@@@@@@@+@@@@%%%%%%%%%%%%%%%%%%",
"%%%%%%%%%%%%%%%%%%%%%%%%%%%%%%%%%%%%%%%%%%%%%%%%%%%%%%%%%%%%%%%@@@@@@@@@@@@@@@@@@@@@@@@@@@@@@@@@&===============================%%%%%%%%%ooooooooooooooo%%%%%%%%%%%%%%%%%%%%%%%%%%%%%%%%%%%%%%%%==================================%%%%%%%%%%%%%%%%%%%%oooooooo%%%%%%%%%%%%%%%%%%%%%%%%%%%%%%%%%%%%%%%%%%%%%%%%%%%%%%%%%%%%%%%%%%%%%%%%%%%%%%%%%%%%%%%%%%%%%%%%%%%%%%%%%%%%%%%%%%%%%%%%%%%%%%%%%%%%%%%%%%%%%%%%%%%%%%%%%%%%%%%%%@@@@@@@@@@@@@@@@@@@@+@@@@@@@@@@@@@@@@@@@@@@@@@@@@@@@@@@@@@@@@@@@@@ooooooooooooooooooooooooooooooooooooooooooooooooooooooooooooooooooooooooooooooooooooooooooooooo@++@@@@@@@++@@@@@@@@@@@@@@@+@@@@%%%%%%%%%%%%%%%%%%",
"%%%%%%%%%%%%%%%%%%%%%%%%%%%%%%%%%%%%%%%%%%%%%%%%%%%%%%%%%%%%%%%@@@@@@@@@@@@@@@@@@@@@@@@@@@@@@@@@&==:::======:===================%%%%%%%%oooooooooooooooo%%%%%%%%%%%==%%%%%%%===%%%%%=%%%%%%%%%%=======================:==========%%%%%%%%%%%%%%%%%%%%%oooooooo%%%%%%%%%%%%%%%%%%%%%%%%%%%%%%%%%%%%%%%%%%%%%%%%%%%%%%%%%%%%%%%%%%%%%%%%%%%%%%%%%%%%%%%%%%%%%%%%%%%%%%%%%%%%%%%%%%%%%%%%%%%%%%%%%%%%%%%%%%%%%%%%%%%%%%%%%%%%%%%%%@@@@@@@@@@@@@@@@@@@@++@@@@@@@@@@@@@@@@@@@@@@@@@@@@@@@@@@@@@@@@@@@@ooooooooooooooooooooooooooooooooooooooooooooooooooooooooooooooooooooooooooooooooooooooooooooooo@@@@ooo@%%@@@@@@%%%%%%%%@@@@%%%@%%%%%%%%%%%%%%%%%o",
"%%%%%%%%%%%%%%%%%%%%%%%%%%%%%%%%%%%%%%%%%%%%%%%%%%%%%%%%%%%%%%%@@@@@@@@@@@@@@@@@@@@@@@&&@@@@@@&&===::::::::::=:===============%=%%%%%%%%%%%%%%%%%%%%%%%%%%%%%%%%%%%======================================%%========:=:===========%%%%%%%%%%%%%%%%%%%%ooooooooo%%%%%%%%%%%%%%%%%%%%%%%%%%%%%%%%%%%%%%%%%%%%%%%%%%%%%%%%%%%%%%%%%%%%%%%%%%%%%%%%%%%%%%%%%%%%%%%%%%%%%%%%%%%%%%%%%%%%%%%%%%%%%%%%%%%%%%%%%%%%%%%%%%%%%%%%%%%%%%%%%@@++@@@@+@@@@@@@@++@@@@+@@@@@@@@@@@@@+++@@@@@@@@@@@@@+++@@@@@@@@@@oooooooooooooooooooooooooooooooooooooooooooooooooooooooooooooooooooooooooooooooooooooooooooooooo%%%%%%%%@%%%%%%%%%%%%%%%%%%%%%%%%%%%%%%%%%%%%%%%%",
"%%%%%%%%%%%%%%%%%%%%%%%%%%%%%%%%%%%%%%%%%%%%%%%%%%%%%%%%%%%%%%%@@@@@@@@@@&@@@@@&@@@@@@&&@@@@@&&&===:::=:::::=================%%%%%%%%%%=================%%%%%%%%%%==============================:=======%%%========::::========%=%%%%%%%%%%%%%%%%%%%oooooooooo%%%%%%%%%%%%%%%%%%%%%%%%%%%%%%%%%%%%%%%%%%%%%%%%%%%%%%%%%%%%%%%%%%%%%%%%%%%%%%%%%%%%%%%%%%%%%%%%%%%%%%%%%%%%%%%%%%%%%%%%%%%%%%%%%%%%%%%%%%%%%%%%%%%%%%%%%%%%%%%%%@@++@@@@+@@@@@@@@+@@@@@++@@@@@@@@@@@@@@@@@@@@@@@@@@@@@@@@@@@@@@@@@oooooooooooooooooooooooooooooooooooooooooooooooooooooooooooooooooooooooooooooooooooooooooooooooo%%%%%%%@@%%%%%%%%%%%%%%%%%%%%%%%%%%%%%%%%%%%%%%%%",
"%%%%%%%%%%%%%%%%%%%%%%%%%%%%%%%%%%%%%%%%%%%%%%%%%%%%%%%%%%%%%%%@@@&&&&&&&&&&&&&&&&&&&&&&&&&&&&&&============================%%%%%%%%%%=======::::::=:=====%%%%%%%=========================================%%%=======::=:======%%%%%%%%%%%%%%%%%%%%%ooooooooooo%%%%%%%%%%%%%%%%%%%%%%%%%%%%%%%%%%%%%%%%%%%%%%%%%%%%%%%%%%%%%%%%%%%%%%%%%%%%%%%%%%%%%%%%%%%%%%%%%%%%%%%%%%%%%%%%%%%%%%%%%%%%%%%%%%%%%%%%%%%%%%%%%%%%%%%%%%%%%%%%%@@@@@@@@@@+@@@+@@@@@@@@@@@@@@@+@@@@@@@@@@++@@@@@@@@@@@@@@++@@@@@@@ooooooooooooooooooooooooooooooooooooooooooooooooooooooooooooooooooooooooooooooooooooooooooooooo%%%%%%%%%%%%%%%%%%%%%%%%%%%%%%%%%%%%%%%%%%%%%%%%%%",
"%%%%%%%%%%%%%%%%%%%%%%%%%%%%%%%%%%%%%%%%%%%%%%%%%%%%%%%%%%%%%%%@@&&&&&&&&&&&&&&&&&&&&&&&&&&&&&&&=======================%%%%%%%%%%%=========::::::::::=====%%====%%%===================================%=%==%%%=================%%%%%%%%%%%%%%%%%%%oooooooooooo%%%%%%%%%%%%%%%%%%%%%%%%%%%%%%%%%%%%%%%%%%%%%%%%%%%%%%%%%%%%%%%%%%%%%%%%%%%%%%%%%%%%%%%%%%%%%%%%%%%%%%%%%%%%%%%%%%%%%%%%%%%%%%%%%%%%%%%%%%%%%%%%%%%%%%%%%%%%%%%%%@@@@@@@@@+@+@@+++@@@@@@@@@@@@++@@@@@@@@@@+@@@+++@@@@@@@@@+@@@+++@@ooooooooooooooooooooooooooooooooooooooooooooooooooooooooooooooooooooooooooooooooooooooooooooooo%%%%%%%%%%%%%%%%%%%%%%%%%%%%%%%%%%%%%%%%%%%%%%%%%%",
"%%%%%%%%%%%%%%%%%%%%%%%%%%%%%%%%%%%%%%%%%%%%%%%%%%%%%%%%%%%%%%%@=&&&&&&&&&&&&&&&&&&&&&&&&&&&&&&===================%%%%%%%%%%%%%%%%%=========::::::::=============%====%===%%%%==%%====%%====%%=========%%%=====================%%%%%%%%%%%%%%%%%%%oooooooooo%%%%%%%%%%%%%%%%%%%%%%%%%%%%%%%%%%%%%%%%%%%%%%%%%%%%%%%%%%%%%%%%%%%%%%%%%%%%%%%%%%%%%%%%%%%%%%%%%%%%%%%%%%%%%%%%%%%%%%%%%%%%%%%%%%%%%%%%%%%%%%%%%%%%%%%%%%%%%%%%@@@@@@@@@@@@@@@@@@@@@@@@@@@++@@@+++@@@@@@@@@@@@@++@@@@@@@@@@@@@@++@@@@ooooooooo@@@ooooooooo@oooooooooooooooooooooooooooooooooooooooooooooooooooooooooooooooooooooooo%%%%%%%%%%%%%%%%%%%%%%%%%%%%%%%%%%%%%%%%%%%%%%%%%%",
"%%%%%%%%%%%%%%%%%%%%%%%%%%%%%%%%%%%%%%%%%%%%%%%%%%%%%%%%%%%%%%%@====&&==========&&=========================%%%%%%%%%%%%%%%%%%%%%%%===============================%%=%%%===%%====%%====%%====%%==%=%=====%%======%%==%%%%=======%%%%%%%%%%%%%%%%%%%oooooooooo%%%%%%%%%%%%%%%%%%%%%%%%%%%%%%%%%%%%%%%%%%%%%%%%%%%%%%%%%%%%%%%%%%%%%%%%%%%%%%%%%%%%%%%%%%%%%%%%%%%%%%%%%%%%%%%%%%%%%%%%%%%%%%%%%%%%%%%%%%%%%%%%%%%%%%%%%%%%%%%%@@%@@@@@@@@@@@@@@@@@@+@@@@@+++@@+@@@@+@@@@@@@@@@@+@@@+@@@@@@@@@@@+@@@o@@@@@@@@@@@@@@@@@@@@@@@@@@@@oooooooooooooooooooooooooooooooooooooooooooooooooooooooooooooooooo%%%%%%%%%%%%%%%%%%%%%%%%%%%%%%%%%%%%%%%%%%%%%%%%%%",
"%%%%%%%%%%%%%%%%%%%%%%%%%%%%%%%%%%%%%%%%%%%%%%%%%%%%%%%%%%%%%%========================================%=%%%%%%%%%%%%%%%%%%%%%%%==================================%%%%%%==========================%%%%%==========%%%%%%%%%%%%===%%%%%%%%%%%%%%%%%%%oooo%%%%%%%%%%%%%%%%%%%%%%%%%%%%%%%%%%%%%%%%%%%%%%%%%%%%%%%%%%%%%%%%%%%%%%%%%%%%%%%%%%%%%%%%%%%%%%%%%%%%%%%%%%%%%%%%%%%%%%%%%%%%%%%%%%%%%%%%%%%%%%%%%%%%%%%%%%%%%%%%%%%%%%@@@@@@@@@@++@@@@+@@@++@@@@@+@@@@@@@@++@@@@+@@@@@@@@@++@@@@+@@@@@@@@@@@@@@@@@@@@@@@@@@@@@@@@@@@@@@@@ooooooooooooooooooooooooooooooooooooooooooooooooooooooooooooooooo%%%%%%%%%%%%%%%%%%%%%%%%%%%%%%%%%%%%%%%%%%%%%%%%%%",
"ooooooooo%%%%%%%%%%%%%%%%%%%%%%%%%%%%%%%%%%%%%%%%%%%%%%%%%%%%%========================================%%%%%%%%%%%%%%%%%%%%%%%%%==============%%%%%%%%============%%%%%============================%%%%%========%%%%%%%%%%%%%%%%%%%%%%%%%%%%%%%%%%%%oo%%%%%%%%%%%%%%%%%%%%%%%%%%%%%%%%%%%%%%%%%%%%%%%%%%%%%%%%%%%%%%%%%%%%%%%%%%%%%%%%%%%%%%%%%%%%%%%%%%%%%%%%%%%%%%%%%%%%%%%%%%%%%%%%%%%%%%%%%%%%%%%%%%%%%%%%%%%%%%%%%%%%%%%@@@@@@++@@++@@@@+@@@@@@@@@@@@@@@@@@@++@@@@+@@@@@@@@@++@@@@+@@@@@@@@@@@@@@@@@@@@@@@@@@@@@@@@@@@@@@@@@oooooooooooooooooooooooooooooooooooooooooooooooooooooooooooooooo%%%%%%%%%%%%%%%%%%%%%%%%%%%%%%%%%%%%%%%%%%%%%%%%o%",
"ooooooooo%%%%%%%%%%%%%%%%%%%%%%%%%%%%%%%%%%%%%%%%%%%%%%%%%%%%=====================================%%==%%%%%%%%%%%%%%%%%%%%%%%%%===========%=%%%%%%%%========%%%==%%%%========================::==%%%%%====%%%%==%%%%%%%%%%%%==%%%%%%%%%%%%%%%%%%%%%%%%%%%%%%%%%%%%%%%%%%%%%%%%%%%%%%%%%%%%%%%%%%%%%%%%%%%%%%%%%%%%%%%%%%%%%%%%%%%%%%%%%%%%%%%%%%%%%%%%%%%%%%%%%%%%%%%%%%%%%%%%%%%%%%%%%%%%%%%%%%%%%%%%%%o%%%%%%%%%%%oo%%%%%%%%%@@@+@@@@++@@@+@@@@@@@@@@@@@@@@@@@@@@@@@@@@@@@@@@@@@@@@@@@@@@@@@@@@@@@@@@+@@@@@@@@@@@@@@@@@+@@@@++@ooooooooooooooooooooooooooooooooooooooooooooooooooo%%%%%%%%%%%%ooooooooooooooooooooooooooooooooooooooooooooooo%%%",
"ooooooooo%%%%%%%%%%%%%%%%%%%%%%%%===%%%%%%====%%%%%%%%====%%=====================================%%%%%%%%%%%%%%%%%%%%%%%%%%%%%%==========%%%%%%%%%%%%=======%%=%=%%%%%======================:=:===%%%%%===%%%%%%%%%%%%%%%%%%%%%%%%%%%%%%%%%%%%%%%%%%%%%%%%%%%%%%%%%%%%%%%%%%%%%%%%%%%%%%%%%%%%%%%%%%%%%%%%%%%%%%%%%%%%%%%%%%%%%%%%%%%%%%%%%%%%%%%%%%%%%%%%%%%%%%%%%%%%%%%%%%%%%%%%%%%%%%%%%%%%%%%%%%%%%%oo%%%%%%%%%%oo%%%%%%%%%@@@++@@@@+@@@++@@@@++@@@@@@@@@@@@@@@@@@@@@@@@@@@@@@@@@@@@@@@@@@@@@@@@@@++@@@@@@@@@@@@@@@@++@@@@@+@ooooooooooooooooooooooooooooooooooooooooooooooooooo%%%%%%%%%%%%oooooooooooooooooooooooooooooooooooooooooooooooo%%",
"ooooooooo%%%%%%%%%%=============================================================================%%%%%%%%%%%%%%%%%%%%%%%%%%%%%%%%%%======%%%%%%%%%%%%%%=%%%%%%%%%%%%%%%=============================%=%%%==%%%%%%%%%%%%%%%%%%%%%%%%%%%%%%%%%%%%%%%%%%%%%%%%%%%%%%%%%%%%%%%%%%%%%%%%%%%%%%%%%%%%%%%%%%%%%%%%%%%%%%%%%%%%%%%%%%%%%%%%%%%%%%%%%%%%%%%%%%%%%%%%%%%%%%%%%%%%%%%%%%%%%%%%%%%%%%%%%%%%%%%%%%%%%%oooo%%%%%%%%oooo%%%%%%%@@@@@@@@@@@@@@@@@@@@++@@@@@@@@++@@%%%%%%%%%%%%%%%%%%%%%%%%%%@%@@@@@@@@@++@@@+++@@@@++@@@@@@@@@@@@@ooooooooooooooooooooooooooooooooooooooooooooooooooo%%%%%%%%%%%%oooooooooooooooooooooooooooooooooooooooooooooooooo",
"ooooooooo%%%%%%%%%==============================================================================%%%%%%%%%%%%%%%%%%%%%%%%%%%%%%%%%%%%%===%%%%%%%%%%%%%%%%%%%%%%%%%%%%%%%============================%=%%%%%%%%%%%%%%%%%%%%%%%%%%%%%%%%%%%%%%%====%%%%%%%%%%%%%%%%%%%%%%%%%%%%%%%%%%%%%%%%%%%%%%%%%%%%%%%%%%%%%%%%%%%%%%%%%%%%%%%%%%%%%%%%%%%%%%%%%%%%%%%%%%%%%%%%%%%%%%%%%%%%%%%%%%%%%%%%%%%%%%%oooooooooooooooooooooooooooooooo@@@@@@@@@@@@@@@@@@@@@+@@@@@@@@@@@@%%%%%%%%%%%%%%%%%%%%%%%%%%%%@@@@@@@@@@@@@+@++@@@@@+@@@+@@@@@@@@@ooooooooooooooooooooooooooooooooooooooooooooooooooo%%%%%%%%%%%%oooooooooooooooooooooooooooooooooooooooooooooooooo",
"ooooooooo%%%%%%%%%==%%%%=========================================================================%%%%%%%%%%%%%%%%%%%%%%%%%%%%%%%%%%%%%==%%%%%%%%%%%%%%%%%%%%%%%%%%%%%%==============%%%%==========%%%%%%%%%%%%%%%%%%%%%%%%%%%%%%%%%%%%%%%%%%======%%%%%%%%%%%%%%%%%%%%%%%%%%%%%%%%%%%%%%%%%%%%%%%%%%%%%%%%%%%%%%%%%%%%%%%%%%%%%%%%%%%%%%%%%%%%%%%%%%%%%%%%%%%%%%%%%%%%%%%%%%%%%%%%%%%%%%%%%%%%%oooooooooooooooooooooooooooooooo@++@@@@+@@@@@@@@@@@@@+@@@@@@@@@@@@%%%%%%%%%%%%%%%%%%%%%%%%%%%%%@@@@@@@@@@@@@@@@@@@@@@@@+++@@@@@@@@ooooooooooooooooooooooooooooooooooooooooooooooooooo%%%%%%%%%%%%oooooooooooooooooooooooooooooooooooooooooooooooooo",
"ooooooooooo%%%%%%%%=%%%%=========================================================================%%%%%%%%%%%%%%%%%%%%%%%%%%%%%%%%%%%%%%%%%%%%%%%%%%%%%%%%%%%%%%%%%%%%%%%=======%=%%%%%%%%=========%%%%%%%%%%%%%%%%%%%%%%%%%%%%%%%%%%%%%%%%%%======%%%=======%%=%%%%%%%%%%%%%%%%%%%%%%%%%%%%%%%%%%%%%%%%%%%%%%%%%%%%%%%%%%%%%%%%%%%%%%%%%%%%%%%%%%%%%%%%%%%%%%%%%%%%%%%%%%%%%%%%%%%%%%%%%%%%%%%%oooooooooooooooooooooooooooooooo@++@@@@+@++@@@@@@@@@@@@@@@@@@@@@@@%%%%%%%%%%%%%%%%%%%%%%%%%%%%%%@@@@@@@@@@@@@@@@@@@++@@@@+@@@@@+@@ooooooooooooooooooooooooooooooooooooooooooooooooooo%%%%%%%%%%%%oooooooooooooooooooooooooooooooooooooooooooooooooo",
"ooooooooooo%%%%%%%%%%%%%=========================================================================%%%%%%%%%%%%%%%%%%%%%%%%%%%%%%%%%%%%%%%%%%%%%%%%%%%%%%%%%%%%%%%%%%%%%%%%=%=%%%%%%%%%%%%%%=========%%%%%%%%%%%%%%%%%%%%%%%%%%%%%%%%%%%%%%%%=======%%%==========%%%%%%%%%%%%%%%%%%%%%%%%%%%%%%%%%%%%%%%%%%%%%%%%%%%%%%%%%%%%%%%%%%%%%%%%%%%%%%%%%%%%%%%%%%%%%%%%%%%%%%%%%%%%%%%%%%%%%%%%%%%%%%%%o@@@@@@@@@@@@@@+@@@@@@@@@@@@@@@@@@@@@@@@@+@@@@+@@@@++@@@@@@@@@@@@@%%%%%%%%%%%%%%%%%%%%%%%%%%%%%%@++@@@@@@@@@@@@@@@@@+@@@@+@@@@@++@ooooooooooooooooooooooooooooooooooooooooooooooooooo%%%%%%%%%%%%oooooooooooooooooooooooooooooooooooooooooooooooooo",
"oooooooooo%%%%%%%%%==============================================================================%%%%%%%%%%%%%%%%%%%%%%%%%%%%%%%%%%%%%%%%%%%%%%%%%%%%%%%%%%%%%%%%%%%%%%%%%%%%%%%%%%%%%%%%%%========%%%%%%%%%%%%%%%%%%%%%%%%%%%%%%%%%%%%%%=%=======%%============%%%%%%%%%%%%%%%%%%%%%%%%%%%%%%%%%%%%%%%%%%%%%%%%%%%%%%%%%%%%%%%%%%%%%%%%%%%%%%%%%%%%%%%%%%%%%%%%%%%%%%%%%%%%%%%%%%%%%%%%%%%%%%%oooooooooooooooooooooooooooooooo@@@@@@@@@@@@@++@@@@+@@@@@@@@@@@@@@%%%%%%%%%%%%%%%%%%%%%%%%%%%%%%@@+@@@@++@@@@@@@@@@@@@@@@@@@@@@@@@ooooooooooooooooooooooooooooooooooooooooooooooooooo%%%%%%%%%%%%oooooooooooooooooooooooooooooooo@@@@@@@@@@@@@@@@@@",
"oooooooooo%%%%%%%%%==============================================================================%%%%%%%%%%%%%%%%%%%%%%%%%%%%%%%%%%%%%%%%%%%%%%%%%%%%%%%%%%%%%%%%%%oo%%%%%%%%%%%%%%%%%%%%%%=%%%%==%%%%%%%%%%%%%%%%%%%%%%%%%%%%%%%%%%%%%%%%========%=============%%%%%%%%%%%%%%%%%%%%%%%%%%%%%%%%%%%%%%%%%%%%%%%%%%%%%%%%%%%%%%%%%%%%%%%%%%%%%%%%%%%%%%%%%%%%%%%%%%%%%%%%%%%%%%%%%%%%%%%%%%%%%%%o@@@@@@@@@@@@@@@@@@@@+@@@@@@@@@@@@@@@@@@@@@@@@@@@@@++@@@@@@@@@@@@@%%%%%%%%%%%%%%%%%%%%%%%%%%%%%%%@@@@@@@@@@@@@@@@@@@@@@@@@@+@@@@@oooooooooooooooooooooooooooooooooooooooooooooooooooo%%%%%%%%%%%%ooooooooooooooooooooooooooooooo@@@@@@+@@@@@@@@@@@@",
"oooooooooo%%%%%%%%%==============================================================================%%%%%%%%%%%%%%%%%%%%%%%%%%%%%%%%%%%%%%%%%%%%%%%%%%%%%%%%%%%%%%%%%oooo%%%%%%%%%%%%%%%%%%%%%%%%%%%%%%%%%%%%%%%%%%%%%%%%%%%%%%%%%%%%%%%%%%%%%=========%==========%%%%%%%%%%%%%%%%%%%%%%%%%%%%%%%%%%%%%%%%%%%%%%%%%%%%%%%%%%%%%%%%%%%%%%%%%%%%%%%%%%%%%%%%%%%%%%%%%%%%%%%%%%%%%%%%%%%%%%%%%%%%%%%%o@@@@@@@@@@@@@@@@@@@@+@@@@@@@@@@@@@@@@@@@@@@@@@@@@@@+@@@@@@@@@@@@@%%%%%%%%%%%%%%%%%%%%%%%%%%%%%%%@@@@oooooooooooooooooooo@@ooooooooooooooooooooooooooooooooooooooooooooooooooooooooooo%%%%%%%%%%oooooooooooooooooooooooooooooooo@@@@@++@@@@@@@@@@@@",
"oooooooooo%%%%%%%%%%=============================================================================%%%%%%%%%%%%%%%%%%%%%%%%%%%%%%%%%%%%%%%%%%%%%%%%%%%%%%%%%%%%%%%%%ooooo%%%%%%%%%%oooooo%%%%%%%%%%%%%%%%%%%%%%%%%%%%%%%%%%%%%%%%%%%%%%%%%%%%=======%%%%%%=%==%%%%%%%%%%%%%%%%%%%%%%%%%%%%%%%%%%%%%%%%%%%%%%%%%%%%%%%%%%%%%%%%%%%%%%%%%%%%%%%%%%%%%%%%%%%%%%%%%%%%%%%%%%%%%%%%%%%%%%%%%%%%%%%%%%%o@@@@++@@@@++@@@@@+@@+@@@@@@@@@@@@@XX@@@@@+@@@@@@@@@@@@@@@@@@@@@@@%%%%%%%%%%%%%%%%%%%%%%%%%%%%%%%oo@@oooooooooooooooooooo@@@ooooooooooooooooooooooooooooooooooooooooooooooooooooooooo%%%%%%%%%%%%ooooooooooooooooooooooooooooooo@@@@@@@@@@@@@@@@@@@",
"oooooooooo%%%%%%%%%%%============================================================================%%%%%%%%%%%%%%%%%%%%%%%%%%%%%%%%%%%%%%%%%%%%%%%%%%%%%%%%%%%%%%oooooooooo%%%%%%oooooooooo%%%%%%%%%%%%%%%%%%%%%%%%%%%%%%%%%%%%%%%%%%%%%%%%%%%%%%%=%%%%%%%%%%%%%%%%%%%%%%%%%%%%%%%%%%%%%%%%%%%%%%%%%%%%%%%%%%%%%%%%%%%%%%%%%%%%%%%%%%%%%%%%%%%%%%%%%%%%%%%%%%%%%%%%%%%%%%%%%%%%%%%%%%%%%%%%%%%%%%o@@@@++@@@@@+@@@+++@@@@@@@@@@@@@@@XXXX@@@+@@@@@@@@@@@@@@@@@@@@@@@@%%%%%%%%%%%%%%%%%%%%%%%%%%%%%%%oooooooooooooooooooooooo@@@@oooooooooooooooooooooooooooooooooooooooooooooooooooooooo%%%%%%%%%%%%oooooooooooooooooooooooooooooo@@@@@@XXX@@@XXXX@@@@",
"oooooooooo%%%%%%%%%%%%==%%======%%%%========%%%%========%%%%=====================================%%%%%%%%%%%%%%%%%%%%%%%%%%%%%%%%%%%%%%%%%%%%%%%%%%%%%%%%%%%%%%oooooooooo%%%%%%oooooooooo%%%%%%%%%%%%%%%%%%%%%%%%%%%%%%%%%%%%%%%%%%%%%%%%%%%%%%%%%%%%%%%%%%%%%%%%%%%%%%%%%%%%%%%%%%%%%%%%%%%%%%%%%%%%%%%%%%%%%%%%%%%%%%%%%%%%%%%%%%%%%%%%%%%%%%%%%%%%%%%%%%%%%%%%%%%%%%%%%%%%%%%%%%%%%%%%%%%%%%o@@@@@+@@@@@@@@++@@@@@@@@@@+++@@@@@XXXXXX@@@@@@@@@@@@@@@@@@@@@@@@%%%%%%%%%%%%%%%%%%%%%%%%%%%%%%%%oooooooooooooooooooooooooooooooooooooooooooooooooooooooooooooooooooooooooooooooooooo%%%%%%%%%%%%oooooooooooooooooooooooooooooo@@@@@@@@@@@XX@@@@X@@",
"oooooooooo%%%%%%%%%%%%%%%%%=====%%%%%%%%%%%%%%%%%%%%%%%%%%%%%%%=%================================%%%%%%%%%%%%%%%%%%%%%%%%%%%%%%%%%%%%%%%%%%%%%%%%%%%%%%%%%%%%%%oooooooooo%%%%%%ooooooooo%%%%%%%%%%%%%%%%%%%%%%%%%%%%%%%%%%%%%%%%%%%%%%%%%%%%%%%%%%%%%%%%%%%%%%%%%%%%%%%%%%%%%%%%%%%%%%%%%%%%%%%%%%%%%%%%%%%%%%%%%%%%%%%%%%%%%%%%%%%%%%%%%%%%%%%%%%%%%%%%%%%%%%%%%%%%%%%%%%%%%%%%%%%%%%%%%%%%%%%o@@@@+@@@@@++@@@@@@@@++@@@@@+@+@@@@XXXXXXX@@@@@@@@@@@@@@@@@@@@@@@%%%%%%%%%%%%%%%%%%%%%%%%%%%%%%%%oooooooooooooooooooooooooooooooooooooooooooooooooooooooooooooooooooooooooooooooooooo%%%%%%%%%%%%oooooooooooooooooooooooooooooo@@@@@@@@@@@XXX@X@@@@",
"oooooooooo%%%%%%%%%%%%%%%%%%====%%%%%%%%%%%%%%%%%%%%%%%%%%%%%%%%%%%%%%====%%%%%%%%====%%%%%%====%%%%%%%%%%%%%%%%%%%%%%%%%%%%%%%%%%%%%%%%%%%%%%%%%%%%%%%%%%%%%%%%ooooooooo%%%%%%oooooooooo%%%%%%%%%%%%%%%%%%%%%%%%%%%%%%%%%%%%%%%%%%%%%%%%%%%%%%%%%%%%%%%%%%%%%%%%%%%%%%%%%%%%%%%%%%%%%%%%%%%%%%%%%%%%%%%%%%%%%%%%%%%%%%%%%%%%%%%%%%%%%%%%%%%%%%%%%%%%%%%%%%%%%%%%%%%%%%%%%%%%%%%%%%%%%%%%%%%%%%o@@@@@@@@@@@+@@@@@@@@@+@@@@@+@@@@@@@@X@XX@@@@@@@@@+@@@@@@@@@@@@@@%%%%%%%%%%%%%%%%%%%%%%%%%%%%%%%%%ooooooooooooooooooooooooooooooooooooooooooooooooooooooooooooooooooooooooooooooooooo%%%%%%%%%%%%ooooooooooooooooooooooooooooo@@@@@@XXXXXXXXXXXXXXX",
"oooooooooo%%%%%%%%%%%%%%%%%%%%%%%%%%%%%%%%%%%%%%%%%%%%%%%%%%%%%%%%%%%%%%%%%%%%%%%%%%%%%%%%%%%%%%%%%%%%%%%%%%%%%%%%%%%%%%%%%%%%%%%%%%%%%%%%%%%%%%%%%%%%%%%%%%%%%%%%%%%%%%%%%%%%%%%%%%%%%%%%%%%%%%%%%%%%%%%%%%%%%%%%%%%%%%%%%%%%%%%%%%%%%%%%%%%%%%%%ooooo%%%%%%%%%%%%%%%%%%%%%%%%%%%%%%%%%%%%%%%%%%%%%%%%%%%%%%%%%%%%%%%%%%%%%%%%%%%%%%%%%%%%%%%%%%%%%%%%%%%%%%%%%%%%%%%%%%%%%%%%%%%%%%%%%%%%%%%%o@@@@@@@@@@@@@@@@@@@@@@@@@@@@@@@@@@@@@@@@@@@@@@@@@@@@@@@@@@@@@@@@%%%%%%%%%%%%%%%%%%%%%%%%%%%%%%%%oooooooooooooooooooooooooooooooooooooooooooooooooooooooooooooooooooooooooooooooooooo%%%%%%%%%%%%ooooooooooooooooooooooooooooo@@@@@XXXX@@@XXX@X@@@@",
"oooooooooo%%%%%%%%%%%%%%%%%%%%%%%%%%%%%%%%%%%%%%%%%%%%%%%%%%%%%%%%%%%%%%%%%%%%%%%%%%%%%%%%%%%%%%%%%%%%%%%%%%%%%%%%%%%%%%@@@%%%%%%%%%%%%%%%%%%%%%%%%%%%%%%%%%%%%%%%%%%%%%%%%%%%%%%%%%%%%%%%%%%%%%%%%%%%%%%%%%%%%%%%%%%%%%%%%%%%%%%%%%%%%%%%%%%%%%%%ooooo%o%%%%%%%%%%%%%%%%%%%%%%%%%%%%%%%%%%%%%%%%%%%%%%%%%%%%%%%%%%%%%%%%%%%%%%%%%%%%%%%%%%%%%%%%%%%%%%%%%%%%%%%%%%%%%%%%%%%%%%%%o%%%%%%%%%%%%@@@@@@@@@@@@@@@@@@+@@@@@@@@@@@@@+@@@@@@@@@@@@@@@@@@@@@@@@@@@%%%%%%%%%%%%%%%%%%%%%%%%%%%%%%%%%%%%%%oooooooooooooooooooooooooooooooooooooooooooooooooooooooooooooooooooooooooooooooooooo%%%%%%%%%%%%ooooooooooooooooooooooooooooo@@@@@@XXX@@@@XX@XX@@@",
"oooooooooo%%%%%%%%%%%%%%%%%%%%%%%%%%%%%%%%%%%%%%%%%%%%%%%%%%%%%%%%%%%%%%%%%%%%%%%%%%%%%%%%%%%%%%%%%%%%%%@@%%%%%%%%%%%%%%@@@%%%%%@@@@@@@@@@@@@@@@@@@@@%%%%%%%%%%%%%%%%%%%%%%%%%%%%%%%%%%%%%%%%%%%%%%%%%%%%%%%%%%%%%%%%%%%%%%%%%%%%%%%%%%%%%%%%%%%%oooooooooooooooo%%%%%%%%%%%%%%%%%%%%%%%%%%%%%%%%%%%%%%%%%%%%%%%%%%%%%%%%%%%%%%%%%%%%%%%%%%%%%%%%%%%%%%%%%%%%%%%%%%%@@%%%%%%%%%%%@%%%%%%%%%%%%@@@@@@@@@@@@@@@@@@++@@@@@@@@@@@@@+@@@@@@@@@@@@@@@@%%%%%%%%%%%%%%%%%%%%%%%%%%%%%%%%%%%%%%%%%%%%%%%%oooooooooooooooooooooooooooooooooooooooooooooooooooooooooooooooooooooooooooooooooooo%%%%%%%%%%%%ooooooooooooooooooooooooooooo@@@@@@@XX@@@@XX@@XX@@",
"ooooooooooo%%%%%%%%%%%%%%%%%%%%%%%%%%%%%%%%%%%%%%%%%%%%%%%%%%%%%%%%%%%%%%%%%%%%%%%%%%%%%%%%%%%%%%%%%%%%%@@@@%%%%%%%%%%%%@@@@%%%%@@@@@@@@@@@@@@@@@@@@%@%%%%%%%%%%%%%%%%%%%%%%%%%%%%%%%%%%%%%%%%%%%%%%%%%%%%%%%%%%%%%%%%%%%%%%%%%%%%%%%%%%%%%%%%%%%oooooooooooooooo%%%%%%%%%%%%%%%%%oo%%%%%%%%%%%%%%%%%%%%%%%%%%%%%%%%%%%%%%%%%%%%%%%%%%%%%%%%%%%%%%%%%%%%%%%%%%%%%%%%@@@@%%%%%%%%@@@@%%%%%%%%@@@@@@@@@@@@@@@@@@@@@@@@@@@@@@@@@@+@@@@@@@@@@@@@@@%%%%%%%%%%%%%%%%%%%%%%%%%%%%%%%%%%%%%%%%%%%%%%%%%%%ooooooooooooooooooooooooooooooooooooooooooooooooooooooooooooooooooooooooooooooooooo%%%%%%%%%%%%oooooooooooooooooooooooooooooo@@@@@+@@@@@@@@@@@@@@",
"oooooooooooo%%%%%%%%%%%%%%%%%%%%%%%%%%%%%%%%%%%%%%%%%%%%%%%%%%%%%%%%%%%%%%%%%%%%%%%%%%%%%%%%%%%%%%@@@@@@@@@@@@@@@@@@@@@@@@@@@@@@@@@@@@@@@@@@@@@@@@@@@@@@@@%%%%%%%%%%%%%%%%%%%%%%%%%%%%%%%%%%%%%%%%%%%%%%%%%%%%%%%%%%%%%%%%%%%%%%%%%%%%%%%%%%%%%%%oooooooooooooooooooooooooooooooooooooooooooooooo%%%%%%%%%%%%%%%%%%%%%%%%%%%%%%%%%%%%%%%%%%%%%%%%%%%%%%%%%%%%%%%@@@@@@@@@@@@@@@@@@@@@@@@@@@@@@@@@@@@@@@@@@@@@@@@@@@@@@@@@@@@@@@@@@@@@@@@@@@@%%%%%%%%%%%%%%%%%%%%%%%%%%%%%%%%%%%%%%%%%%%%%%%%%%%%%ooooooooooooooooooooooooooooooooooooooooooooooooooooooooooooooooooooooooooooooooooo%%%%%%%%%%%%oooooooooooooooooooooooooooooooo@@+@@@@@@@@@@@@@@@",
"oooooooooooo%%%%%%%%%%%%%%%%%%%%%%%%%%%%%%%%%%%%%%%%%%%%%%%%%%%%%%%%%%%%%%%%%%%%%%%%%%%%%%%%%%%%@@@@@@@@@@@@@@@@@@@@@@@@@@@@@@@@@@@@@@@@@@@@@@@@@@@@@@@@@%%%%%%%%%%%%%=%%%%%%%%%%%%%%%%%%%%%%%%%%%%%%%%%%%%%%%%%%%%%%%%%%%%%%%%%%%%%%%%%%%%%%%%%%oooooooooooooooooooooooooooooooooooooooooooooooo%%%%%%%%%%%%%%%%%%%%%%%%%%%%%%%%%%%%%%%%%%%%%%%%%%%%%%%%%%%%%%@@@@@@@@@@@@@@@@@@@@@@@@@@@@@@@@@@@+@@@@@@@@@@@@@@@@@@@@@@@@@@@@@@@@@@@@@@@%%%%%%%%%%%%%%%%%%%%%%%%%%%%%%%%%%%%%%%%%%%%%%%%%%%%%%%ooooooooooooooooooooooooooooooooooooooooooooooooooooooooooooooooooooooooooooooooooo%%%%%%%%%%%%oooooooooooooooooooooooooooooooo@@@@@@@@@@@@@@@@@@",
"oooooooooooo%%%%%%%%%%%%%%%%%%%%%%%%%%%%%%%%%%%%%%%%%%%%%%%%%%%%%%%%%%%%%%%%%%%%%%%%%%%%%%%%%%%%@@@@@@@@@@@@@@@@@@@@@@@@@@@@@@@@@@@@@@@@@@@@@@@@@@@@@%%%%%%%%%%%%%%%%%==%%%%%%%%%%%%%%==%%%%%%%%%%%%%%%%%%%%%%%%%%%%%%%%%%%%%%%%%%%%%%%%%%%%%%%%%oooooooooooooooooooooooooooooooooooooooooooooooo%%%%%%%%%%%%%%%%%%%%%%%%%%%%%%%%%%%%%%%%%%%%%%%%%%%%%%%%%%%%%%@@@@@@@@@@@@@@@@@@@@@@@@@@@@@@@@@@@@@@@@@@@@@@@@@@@@@@@@@@@@@@@@@@@@@@@%%%%%%%%%%%%%%%%%%%%%%%%%%%%%%%%%%%%%%%%%%%%%%%%%%%%%%%%%%%ooooooooooooooooooooooooooooooooooooooooooooooooooooooooooooooooooooooooooooooooooo%%%%%%%%%%%%oooooooooooooooooooooooooooooooo@@@@@@@@@@@@@@@+@@",
"ooooooooooooooooooo%%%%%%oo%%%%%%%%%%%%%%%%%%%%%%%%%%%%%%%%%%%%%%%%%%%%%%%%%%%%%%%%%%%%%%%%%%%%%@@@@@@@@@@@@@@@@@@@@@@@@@@@@@@@@@@@@@@@@@@@@@@@@@@%%%%%%====%%=%=========%%%%%%=%%=%====%%%%%%%%%%%%%%%%%%%%%%%%%%%%%%%%%%%%%%%%%%%%%%%%%%%%%%%%%oooooooooooooooooooooooooooooooooooooooooooooooo%%%%%%%%%%%%%%%%%%%%%%%%%%%%%%%%%%%%%%%%%%%%%%%%%%%%%%%%%%%%%%@@@@@@@@@@@@@@@@@@@@@@@+@@@@@@@@@@@@@@@@@@@@@@@@@@@@@@@@@@@@@@@@@%%%%%%%%%%%%%%%%%%%%%%%%%%%%%%%%%%%%%%%%%%%%%%%%%%%%%%%%%%%%%%%%%ooooooooooooooooooooooooooooooooooooooooooooooooooooooooooooooooooooooooooooooooooo%%%%%%%%%%%%oooooooooooooooooooooooooooooooo@@@@@@@@@@+@@@@+@@",
"oooooooooooooooooooo%%%%oooo%%%%%%%%%%%%%%%%%%%%%%%%%%%%%%%%%%%%%%%%%%%%%%%%%%%%%%%%%%%%%%%%%%%%@@@@@@@@@@@@@@@@@@@@@@@@@@@@@@@@@@@@@@@@@@@@@@@@@=%%%%%%====%============%%%%%%=%%======%%%%%%%%%%%%%%%%%%%%%%%%%%%%%%%%%%%%%%%%%%%%%%%%%%%%%%%%%oooooooooooooooooooooooooooooooooooooooooooooooo%%%%%%%%%%%%%%%%%%%%%%%%%%%%%%%%%%%%%%%%%%%%%%%%%%%%%%%%%%%%%%@@@@@@@@@@@@@@@@@@@@@@@@@@@@@@@@@@@@@@@@@@@@@@@@@@@@@@@@@@@@@@@@@%%%%%%%%%%%%%%%%%%%%%%%%%%%%%%%%%%%%%%%%%%%%%%%%%%%%%%%%%%%%%%%%%ooooooooooooooooooooooooooooooooooooooooooooooooooooooooooooooooooooooooooooooooooo%%%%%%%%%%%%oooooooooooooooooooooooooooooooo@@@@@@@@@@@@@@++@@",
"ooooooooooooooooooooooooooooooo%%%%%%%%%%%%%%%%%%%%%%%%%%%%%%%%%%%%%%%%%%%%%%%%%%%%%%%%%%%%%%%%%@@@@@@@@@@@@@@@@@@@@@@@@@@@@@@@@@@@@@@@@@@@@@%%%=%%%%%=%%=============%%%%%%%%%%========%%%%%%%%%%%%%%%%%%%%%%%%%%%%%%%%%%%%%%%%%%%%%%%%%%%%%%%%%oooooooooooooooooooooooooooooooooooooooooooooooo%%%%%%%%%%%%%%%%%%%%%%%%%%%%%%%%%%%%%%%%%%%%%%%%%%%%%%%%%%%%%%@@@@@@@@@@@@@@@@@@@@@@@@+@@@@@@@@@%%%%========%%%%%%%====%%===%%%%%%%%%%%%%%%%%%%%%%%%%%%%%%%%%%%%%%%%%%%%%%%%%%%%%%%%%%%%%%%%%%%%ooooooooooooooooooooooooooooooooooooooooooooooooooooooooooooooooooooooooooooooooooooo%%%%%%%%%ooooooooooooooooooooooo%%oooooooo@@@@@@@@@@@@@@@@@@",
"oooooooooooooooooooooooooooooooo%%%%%%%%%%%%%%%%%%%%%%%%%%%%%%%%%%%%%%%%%%%%%%%%%%%%%%%%%%%%%%%%@@@@@@@@@@@@@@@@@@@@@@@@@@@@@@@@@@@@@@@@@%%%%%%%=%%%%%==%%============%%%%%%%%%%========%%%%%%%%%%%%%%%%%%%%%%%%%%%%%%%%%%%%%%%%%%%%%%%%%%%%%%%%%oooooooooooooooooooooooooooooooooooooooooooooooo%%%%%%%%%%%%%%%%%%%%%%%%%%%%%%%%%%%%%%%%%%%%%%%%%%%%%%%%%%%%%%@@@@@@@@@@@@@@@@@@@@@@@@@@@@@@@@@@%%%==========%%=%%%====%%====%%%%%%%%%%%%%%%%%%%%%%%%%%%%%%%%%%%%%%%%%%%%%%%%%%%%%%%%%%%%%%%%%%%%oooooooooooooooooooooooooooooooooooooooooooooooooooooooooooooooooooooooooooooooooooo%%%%%%%%%oooooooooooooooooooooooo%oooooooooooooooooooooooooo",
"oooooooooooooooooooooooooooooooo%%%%%%%%%%%%%%%%%%%%%%%%%%%%%%%%%%%%%%%%%%%%%%%%%%%%%%%%%%%%%%%%@@@@@@@@@@@@@@@@@@@@@@@@@@@@@@@@@@@@&&==================================%%%%%%%%%%====%%%%%%%%%%%%%%%%%%%%%%%%%%%%%%%%%%%%%%%%%%%%%%%%%%%%%%%%%%%%ooooooooooooooooooooooooooooooooooooooooooooooo%%%%%%%%%%%%%%%%%%%%%%%%%%%%%%%%%%%%%%%%%%%%%%%%%%%%%%%%%%%%%%@@@@@@@@@@@@@++@@@@@@@@@@@@@@@@@@@%============================%%=%%%%%%%%%%%%%%%%%%%%%%%%%%%%%%%%%%%%%%%%%%%%%%%%%%%%%%%%%%%%%%%%%oooooooooooooooooooooooooooooooooooooooooooooooooooooooooooooooooooooooooooooooooooo%%%%%%%%%ooooooooo%o%%oooooooooo%%oooooooooooooooooooooooooo",
"oooooooooooooooooooooooooooooooo%%%%%%%%%%%%%%%%%%%%%%%%%%%%%%%%%%%%%%%%%%%%%%%%%%%%%%%%%%%%%%%%@@@@@@@@@@@@@@@@@@@@@@@@@@@@@@@@@%======================================%%%%%%%%%====%=%%%%%%oooo%%%%%%%%%%%%%%%%%%%%%%%%%%%%%%%%%%%%%%%%%%%%%%%%%ooooooo%%%%%%oooooooooooooooooooooooooooooooooo%%%%%%%%%%%%%%%%%%%%%%%%%%%%%%%%%%%%%%%%%%%%%%%%%%%%%%%%%%%%%%@+@@@@@@@@@@@+@@@@@@@@@@@@@@@@@@@@%================================%%%%%%%%%%%%%%%%%%%%%%%%%%%%%%%%%%%%%%%%%%%%%%%%%%%%%%%%%%%%%%%%oooooooooooooooooooooooooooooooooooooooooooooooooooooooooooooooooooooooooooooooooooo%%%%%%%%%ooooooooo%%%%oooooooooo%%oooooooooooooooooooooooooo",
"oooooooooooooooooooooooooooooooo%%%%%%%%%%%%%%%%%%%%%%%%%%%%%%%%%%%%%%%%%%%%%%%%%%%%%%%%%%%%%%%%@@@@@@@@@@@@@@@@@@@@@@@@@@@@@@@@@%===================================%==%%%%%%%%%%====%%%%%%%oooo%%%%%%%%%%%%%%%%%%%%%%%%%%%%%%%%%%%%%%%%%%%%%%%%%ooooooo%%%%%%oooooooooooooooooooooooooooooooooo%%%%%%%%%%%%%%%%%%%%%%%%%%%%%%%%%%%%%%%%%%%%%%%%%%%%%%%%%%%%%%@@@@@@@@@@@@@@@@@@@@@@@@@@@@@@@@@&=================================%%%%%%%%%%%%%%%%%%%%%%%%%%%%%%%%%%%%%%%%%%%%%%%%%%%%%%%%%%%%%%%%ooooooooooooooooooooooooooooooooooooooooooooooooooooooooooooooooooooooooooooooooooo%%%%%%%%%%o%%%%%%%%%%%%%%%%%%%%%%%%%%%%%%%%%%%%%%ooooooooo%oo",
"oooooooooooooooooooooooooooooooo%%%%%%%%%%%%%%%%%%%%%%%%%%%%%%%%%%%%%%%%%%%%%%%%%%%%%%%%%%%%%%%%@@@@@@@@@@@@@@@@@@@@@@@@@@@@@@@@@%==================================%%==%%%%%%%%%%==%=%%%%%%%oooo%%%%%%%%%%%%%%%%%%%%%%%%%%%%%%%%%%%%%%%%%%%%%%%%%%%%%%%%%%%%%%oooooooooooooooooooooooooooooooooo%%%%%%%%%%%%%%%%%%%%oooooooo%%%%%%%%%%%%%%%%%%%%%%%%%%%%%%%%%%@+@@@@@@@@@@@@@@@@@@@@@@@@@@@@@@@&=================================%%%%%%====%%%%%%%%%%%%%%%%%%%%%%%%%%%%%%%%%%%%%%%%%%%%%%%%%%%%%%oooooooooooooooooooooooooooooooooooooooooooooooooooooooooooooo@oooooooooooooooooooooooooooo%%o%%%%%%%%%%%%%%%%%%%%%%%%%%%%%%%%%%%%%%%%%%%%%%%%%%",
"oooooooooooooooooooooooooooooooo%%%%%%%%%%%%%%%%%%%%%%%%%%%%%%%%%%%%%%%%%%%%%%%%%%%%%%%%%%%%%%%%@@@@@@@@@@@@@@@@@@@@@@@@@@@@@@@@@===%%%%=%%%%==%=%%%%==============%%%%=%%%%%%%%%%%===%%%%%%%oooo%%%%%%%%%%%%%%%%%%%%%%%%%%%%%%%%%%%%%%%%%%%%%%%%%%%%%%%%%%%%%%oooooooooooooooooooooooooooooooooo%%%%%%%%%%%%%%%%%%%%oooooooo%%%%%%%%%%%%%%%%%%%%%%%%%%%%%%%%%@@@@@@@@@@@@@@@@@@@@@@@@@@@@@@@@@&=============================================%%%%%%%%%%%%%%%%%%%%%%%%%%%%%%%%%%%%%%%%%%%%%%%%%%%%%oooooooooooooooooooooooooooooooooooooooooooooooooooooooooooooo@@@@@@@@@@@@@@@@@@@@@@@@@@@@@%%o%%%%%%%%%%%%%%%%%%%%%%%%%%%%%%%%%%%%%%%%%%%%%%%%%%",
"oooooooooooooooooooooooooooooooo%%%%%%%%%%%%%%%%%%%%%%%%%%%%%%%%o%%%%%%%%%%%%%%%%%%%%%%%%%%%%%%%@@@@@@@@@@@@@@@@@@@@@@@@@@@@@@@@@===%%%%==%%======%%====%%=========&%%%%%%%%%%%%%%%%=%%%%%%%%oooo%%%%%%%%%%%%%%%%%%%%%%%%%%%%%%%%%%%%%%%%%%%%%%%%%%%%%%%%%%%%%%%%%%%%%%%%%%%%%oo%%%%%%%%%%%%%%%%%%%%%%%%%%%%%%%%%%%oooooooooooo%%%%%%%%%%%%%%%%%%%%%%%%%%%%%%%%@@@@@%%%%%%@@@@@@%%%%%%@@@@@@%%===============================================%%%%%%%%%%%%%%%%%%%%%%%%%%%%%%%%%%%%%%%%%%%%%%%%%%o%%oooooooooooooooooooooooooooooooooooooooooooooooooooooooooooooo@@@@@@@@@@@@@@@@@@@@@@@@@@@@@@%%%%%%%%%%%%%%%%%%%%%%%%%%%%%%%%%%%%%%%%%%%%%%%%%%%%",
"%%%%%%%%%%%%%%%%%%%%%%%%%%%%%%%%ooooooooooooooooooooooooooooooo%o%%%%%%%%%%%%%%%%%%%%%%%%%%%%%%%%%@@@@@@@@@@@@@@@@@@@@@@@@@@@@@@%%%%%=====%%%=====%%%=====%%%%========%%%%%%%%%%%%==%%%%%%%%%%%%o%%%%%%%%%%%%%%%%%%%%%%%%%%%%%%%%%%%%%%%%%%%%%%%%%%%%ooo%%%%oooo@@@@@+@@@@++@@@@@@@@@@@@@@@@@+@@oo%%%%%%%%%%%%%%%%%o%oooooooooo%%%%%%%%%%%%%%%%%%%%%%%%%%%%%%%%%%%%%%%%%%%%%%%%%%%%%%%%%%%%%%================================================%%%%%%%%%%%%%%%%%%%%%%%%%%%%%%%%%%%%%%%%%%%%%%%%%%o%ooooooooooooooooooooooooooooooo%%%%%%%%%%%%%%%%%%%%%%%%%%%%%oooo@@@@@@@@@@@@@@+@@@@@@@@@@@@@@@%%%%%%%%%%%%%%%%%%%%%%%%%%%%%%%%%%%%%%%%%%%%%%%%%%%",
"%%%%%%%%%%%%%%%%%%%%%%%%%%%%%%%%ooooooooooooooooooooooooooooooooo%%%%%%%%%%%%%%%%%%%%%%%%%%%%%%%%%%%%%%%%%%%%%%%%%%%%%%%%%%%%%%%%%%%%=====%%%=====%%%======%%======%%%%%%%%%%%%%%%%%%%%%%%%%%%%%%%%%%%%%%%%%%%%%%%%%%%%%%%%%%%%%%%%%%%%%%%%%%%%%%%%%%ooo%ooooooo@@@@@@@@@@++@@@@@@@@@@@@@@+@@@@@oo%%%%%%%%%%%%%%%%%oooooooooooo%%%%%%%%%%%%%%%%%%%%%%%%%%%%%%%%%%%%%%%%%%%%%%%%%%%%%%%%%%%%%=================================================%%%%%%%%%%%%%%%%%%%%%%%%%%%%%%%%%%%%%%%%%%%%%%%%%%ooooooooooooooooooooooooooooooooo%%%%%%%%%%%%%%%%%%%%%%%%%%%%%%%oo@@@@@@@@@@@@@+@@@@@@@@@@@++@%@%%%%%%===%%%%%%====%%%%%%%%====%%%%%%%%====%%%%%%%%",
"%%%%%%%%%%%%%%%%%%%%%%%%%%%%%%%%ooooooooooooooooooooooooooooooooo%%%%%%%%%%%%%%%%%%%%%%%%%%%%%%%%%%%%%%%%%%%%%%%%%%%%%%%%%%%%%%%%%%%%%%%%%%%%%%%%%%%%%%%%%%%%%%%==%%%%%%%%%%%%%%%%%%%%%%%%%%%%%%%%%%%%%%%%%%%%%%%%%%%%%%%%%%%%%%%%%%%%%%%%%%%%%%%%%%%%oo%ooooooo@@@@@@@@@@@@@@@@@@@@+@@@@@++@@@@ooo%%%%%%%%%%%%%%%%oooooooooooo%%%%%%%%%%%%%%%%%%%%%%%%%%%%%%%%==============================================================================%%%%%%%%%%%%%%%%%%%%%%%%%%%%%%%%%%%%%%%%%%%%%%%%%%ooooooooooooooooooooooooooooooooo%%%%%%%%%%%%%%%%%%%%%%%%%%%%%%%oo@@@@@@@@@@@@@@+@@@@@@@@@@+@@%%%%%%===============================================",
"%%%%%%%%%%%%%%%%%%%%%%%%%%%%%%%%ooooooooooooooooooooooooooooooooo%%%%%%%%%%%%%%%%%%%%%%%%%%%%%%%%%%%%%%%%%%%%%%%%%%%%%%%%%%%%%%%%%%%%%%%%%%%%%%%%%%%%%%%%%%%%%%%%%%%%%%%%%%%%%%%%%%%%%%%%%%%%%%%%%%%%%%%%%%%%%%%%%%%%%%%%%%%%%%%%%%%%%%%%%%%%ooooooooooooooooooo@@@@@@@@@@@@@@@@@@@@++@@@@@+@@@@oooo%%%%%%%%%%%%%%%o%%%%oooooo%%%%%%%%%%%%%%%%%%%%%%%%%%%%%%%%%==============================================================================%%%%%%%%%%%%%%%%%%%%%%%%%%%%%%%%%%%%%%%%%%%%%%%%%%ooooooooooooooooooooooooooooooooo%%%%%%%%%%%%%%%%%%%%%%%%%%%%%%%%o@@@@@@@@@@@@@@@@@@@@@@@@@@@@%%%%%================================================",
"%%%%%%%%%%%%%%%%%%%%%%%%%%%%%%%%ooooooooooooooooooooooooooooooooo%%%%%%%%%%%%%%%%%%%%%%%%%%%%%%%%%%%%%%%%%%%%%%%%%%%%%%%%%%%%%%%%%%%%%%%%%%%%%%%%%%%%%%%%%%%%%%%%%%%%%%%%%%%%%%%%%%%%%%%%%%%%%%%%%%%%%%%%%%%%%%%%%%%%%%%%%%%%%%%%%%%%%%%%%%%%ooooooooooooooooooo@@@@@@@@@@@@+@@@@@@@@@@@@@@@@@@@o%%%%%%%%%%%%%%%%%%%%%%%%%%%%%%%%%%%%%%%%%%%%%%%%%%%%%%%%%%%%%%=============================================================================%%%%%%%%%%%%%%%%%%%%%%%%%%%%%%%%%%%%%%%%%%%%%%%%%%%ooooooooooooooooooooooooooooooooo%%%%%%%%%%%%%%%%%%%%%%%%%%%%%%%%oo@@@@@@%%%@@@@@%%%%%%%%@@@@@@%%%%================================================",
"%%%%%%%%%%%%%%%%%%%%%%%%%%%%%%%%ooooooooooooooooooooooooooooooooo%%%%%%%%%%%%%%%%%%%%%%%%%%%%%%%%%%%%%%%%%%%%%%%%%%%%%%%%%%%%%%%%%%%%%%%%%%%%%%%%%%%%%%%%%%%%%%%%%%%%%%%%%%%%%%%%%%%%%%%%%%%%%%%%%%%%%%%%%%%%%%%%%%%%%%%%%%%%%%%%%%%%%%%%%%ooooooooooooooooooooo@@@@@@@@@@@@++@@@@@@@@@@@@@@@@@@o%%%%%%%%%%%%%%%%%%%%%%%%%%%%%%%%%%%%%%%%%%%%%%%%%%%%%%%%%%%%%%============================================================================%%%%%%%%%%%%%%%%%%%%%oooooooooooooooooooooooooooooooooooooooooooooooooooooooooooooooo%%%%%%%%%%%%%%%%%%%%%%%%%%%%%%%%oo%%%%%%%%%%@@@@%%%%%%%%@@%%%%%%%%================================================",
"%%%%%%%%%%%%%%%%%%%%%%%%%%%%%%%%ooooooooooooooooooooooooooooooooo%%%%%%%%%%%%%%%%%%%%%%%%%%%%%%%%%%%%%%%%%%%%%%%%%%%%%%%%%%%%%%%%%%%%%%%%%%%%%%%%%%%%%%%%%%%%%%%%%%%%%%%%%%%%%%%%%%%%%%%%%%%%%%%%%%%%%%%%%%%%%%%%%%%%%%%%%%%%%%%%%%%%%%%%%%ooooooooooooooooooooo@@@@@@@@@@@@@@@@@@@@@@@@@@@@@@@@o%%%%%%%%%%%%%%%%%%%%%%%====%%%%=%%%%%%%%%%%%%%%%%%%%%%%%%%%%%%%=%%%===%==%%%%%%%%%%====%%%%===%==========================================%%%%%%%%%%%%%%%%%%%%%%oooooooooooooooooooooooooooooooo%%%%%%%%%%%%%%oooooooooooooooooo%%%%%%%%%%%%%%%%%%%%%%%%%%%%%%%%%%%%%%%%%%%%%%%%%%%%%%%%%%%%%%%%%%================================================",
"%%%%%%%%%%%%%%%%%%%%%%%%%%%%%%%%ooooooooooooooooooooooooooooooooo%%%%%%%%%%%%%%%%%%%%%%%%%%%%%%%%%%%%%%%%%%%%%%%%%%%%%%%%%%%%%%%%%%%%%%%%%%%%%%%%%%%%%%%%%%%%%%%%%%%%%%%%%%%%%%%%%%%%%%%%%%%%%%%%%%%%%%%%%%%%%%%%%%%%%%%%%%%%%%%%%%%%%%%%%%oooooooooooooooooooooooooooooooooooooooooooooooooooooo%%%%%%%%%%%%%%%%%%%%%%%===%%%%%==%%%%%%%%%%%%%%%%%%%%%%%%%%%%%%%%%%%%%%%%%%%%%%%%%%%%%%%%%%%%%%=========================================%%%%%%%%%%%%%%%%%%%%%%%oooooooooooooooooooooooooooooooo%%%%%%%%%%%%%%oooooooooooooooooo%%%%%%%%%%%%%%%%%%%%%%%%%%%%%%%%%%%%%%%%%%%%%%%o%%%%%%%%%%%%%%%%%%%===============================================",
"%%%%%%%%%%%%%%%%%%%%%%%%%%%%%%%%ooooooooooooooooooooooooooooooooo%%%%%%%%%%%%%%%%%%%%%%%%%%%%%%%%%%%%%%%%%%%%%%%%%%%%%%%%%%%%%%%%%%%%%%%%%%%%%%%%%%%%%%%%%%%%%%%%%%%%%%%%%%%%%%%%%%%%%%%%%%%%%%%%%%%%%%%%%%%%%%%%%%%%%%%%%%%%%%%%%%%%%%%%%%oooooooooooooooooooooooooooooooooooooooooooooooooooooo%%%%%%%%%%%%%%%%===%%%%======%%===%%%%%%%%%%%%%%%%%%%%%%%%%%%%%%%%%%%%%%%%%%%%%%%%%%%%%%%%%%%%===========================================%%%%%%%%%%%%%%%%%%%%%%oooooooooooooooooooooooooooooooo%%%%%%%%%%%%%%%oooooooooooooooooo%%%%%%%%%%%%%%%%%%%%%%%%%%%%%%%%%%%%%%%%%%%%%%%%%%%%%%%%%%%%%%%%%%=%%%=====%%%=====%%%%%%======%%%%========%%%%=%",
"%%%%%%%%%%%%%%%%%%%%%%%%%%%%%%%oooooooooooooooooooooooooooooooooo%%%%%%%%%%%%%%%%%%%%%%%%%%%%%%%%%%%%%%%%%%%%%%%%%%%%%%%%%%%%%%%%%%%%%%%%%%%%%%%%%%%%%%%%%%%%%%%%%%%%%%%%%%%%%%%%%%%%%%%%%%%%%%%%%%%%%%%%%%%%%%%%%%%%%%%%%%%%%%%%%%%%%%%%%%oooooooooooooooooooooooooooooooooooooooooooooooooooooo%%%%%%%%%%%%%%%%===%%%%======%%===%%%%%%%%%%%%%%%%%%%%%%%%%%%%%%%%%%%%%%%%%%%%%%%%%%%%%%%%%%%%=%======================================%=%%%%%%%%%%%%%%%%%%%%%%%oooooooooooooooooooooooooooooo%%%%%%%%%%%%%%%%%ooooooooooooooooooo%%%%%%%%%%%%%%%%%%%%%%%%%%%%%%%%%%%%%%%%%%%%%%%%%%%%%%%%%%%%%%%%%%%%%%%%%%%%%%%%%%%%%%%%%%%%%%%%%%%%%%%%%%%%%%%%",
"%%%%%%%%%%%%%%%%%%%%%%%%%%%%%%%oooooooooooooooooooooooooooooooooo%%%%%%%%%%%%%%%%%%%%%%%%%%%%%%%%%%%%%%%%%%%%%%%%%%%%%%%%%%%%%%%%%%%%%%%%%%%%%%%%%%%%%%%%%%%%%%%%%%%%%%%%%oo%%%%%%%%%%%%%%%%%%%%%%%%%%%%%%%%%%%%%%%%%%%%%%%%%%%%%%%%%%%%%%%ooooooooooooooooooooooooooooooooooooooooooooooooooooo%%%%%=============================%%%%%%%%%%%%%%%%%%%%%%%%%%%%%%%%%%%%%%%%%%%%%%%%%%%%%%%%%%%%%%%%%%====%%%%====%=%%=====%%%%%=%====%%%%%%%%%%%%%%%%%%%%%%%%%%%%oooooooooooooooooooooooooooooo%%%%%%%%%%%%%%%%%%%%oooooooooooooooo%%%%%%%%%%%%%%%%%%%%%%%%%%%%%%%%%%%%%%%%%%%%%%%%%%%%%%%%%%%%%%%%%%%%%%%%%%%%%%%%%%%%%%%%%%%%%%%%%%%%%%%%%%%%%%%%",
"%%%%%%%%%%%%%%%%%%%%%%%%%%%%%%%oooooooooooooooooooooooooooooooooo%%%%%%%%%%%%%%%%%%%%%%%%%%%%%%%%%%%%%%%%%%%%%%%%%%%%%%%%%%%%%%%%%%%%%%%%%%%%%%%%%%%%%%%%%%%%%%%%oooooooooooooooooooooooooooooo%%%%%%%%%%%%%%%%%%%%%%%%%%%%%%%%%%%%%%%%%%%%ooooooooooooooooooooooooooooooooooooooooooooooooooo%%%%%%===========================%=%%%%%%%%%%%%%%%%%%%%%%%%%%%%%%%%%%%%%%%%%%%%%%%%%%%%%%%%%%%%%%%%%%%%%%%%%%%%%%%%%%%%%%%%%%%%%%%====%%%%%%%%%%%%%%%%%%%%%%%%%%%%%ooooooooooooooooooooooooooooo%%%%%%%%%%%%%%%%%%%%oooooooooooooooo%%%%%%%%%%%%%%%%%%%%%%%%%%%%%%%%%%%%%%%%%%%%%%%%%%%%%%%%%%%%%%%%%%%%%%%%%%%%%%%%%%%%%%%%%%%%%%%%%%%%%%%%%%%%%%%%",
"%%%%%%%%%%%%%%%%%%%%%%%%%%%%%%%oooooooooooooooooooooooooooooooooo%%%%%%%%%%%%%%%%%%%%%%%%%%%%%%%%%%%%%%%%%%%%%%%%%%%%%%%%%%%%%%%%%%%%%%%%%%%%%%%%%%%%%%%%%%%%%%%%oooooooooooooooooooooooooooooo%%%%%%%%%%%%%%%%%%%%%%%%%%%%%%%%%%%%%%%%%%%%ooooooooooooooooooo%%oo%%%%%%%%%%o%%%%%%%%%%%%%%%%%%%%%%=====================%%=%%===%%%%%%%%%%%%%%%%%%%%%%%%%%%%%%%%%%%%%%%%%%%%%%%%%%%%%%%%%%%%%%%%%%%%%%%%%%%%%%%%%%%%%%%%%%%%%%%%====%%%%%%%%%%%%%%%%%%%%%%%%%%%%%%oooooooooooooooooooooooooooo%%%%====%%%%%%%%%%%%oooooooooooooooo%%%%%%%%%%%%%%%%%%%%%%%%%%%%%%%%%%%%%%%%%%%%%%%%%%%%%%%%%%%%%%%%%%%%%%%%%%%%%%%%%%%%%%%%%%%%%%%%%%%%%%%%%%%%%%%%",
"%%%%%%%%%%%%%%%%%%%%%%%%%%%%%%%oooooooooooooooooooooooooooooooooo%%%%%%%%%%%%%%%%%%%%%%%%%%%%%%%%%%%%%%%%%%%%%%%%%%%%%%%%%%%%%%%%%%%%%%%%%%%%%%%%%%%%%%%%%%%%%%oooooooooooooooooooooooooooooooo%%%%%%%%%%%%%%%%%%%%%%%%%%%%%%%%%%%%%%%%%%%%%%%%%%oooooooooooo%%%%%%%%%%%%%%%%%%%%%%%%%%%%%%%%%%%=======================%%%%%%%%%%%%%%%%%%%%%%%%%%%%%%%%%%%%%%%%%%%%%%%%%%%%%%%%%%%%%%%%%%%%%%%%%%%%%%%%%%%%%%%%%%%%%%%%%%%%%%%%%%%%%%%%%%%%%%%%%%%%%%%%%%%%%%%%%%%%oooooooooooooooooooooooooo%%%%%====%%%%%%%%%%%%oooooooooooooooo%%%%%%%%%%%%%%%%%%%%%%%%%%%%%%%%%%%%%%%%%%%%%%%%%%%%%%%%%%%%%o%%%%ooooo%o%oooo%%%%oooooooo%%%%%%%%%%%%%%%%%%%%%%",
"%%%%%%%%%%%%%%%%%%%%%%%%%%%%%%%oooooooooooooooooooooooooooooooooo%%%%%%%%%%%%%%%%%%%%%%%%%%%%%%%%%%%%%%%%%%%%%%%%%%%%%%%%%%%%%%%%%%%%%%%%%%%%%%%%%%%%%%%%%%%%%%oooooooooooooooooooooooooooooooo%%%%%%%%%%%%%%%%%%%%%%%%%%%%%%%%%%%%%%%%%%%%%%%%%%ooooooooooo%%%%%%%===========================================%%%%%%==%%%%%%%%%%%%%%%%%%%%%%%%%%%%%%%%%%%%%%%%%%%%%%%%%%%%%%%%%%%%%%%%%%%%%%%%%%%%%%%%%%%%%%%%%%%%%%%%%%%%%%%%%%%%%%%%%%%%%%%%%%%%%%%%%%%%%%%%%%%%%%%%%%%%%%%%%%%%%%%%%%%%%%%%%%%======%=%%%%%%%%%oooooooooooooo%o%%%%%%%%%%%%%%%%%%%%%%%%%%%%%%%%%%%%%%%%%%%%%%%%%%%%%%%%%%%%oo%ooooooooooooooooooooooooooooooooooooooooooooooooo",
"%%%%%%%%%%%%%%%%%%%%%%%%%%%%%%%oooooooooooooooooooooooooooooooooo%%%%%%%%%%%%%%%%%%%%%%%%%%%%%%%%%%%%%%%%%%%%%%%%%%%%%%%%%%%%%%%%%%%%%%%%%%%%%%%%%%%%%%%%%%%%%%oooooooooooooooooooooooooooooooo%%%%%%%%%%%%%%%%%%%%%%%%%%%%%%%%%%%%%%%%%%%%%%%%%%%%ooooo%%%%%%%%%%===========================================%%%%%%%%%%%%%%%%%%%%%%%%%%%%%%%%%%%%%%%%%%%%%%%%%%%%%%%%%%%%%%%%%%%%%%%%%%%%%%%%%%%%%%%%%%%%%%%%%%%%%%%%%%%%%%%%%%%%%%%%%%%%%%%%%%%%%%%%%%%%%%%%%%%%%%%%%%%%%%%%%%%%%%%%%%%%%%%%%%%==========%%%%%%%%oooooooooooooo%%%%%%%%%%%%%%%%%%%%%%%%%%%%%%%%oooooooooooooooooooooooooooooooooooooooooooooooooooooooooooooooooooooooooo%ooooooo",
"%%%%%%%%%%%%%%%%%%%%%%%%%%%%%%%oooooooooooooooooooooooooooooooooo%%%%%%%%%%%%%%%%%%%%%%%%%%%%%%%%%%%%%%%%%%%%%%%%%%%%%%%%%%%%%%%%%%%%%%%%%%%%%%%%%%%%%%%%%%%%%%oooooooooooooooooooooooooooooooo%%%%%%%%%%%%%%%%%%%%%%%%%%%%%%%%%%%%%%%%%%%%%%%%%%%%%%%%%%%%%%%%%%======================================%%===%%%%%%%%%%%%%%%oooo%%%%%%%%%%%%%%%%%%%%%%%%%%%%%%%%%%%%%%%%%%%%%%%%%%%%%%%%%%%%%%%%%%%%%%%%%%%%%%%%%%%%%%%%%%%%%%%%%%%%%%%%%%%%%%%%%%%%%%%%%%%%%%%%%%%%%%%%%%%%%%%%%%%%%%%%%%%%%%%%=%==========%%%%%%%oooooooooooooooo%%%%%%%%%%%%%%%%%%%%%%%%%%%%%%oooooooooooooooooooooooooooooooooooooooooooooooooooooooooooooooooooooooooooooooooo",
"%%%%%%%%%%%%%%%%%%%%%%%%%%%%%%%oooooooooooooooooooooooooooooooooo%%%%%%%%%%%%%%%%%%%%%%%%%%%%%%%%%%%%%%%%%%%%%%%%%%%%%%%%%%%%%%%%%%%%%%%%%%%%%%%%%%%%%%%%%%%%%%%%%%%%%%%%%%%%%%%%%%%%%%%%%%%%%%%%%%%%%%%%%%%%%%%%%%%%%%%%%%%%%%%%%%%%%%%%%%%%%%%%%%%%%%%%%%%%%%%=================================%%=%%%%%%%%%%%%%%%%%%%%%%oooooo%%%%%%%%%%%%%%%%%%%%%%%%%%%%%%%%%%%%%%%%%%%%%%%%%%%%%%%%%%%%%%%%%%%%%%%%%%%%%%%%%%%%%%%%%%%%%%%%%%%%%%%%%%%%%%%%%%%%%%%%%%%%%%%%%%%%==%%%%%%%%==%==%%%%%%%%%%%=============%%%%%%%%ooooooooooooooo%%%%%%%%%%%%%%%%%%%%%%%%%%%%%%oooooooooooooooooooooooooooooooooooooooooooooooooooooooooooooooooooooooooooooooooo",
"%%%%%%%%%%%%%%%%%%%%%%%%%%%%%%%oooooooooooooooooooooooooooooooooo%%%%%%%%%%%%%%%%%%%%%%%%%%%%%%%%%%%%%%%%%%%%%%%%%%%%%%%%%%%%%%%%%%%%%%%%%%%%%%%%%%%%%%%%%%%%%%%%%%%%%%%%%%%%%%%%%%%%%%%%%%%%%%%%%%%%%%%%%%%%%%%%%%%%%%%%%%%%%%%%%%%%%%%%%%%%%%%%%%%%%%%%%%%%%%%==============================%%%%%%%%%%%%%%%%%%%%%%%%%%%ooooooo%%%%%%%%%%%%%%%%%%%%%%%%%%%%%%%%%%%%%%%%%%%%%%%%%%%%%%%%%%%%%%%%%%%%%%%%%%%%%%%%%%%%%%%%%%%%%%%%%%%%%%%%%%%%%%%%%%%%%%%%%%%%%%%%%==========================================%%%%%%%%%oooooooooooooo%%%%%%%%%%%%%%%%%%%%%%%%%%%%%%oooooooooooooooooooooooooooooooooooooooooooooooooooooooooooooooooooooooooooooooooo",
"%%%%%%%%%%%%%%%%%%%%%%%%%%%%%%%ooooooooooooooooooooooooooooooooo%%%%%%%%%%%%%%%%%%%%%%%%%%%%%%%%%%%%%%%%%%%%%%%%%%%%%%%%%%%%%%%%%%%%%%%%%%%%%%%%%%%%%%%%%%%%%%%%%%%%%%%%%%%%%%%%%%%%%%%%%%%%%%%%%%%%%%%%%%%%%%%%%%%%%%%%%%%%%%%%%%%%%%%%%%%%%%%%%%%%%%%%%%%%%%%=%============================%%%%%%%%%oo%%%%%%oo%%%%%%%%ooooooo%%%%%%%%%%%%%%%%%%%%%%%%%%%%%%%%%%%%%%%%%%%%%%%%%%%%%%%%%%%%%%%%%%%%%%%%%%%%%%%%%%%%%%%%%%%%%%%%%%%%%%%%%%%%%%%%%%%%%%%%%%%%%==%%===========================================%%%%%%%%%%oooooooooooo%%%%%%%%%%%%%%%%%%%%%%%%%%%%%%%oooooooooooooooooooooooooooooooooooooooooooooooooooooooooooooooooooooooooooooooooo",
"%%%%%%%%%%%%%%%%%%%%%%%%%%%%%%%oooooooooooooooooooooooooooooooooo%%%%%%%%%%%%%%%%%%%%%%%%%%%%%%%%%%%%%%%%%%%%%%%%%%%%%%%%%%%%%%%%%%%%%%%%%%%%%%%%%%%%%%%%%%%%%%%%%%%%%%%%%%%%%%%%%%%%%%%%%%%%%%%%%%%%%%%%%%%%%%%%%%%%%%%%%%%%%%%%%%%%%%%%%%%%%%%%%%%%%%%%%%%%%%%%%%=%%%%=%%%%%%%%%%=%%%%%%%%%%%%%%%ooooooooooooooooooooo%%%%%%%%%%%%%%%%%%%%%%%%%%%%%%%%%%%%%%%%%%%%%%%%%%%%%%%%%%%%%%%%%%%%%%%%%%%%%%%%%%%%%%%%%%%%%%%%%%%%%%%%%%%%%%%%%%%%%%%%%%%%%%%%%%%=%=============================================%%%%%%%%%%%%oooooooooo%%%%%%%%%%%%%%%%%%%%%%%%%%%%%%%%oooooooooooooooooooooooooooooooooooooooooooooooooooooooooooooooooooooooooooooooooo",
"%%%%%%%%%%%%%%%%%%%%%%%%%%%%%%%ooooooooooooooooooooooooooooooooo%%%%%%%%%%%%%%%%%%%%%%%%%%%%%%%%%%%%%%%%%%%%%%%%%%%%%%%%%%%%%%%%%%%%%%%%%%%%%%%%%%%%%%%%%%%%%%%%%%%%%%%%%%%%%%%%%%%%%%%%%%%%%%%%%%%%%%%%%%%%%%%%%%%%%%%%%%%%%%%%%%%%%%%%%%%%%%%%%%%%%%%%%%%%%%%%%%%%%%%%%%%%%%%%%%%%%%%%%%%%%%%%%%%oooooooooooooooooooo%%%%%%%%%%%%%%%%%%%%%%%%%%%%%%%%%%%%%%%%%%%%%%%%%%%%%%%%%%%%%%%%%%%%%%%%%%%%%%%%%%%%%%%%%%%%%%%%%%%%%%%%%%%%%%%%%%%%%%%%%%%%%%%%%=================================================%%%%%%%%%%%%%%oooooooo%%%%%%%%%%%%%%%%%%%%%%%%%%%%%%%%%oooooooooooooooooooooooooooooooooooooooooooooooooooooooooooooooooooooooooooooooooo",
"%%%%%%%%%%%%%%%%%%%%%%%%%%%%%%%ooooooooooooooooooooooooooooooooo%%%%%%%%%%%%%%%%%%%%%%%%%%%%%%%%%%%%%%%%%%%%%%%%%%%%%%%%%%%%%%%%%%%%%%%%%%%%%%%%%%%%%%%%%%%%%%%%%%%%%%%%%%%%%%%%%%%%%%%%%%%%%%%%%%%%%%%%%%%%%%%%%%%%%%%%%%%%%%%%%%%%%%%%%%%%%%%%%%%%%%%%%%%%%%%%%%%%%%%%%%%%%%%%%%%%%%%%%%%%%%%ooooooooooooooooooooooo%%%%%%%%%%%%%%%%%%%%%%%%%%%%%%%%%%%%%%%%%%%%%%%%%%%%%%%%%%%%%%%%%%%%%%%%%%%%%%%%%%%%%%%%%%%%%%%%%%%%%%%%%%%%%%%%%%%%%%%%%%%%%%%%%%================================================%%%%%%%%%%%%%%%%%%%%%%%%%%%%%%%%%%%%%%%%%%%%%%%%%%%%%%%%oooooooooooooooooooooooooooooooooooooooooooooooooooooooooooooooooooooooooooooooooo",
"%%%%%%%%%%%%%%%%%%%%%%%%%%%%%%%ooooooooooooooooooooooooooooooooo%%%%%%%%%%%%%%%%%%%%%%%%%%%%%%%%%%%%%%%%%%%%%%%%%%%%%%%%%%%%%%%oooooooooooooooooooooooooooooooo%%%%%%%%%%%%%%%%%%%%%%%%%%%%%%%%%%%%%%%%%%%%%%%%%%%%%%%%%%%%%%%%%%%%%%%%%%%%%%%%%%%%%%%%%%%%%%%%%%%%%%%%%%%%%%%%%%%%%%%%%%%%%%%oooooooooooooooooooooooo%%%%%%%%%%%%%%%%%%%%%%%%%%%%%%%%%%%%%%%%%%%%%%%%%%%%%%%%%%%%%%%%%%%%%%%%%%%%%%%%%%%%%%%%%%%%%%%%%%%%%%%%%%%%%%%%%%%%%%%%%%%%%%%%%%=================================================%%%%%%%%%%%%%%%%%%%%%%%%%%%%%%%%%%%%%%%%%%%%%%%%%%%%%%%oooooooooooooooooooooooooooooooooooooooooooooooooooooooooooooooooooooooooooooooooo",
"%%%%%%%%%%%%%%%%%%%%%%%%%%%%%%%ooooooooooooooooooooooooooooooooo%%%%%%%%%%%%%%%%%%%%%%%%%%%%%%%%%%%%%%%%%%%%%%%%%%%%%%%%%%%%%%%oooooooooooooooooooooooooooooooo%%%%%%%%%%%%%%%%%%%%%%%%%%%%%%%%%%%%%%%%%%%%%%%%%%%%%%%%%%%%%%%%%%%%%%%%%%%%%%%%%%%%%%%%%%%%%%%%%%%%%oooooooooooo%%%%ooooooooooooooooooooooooooooooooooo%%%%%%%%%%%%%%%%%%%%%%%%%%%%%%%%%%%%%%%%%%%%%%%%%%%%%%%%%%%%%%%%%%%%%%%%%%%%%%%%%%%%%%%%%%%%%%%%%%%%%%%%%%%%%%%%%%%%%%%%%%%%%%===========================================%%======%%%%%%%%%%%%%%%%%%%%%%%%%%%%%%%%%%%%%%%%%%%%%%%%%%%%%%%%oooooooooooooooooooooooooooooooooooooooooooooooooooooooooooooooooooooooooooooooooo",
"%%%%%%%%%%%%%%%%%%%%%%%%%%%%%%%ooooooooooooooooooooooooooooooooo%%%%%%%%%%%%%%%%%%%%%%%%%%%%%%%%%%%%%%%%%%%%%%%%%%%%%%%%%%%%%%%oooooooooooooooooooooooooooooooo%%%%%%%%%%%%%%%%%%%%%%%%%%%%%%%%%%%%%%%%%%%%%%%%%%%%%%%%%%%%%%%%%%%%%%%%%%%%%%%%%%%%%%%%%%%%%%%%%%%%%oooooooooooo%%%%oooooooooooooooooooooooooooooooooooo%%%%%%%%%%%%%%%%%%%%%%%%%%%%%%%%%%%%%%%%%%==%%%%%%===%%%=====%%%%%===%%%%%%%%%%%%%%%%%%%%%%%%%%%%%%%%%%%%%%%%%%%%%%%%%%%%%%%%===========================================%%%%%%%%%%%%%%%%%%%%%%%%%%%%%%%%%%%%%%%%%%%%%%%%%%%%%%%%%%%%%%%%oooooooooooooooooooooooooooooooooooooooooooooooooooooooooooooooooooooooooooooooooo",
"%%%%%%%%%%%%%%%%%%%%%%%%%%%%%%%ooooooooooooooooooooooooooooooooo%%%%%%%%%%%%%%%%%%%%%%%%%%%%%%%%%%%%%%%%%%%%%%%%%%%%%%%%%%%%%%%oooooooooooooooooooooooooooooooo%%%===============================%%%%%%%%%%%%%%%%%%%%%%%%%%%%%%%%%%%%%%%%%%%%%%%%%%%%%%%%%%%%%%%%o%%oooooooooooooo%%ooooooooooooooooooooooooooooooooooooooooooo%%%%%%%%%%%%%%%%%%%%%%%%%%%%%%%%%%==============================%=%%%%%%%%%%%%%%%%%%%%%%%%%%%%%%%%%%%%%%%%%%%%%%%%%%%%===========%%%%====%%%%====%%%%====%%%%====%%%%%%%%%%%%%%%%%%%%%%%%%%%%%%%%%%%%%%%%%%%%%%%%%%%%%%%%%%%%%%%%oooooooooooooooooooooooooooooooooooooooooooooooooooooooooooooooooooooooooooooooooo",
"%%%%%%%%%%%%%%%%%%%%%%%%%%%%%%%ooooooooooooooooooooooooooooooooo%%%%%%%%%%%%%%%%%%%%%%%%%%%%%%%%%%%%%%%%%%%%%%%%%%%%%%%%%%%%%%%oooooooooooooooooooooooooooooooo%%%===============================%%%%%%%%%%%%%%%%%%%%%%%%%%%%%%%%%%%%%%%%%%%%%%%%%%%%%%%%%%%%%%%ooo%oooooooooooooooooooooooooooooooooooooooooooooooooooooooooooo%%%%%%%%%%%%%%%%%%%%%%%%%%%%%%%%%================================%%%%%%%%%%%%%%%%%%%%%%%%%%%%%%%%%%%%%%%%%%%%%%%%%%%%===========%%%%%%%%%%%%%%%%%%%%%%%%%%%%%%%%%%%%%%%%%%%%%%%%%%%%%%%%%%%%%%%%%%%%%%%%%%%%%%%%%%%%%%%%%%%%%%%%oooooooooooooooooooooooooooooooooooooooooooooooooooooooooooooooooooooooooooooooooo",
"%%%%%%%%%%%%%%%%%%%%%%%%%%%%%%%ooooooooooooooooooooooooooooooooo%%%%%%%%%%%%%%%%%%%%%%%%%%%%%%%%%%%%%%%%%%%%%%%%%%%%%%%%%%%%%%%ooooooooooooooooooooooooooooooo%%%================================%%%%%%%%%%%%%%%%%%%%%%%%%%%%%%%%%%%%%%%%%%%%%%%%%%%%%%%%%%%%%%%oooooooooooooooooooooooooooooooooooooooooooooooooooooooooooooooo%%%%%%%%%%%%%%%%%%%%%%%%%%%%%%%%%================================%%%%%%%%%%%%%%%%%%%%%%%%%%%%%%%%%%%%%%%%%%%%%%%%%%%%%==========%%%%%%%%%%%%%%%%%%%%%%%%%%%%%%%%%%%%%%%%%%%%%%%%%%%%%%%%%%%%%%%%%%%%%%%%%%%%%%%%%%%%%%%%%%%%%%oooooooooooooooooooooooooooooooooooooooooooooooooooooooooooooooooooooooooooooooooooo",
"oooooooooooooooooooooooooooooooooooooooooooooooooooooooooooooooo%%%%%%%%%%%%%%%%%%%%%%%%%%%%%%%%%%%%%%%%%%%%%%%%%%%%%%%%%%%%%%%oooooooooooooooooooooooooooooo%%%=================================%%%%%%%%%%%%%%%%%%%%%%%%%%%%%%%%%%%%%%%%%%%%%%%%%%%%%%%%%%%%%%%oooooooooooooooooooooooooooooooooooooooooooooooooooooooooooooooo%%%%%%%%%%%%%%%%%%%%%%%%%%%%%%%%%%=============================%%%%%%%%%%%%%%%%%%%%%%%%%%%%%%%%%%%%%%%%%%%%%%%%%%%%%%%%=========%%%%%%%%%%%%%%%%%%%%%%%%%%%%%%%%%%%%%%%%%%%%%%%%%%%%%%%%%%%%%%%%%%%%%%%%%%%%%%%%%%%%%%%%%%%%%%oooooooooooooooooooooooooooooooooooooooooooooooooooooooooooooooooooooooooooooooooooo",
"oooooooooooooooooooooooooooooooooooooooooooooooooooooooooooooooo%%%%%%%%%%%%%%%%%%%%%%%%%%%%%%%%%%%%%%%%%%%%%%%%%%%%%%%%%%%%%%%ooooooooooooooooooooooooooooo%%%%==========================%%====%%%%%%%%%%%%%%%%%%%%%%%%%%%%%%%%%%%%%%%%%%%%%%%%%%%%%%%%%%%%%%%%oooooooooooooooooooooooooooooooo%%%%oooo%%%%oooooooooooooooooooo%%%%%%%%%%%%%%%%%%%%%%%%%%%%%%%%%%%%===%%%%%===%%%%%===%%%%%===%%%%%%%%%%%%%%%%%%%%%%%%%%%%%%%%%%%%%%%%%%%%%%%%%%%%%%%%%%%%%===%%%%%%%%%%%%%%%%%%%%%%%%%%%%%%%%%%%%%%%%%%%%%%%%%%%%%%%%%%%%%%%%%%%%%%%%%%%%%%%%%%%%%%%%%%%%%%%oooooooooooooooooooooooooooooooooooooooooooooooooooooooooooooooooooooooooooooooooooo",
"oooooooooooooooooooooooooooooooooooooooooooooooooooooooooooooooo%%%%%%%%%%%%%%%%%%%%%%%%%%%%%%%%%%%%%%%%%%%%%%%%%%%%%%%%%%%%%%%oooooooooooooo%%oooo%%%%%%%%%%%%%==::====:================%%%%%%%%%%%%%%%%%%%%%%%%%%%%%%%%%%%%%%%%%%%%%%%%%%%%%%%%%%%%%%%%%%%%%%%oooooooooooooooooooooooooooooooo%%%%oooo%%%%oooooooooooooooooooo%%%%%%%%%%%%%%%%%%%%%%%%%%%%%%%%%%%%%%%%%%%%%%%%%%%%%%%%%%%%%%%%%%%%%%%%%%%%%%%%%%%%%%%%%%%%%%%%%%%%%%%%%%%%%%%%%%%%%%%%%%%%%%%%%%%%%%%%%%%%%%%%%%%%%%%%%%%%%%%%%%%%%%%%%%%%%%%%%%%%%%%%%%%%%%%%%%%%%%%%%%%%%%%%%%%%%%%%%%%%%%oooooooooooooooooooooooooooooooooooooooooooooooooooooooooooooooooooooooooooooooooooo",
"ooooooooooooooooooooooooooooooooooooooooooooooooooooooooooooooooo%%%%%%%%%%%%%%%%%%%%%%oooooo%%%%%%%%%%%%%%%%%%%%%%%%%%%%%%%%%%ooooooooo%%%oo%%oooo%%%%%%%%%%%%===::::::::=:===========%==%%%%%%%%%%%%%%%%%%%%%%%%%%%%%%%%%%%%%%%%%%%%%%%%%%%%%%%%%%%%%%%%%%%%%%ooooooooooooooooooooooooooooooooooooooooooooooooooooooooooooooooo%%%%%%%%%%%%%%%%%%%%%%%%%%%%%%%%%%%%%%%%%%%%%oo%%%%%%%%%%%%%%oo%%%%%%%%%%%%%%%%%%%%%%%%%%%%%%%%%%%%%%%%%%%%%%%%%%%%%%%%%%%%%%%%%%%%%%%%%%%%%%%%%%%%%%%%%%%%%%%%%%%%%%%%%%%%%%%%%%%%%%%%%%%%%%%%oooooooooooooooooooooooooooooooooooooooooooooooooooooooooooooooooooooooooooooooooooooooooooooooooooooooooooooooooo",
"oooooooooooooooooooooooooooooooooooooooooooooooooooooooooooooooooo%%%%%%%%%%%%%%%%%%%%%oooooo%%%%%%%%%%%%%%%%%%%%%%%%%%%%%%%%%%%%oooooo%%%%%%%%%%%%%%%%%%%%%%%====:::::::::=:=========%%%%%%%%%%%%%%%%%%%%%%%%%%%%%%%%%%%%%%%%%%%%%%%%%%%%%%%%%%%%%%%%%%%%%%%%%%ooooooooooooooooooooooooooooooooooooooooooooooooooooooooooooooooo%%%%%%%%%%%%%%%%%%%%%%%%%%%%%%ooooooooooooooooooooooooooooooooo%%%%%%%%%%%%%%%%%%%%%%%%%%%%%%%%%%%%%%%%%%%%%%%%%%%%%%%%%%%%%%%%%%%%%%%%%%%%%%%%%%%%%%%%%%%%%%%%%%%%%%%%%%%%%%%%%%%%%%%%%%%%%%%%oooooooooooooooooooooooooooooooooooooooooooooooooooooooooooooooooooooooooooooooo%%%ooooooooooooooooo%%%%%%%%%%%%%%",
"oooooooooooooooooooooooooooooooooooooooooooooooooooooooooooooooooo%%%%%%%%%%%%%%%%%%%%%%%%%%%%%%%%%%%%%%%%%%%%%%%%%%%%%%%%%%%%%%%oooooo%%%%%%%%%%%%%%%%%%%%%%====:::<<:::::=::========%%%%%%%%%%%%%%%%%%%%%%%%%%%%%%%%%%%%%%%%%%%%%%%%%%%%%%%%%%%%%%%%%%%%%%%%%%ooooooooooooooooooooooooooooooooooooooooooooooooooooooooooooooooo%%%%%%%%%%%%%%%%%%%%%%%%%%%%%%ooooooooooooooooooooooooooooooooooo%%ooooooooooooooooooooooooooo%%%%%%%%%%%%%%%%%%%%%%%%%%%%%%%%%%ooooooooooooooooooooooooooooooo%%%%ooooooooooooooooooooooooooooooooooooooooooooooooooooooooooooooooooooooooooooooooooooooooooooooooooooooooo%%%%%%oooooooooooooo%oo%%%%%%%%%%%%%%",
"oooooooooooooooooooooooooooooooooooooooooooooooooooooooooooooooooo%%%%%%%%%%=======%%%%%%%%%%%%%%%%%%%%%%%%%%%%%%%%%%%%%%%%%%%%%%%%%%%%%%%%%%%%%%%%%%%%%%%%%=====:::::::::::::========%%%%%%%%%%%%%%%%%%%%%%%%%%%%%%%%%%%%%%%%%%%%%%%%%%%%%%%%%%%%%%%%%%%%%%%%%%ooooooooooooooooooooooooooooooooooooooooooooooooooooooooooooooooo%%%%%%%%%%%%%%%%%%%%%%%%%%%%%%oooooooooooooooooooooooooooooooooo%%ooooooooooooooooooooooooooooo%%%%%%%%%%%%%%%%%%%%%%%%%%%%%%%%oooooooooooooooooooooooooooooooo%%%%ooooooooooooooooooooooooooooooooooooooooooooooooooooooooooooooooooooooooooooooooooooooooooooooooooooooooooo%%oooooooooooooooo%%%%%%%%%%%%%%%%%",
"oooooooooooooo%%oooooooooooooooooooooooooooooooooooooooooooooooo%%%%%%%%%%=========%%%==%%%%%%%%%%%%%%%%%%%%%%%%%%%%%%%%%%%%%%%%%%%%%%%%%%%%%%%%%%====%%%%%%====::::::::::::::=========%%%%%%%%%%%%%%%%%%%%%%%%%%%%%%%%%%%%%%%%%%%%%%%%%%%%%%%%%%%%%%%%%%%%%%%%%ooooooooooooooooooooooooooooooooooooooooooooooooooooooooooooooooo%%%%%%%%%%%%%%%%%%%%%%%%%%%%%%ooooooooooooooooooooooooooooooooooooooooooooooooooooooooooooooooo%%%%%%%%%%%%%%%%%%%%%%%%%%%%%%%%ooooooooooooooooooooooooooooooooooooooooooooooooooooooooooooooooooooooooooooooooooooooooooooooooooooooooooooooooooooooooooooooooooooooooooooooo%%oooooooooooooooo%%%%%%%%%%%%%%%%%",
"ooooooooooooooo%oooooooooooooooooooooooooooooooooooooooooooooooo%%%%%%%%%%==================%%%%%%%%%%%%%%%%%%%%%%%%%%%%%%%%%%%%%%%%%%%%%%%%%%%%%%====%%%%%=====:::::::::====:==========%%%%%%%%%%%%%%%%%%%%%%%%%%%%%%%%%%%%%%%%%%%%%%%%%%%%%%%%%%%%%%%%%%%%%%%%ooooooooooooooooooooooooooooooooooooooooooooooooooooooooooooooooo%%%%%%%%%%%%%%%%%%%%%%%%%%%%%%ooooooooooooooooooooooooooooooooooooooooooooooooooooooooooooooooo%%%%%%%%%%%%%%%%%%%%%%%%%%%%%%%%oooooooooooooooooooooooooooooooooooooooooooooooooooooooooooooooooooooooooooooooooooooooooooooooo@@@@@@@@@@@@@@@@@@@@@@@@@@@@@@@@ooooooooooooooo%%ooooooooooooooo%%%%%%%%%%%%%%%%%%",
"oooooooooooooo%%oooooooooooooooooooooooooooooooooooooooooooooooo%%%%%%%%%========================%%%%%%%%%%%%%%%%%%%%%%%%%%%%%%%%%%%%%%%%%%=%%%%%===============:::::::::==============%=%%%%%%%%%%%%%%%%%%%%%%%%%%%%%%%%%%%%%%%%%%%%%%%%%%%%%%%%%%%%%%%%%%%%%%%ooooooooooooooooooooooooooooooooooooooooooooooooooooooooooooooooo%%%%%%%%%%%%%%%%%%%%%%%%%%%%%%ooooooooooooooooooooooooooooooooooooooooooooooooooooooooooooooooo%%%%%%%%%%%%%%%%%%%%%%%%%%%%%%%%ooooooooooooooooooooooooooooooooooooooooooooooooooooooooooooooooooooooooooooooooooooooo@@@@@@@@@@@@@@@@@@@@@@@@@@@@@@@@@@@@@@@@@ooooooooooooooo%%ooooooooooooooo%%%%%%%%%%%%%%%%%%",
"oooooooooooooo%%oooooooooooooooooooooooooooooooooooooooooooooooooo%%%%%===========================%%%%%%%%%%%%%%%%%%%%%%%%%%%%%%%%%%%%%%%%==%%==%%=================:===================%=%%%%%%%%%%%%%%%%%%%%%%%%%%%%%%%%%%%%%%%%%%%%%%%%%%%%%%%%%%%%%%%%%%%%%%%ooooooooooooooooooooooooooooooooooooooooooooooooooooooooooooooooo%%%%%%%%%%%%%%%%%%%%%%%%%%%%%%ooooooooooooooooooooooooooooooooooooooooooooooooooooooooooooooooo%%%%%%%%%%%%%%%%%%%%%%%%%%%%%%%%ooooooooooooooooooooooooooooooooooooooooooooooooooooooooooooooooooooooooooooo@@@@@@@@@@@@@@@@@@@@@@@@@@@@@@@@@@@@@@@@@@@@@@@@@@@oooooooo%%%%%%%%%%%%%%%%oooooooo%%%%%%%%%%%%%%%%%%",
"%%%%%%%%%%%%%%%%%%%%%%%%%%%%%%%%oooooooooooooooooooooooooooooooooo%%%%%=========================%%%%%%%%%%%%%%%%%%%%%%%%%%%%%%%%%%%%%%%%%%%%============================================%%%%%%%%%%%%%%%%%%%%%%%%%%%%%%%%%%%%%%%%%%%%%%%%%%%%%%%%%%%%%%%%%%%%%%%%oooooooooooooooooooooooooooooooooooooooooooooooooooooooooooooooooo%%%%%%%%%%oooo%%%%o%%%%%%%o%%ooooooooooooooooooooooooooooooooooooooooooooooooooooooooooooooooo%%%%%%%%%%%%%%%%%%%%%%%%%%%%%%%%ooooooooooooooooooooooooooooooooooooooooooooooooooooooooooooooooooooo@@@@+@+@@@@@@@@@@@@@@@@@@@@@@@@@@@@@@@@@@@@@@@@@@@@@@@@@@@@%%oooo%%%%%%%%%%%%%%%%%%%%ooooo%%%%%%%%%%%%%%%%%%%",
"%%%%%%%%%%%%%%%%%%%%%%%%%%%%%%%%oooooooooooooooooooooooooooooooooo%%%%%=========================%%%%%%%%%%%%%%%%%%%%%%%%%%%%%%%%%%%%%%%%%%%%======%%===================================%%%%%%%%%%%%%%%%%%%%%%%%%%%%%%%%%%%%%%%%%%%%%%%%%%%%%%%%%%%%%%%%%%%%%%%%%oooooooooooooooooooooooooooooooooooooooooooooooooooooooooooooooooooooooooooooooooooooooooooooooooooooooooooooooooooooooooooooooooooooooooooooooooooooooooooooooo%%%%%%%%%%%%%%%%%%%%%%%%%%%%%%%%oooooooooooooooooooooooooooooooooooooooooooooooooooooooooooooooo@@@@@@@@@@+@@@@@@@@@@@@@@@@@@@@@@@@@@@@@@@@@@@@@@@@@@@@@@@@@@%%%%%%%%%%%%%%%==========%==%%%%%%%%%%%%%%%%%%%%%%%%%",
"%%%%%%%%%%%%%%%%%%%%%%%%%%%%%%%%oooooooooooooooooooooooooooooooooo%%%%%%========================%%%%%%%%%%%%%%%%%%%%%%%%%%%%%%%%%%%%%%%%%%%%%%%%==%%=%=====%%%%%==========%%====%%%%==%%%%%%%%%%%%%%%%%%%%%%%%%%%%%%%%%%%%%%%%%%%%%%%%%%%%%%%%%%%%%%%%%%%%%%%%%%oooooooooooooooooooooooooooooooooooooooooooooooooooooooooooooooooooooooooooooooooooooooooooooooooooooooooooooooooooooooooooooooooooooooooooooooooooooooooooooooo%%%%%%%%%%%%%%%%%%%%%%%%%%%%%%%%oooooooooooooooooooooooooooooooooooooooooooooooooooooooooooooooo@@++@@@@@@@@@@@@@@@@++@@@@++@@@@%%%%%%%%%%%%%%%%%%%%%%%%%%%%%%%%%%%%%%%====================%%%%%%%%%%%%%%%%%%%%%%%",
"%%%%%%%%%%%%%%%%%%%%%%%%%%%%%%%%%ooooooooooooooooooooooooooooooooo%%%%%%%======================%%%%%%%%%%%%%%%%%%%%%%%%%%%%%%%%%%%%%%%%%%%%%%%%%%=%%%%======%%%%==========%%%%%%%%%%%%%%%%%%%%%%%%%%%%%%%%%%%%%%%%%%%%%%%%%%%%%%%%%%%%%%%%%%%%%%%%%%%%%%%%%%%%%%oooooooooooooooooooooooooooooooooooooooooooooooooooooooooooooooooooooooooooooooooooooooooooooooooooooooooooooooooooooooooooooooooooooooooooooooooooooooooooooooo%%%%%%%%%%%%%%%%%%%%%%%%%%%%%%%%oooooooooooooooooooooooooooooooooooooooooooooooooooooooooooooooo@@++@@@@@@@@@@@@@@@@++@@@@@+@@@@%%%%%%%%%%%%%%%%%%%%%%%%%%%%%%%%==%%========================%%==%%%%%%%%%%%%%%%%%%",
"%%%%%%%%%%%%%%%%%%%%%%%%%%%%%%%%%%oooooooooooooooooooooooooooooooo%%%%%%%%==========%%%%%%%%%%%%%%%%%%%%%%%%%%%%%%%%%%%%%%%%%%%%%%%%%%%%%%%%%%%%%%%%%%%%===%%============%%%%%%%%%%%%%%%%%%%%%%%%%%%%%%%%%%%%%%%%%%%%%%%%%%%%%%%%%%%%%%%%%%%%%%%%%%%%%%%%%%%%%%%oooooooooooooooooooooooooooooooooooooooooooooooooooooooooooooooooooooooooooooooooooooooooooooooooooooooooooooooooooooooooooooooooooooooooooooooooooooooooooooooo%%%%%%%%%%%%%%%%%%%%%%%%%%%%%%%%oooooooooooooooooooooooooooooooooooooooooooooooooooooooooooooooo@@@@@@@@@@@@@@@@@@@@@+@@@@@@@@@@%%%%%%%%%%%%%%%%%%%%%%%%%%%%%%%%=================================%%%%%%%%%%%%%%%%%",
"%%%%%%%%%%%%%%%%%%%%%%%%%%%%%%%%%%oooooooooooooooooooooooooooooooo%%%%%%%%%%%%%%%%%%%%%%%%%%%%%%%%%%%%%%%%%%%%%%%%%%%%%%%%%%%%%o%%ooooo%%%%%%%%%%%%%%%%%%=%%%==%=%%%%%%%%%%%%%%%%%%%%%%%%%%%%%%%%%%%%%%%%%%%%%%%%%%%%%%%%%%%%%%%%%%%%%%%%%%%%%%%%%%%%%%%%%%%%%%%oooooooooooooooooooooooooooooooooooooooooooooooooooooooooooooooooooooooooooooooooooooooooooooooooooooooooooooooooooooooooooooooooooooooooooooooooooooooooooooooo%%%%%%%%%%%%%%%%%%%%%%%%%%%%%%%%oooooooooooooooooooooooooooooooooooooooooooooooooooooooooooooooo@@@@@@@@@@@@@@@@@@@@+@@@@@++@@@@%%%%%%%%%%%%%%%%%%%%%%%%%%%%%%%%===============================%%%%%%%%%%%%%%%%%%%",
"%%%%%%%%%%%%%%%%%%%%%%%%%%%%%%%%%%oooooooooooooooooooooooooooooooo%%%%%%%%%%%%%%%%%%%%%%%%%%%%%%o%%%%%%%%%%%%%%%%%%%%%%%%%%%%%%o%oooo%%%%%%%%%%%%%%%%%%%==%%====%%%%%%%%%%%%%%%%%%%%%%%%%%%%%%%%%%%%%%%%%%%%%%%%%%%%%%%%%%%%%%%%%%%%%%%%%%%%%%%%%%%%%%%%%%%%%%%%oooooooooooooooooooooooooooooooooooooooooooooooooooooooooooooooooooooooooooooooooooooooooooooooooooooooooooooooooooooooooooooooooooooooooooooooooooooooooooooooo%%%%%%%%%%%%%%%%%%%%%%%%%%%%%%%%ooooooooooooooooooooooooooooooooooo@@@@@@@@@@@@@@@@@@@@@@@@@@@@@@@@@@@@@@+@@@@@@@@@@@@@@@@@+@ooo%%%%%%%%%%%%%%%%%%%%%%%%%%%%%%%%%%%%======================%%%%%%%%%%%%%%%%%%%%%%%%",
"%%%%%%%%%%%%%%%%%%%%%%%%%%%%%%%%%%oooooooooooooooooooooooooooooooo%%%%%%%%%%%%%%%%%%%%%%ooooooo%ooo%%%%%%%%%%%%%%%%%%%%%%%%%%%%ooooooo%%%%%%%%%%%%%%%%%%%%%%%%%%%===%%%%%%%%%%%%%%%%%%%%%%%%%%%%%%%%%%%%%%%%%%%%%%%%%%%%%%%%%%%%%%%%%%%%%%%%%%%%%%%%%%%%%%%%%%%%oooooooooooooooooooooooooooooooooooooooooooooooooooooooooooooooooooooooooooooooooooooooooooooooooooooooooooooooooooooooooooooooooooooooooooooooooooooooooooooooo%%%%%%%%%%%%%%%%%%%%%%%%%%%%%%%%ooooooooooooooooooooooooooooooooooo@@@@@@@@@@@@@@@@@@@@@@@@@@@@@@@@@++@@@+++@@@@@@@@@@@@@@@@@ooo%%%%%%%%%%%%%%%%%%%%%%%%%%%%%%%%%%%%%%=%%=============%%%%%%%%%%%%%%%%%%%%%%%%%%%%",
"%%%%%%%%%%%%%%%%%%%%%%%%%%%%%%%%%%ooooooooooooooooooooooooooooooooo%%%%%%%%%%%%%%oooooooooooooooooo%%%%%%%%%%%%%%%%%%%%%%%%%%%%ooooo%%%%%%%%%%%%%%%%%%%%%%%%%%%%%==%%%%%%%%%%%%%%%%%%%%%%oooo%%%%%%%%%%%%%%%%%%%%%%%%%%%%%%%%%%%%%%%%%%%%%%%%%%%%%%%%%%%%%%%%%%%oooooooooooooooooooooooooooooooooooooooooooooooooooooooooooooooooooooooooooooooooooooooooooooooooooooooooooooooooooooooooooooooooooooooooooooooooooooooooooooooo%%%%%%%%%%%%%%%%%%%%%%%%%%%%%%%%oooooooooooooooooooooooooooooooooooooooooooooooooooooooooooooooo@@@@@@@@@@@@%@@@@@@@@%%%@@@@@%%%%%%%%%%%%%%%%%%%%%%%%%%%%%%%%%%%%%%%%%%%%%%%%%%%%%%%%%%%%%%%%%%%%%%%%%%%%%%%%%%%%%",
"%%%%%%%%%%%%%%%%%%%%%%%%%%%%%%%%%%oooooooooooooooooooooooooooooooooo%%%%%%%%%%%%%o%%@@@@@@@@@@ooooo%%%%%%%%%%%%%%%%%%%%%%%%%%%%o%ooo%%%%%%%%%%%%%%%%%%%%====%%%%====%%=%%%%%%%%%%%%%%%%%oooooo%%%%%%%%%%%%%%%%%%%%%%%%%%%%%%%%%%%%%%%%%%%%%%%%%%%%%%%%%%%%%%%%%%oooooooooooooooooooooooooooooooooooooooooooooooooooooooooooooooooooooooooooooooooooooooooooooooooooooooooooooooooooooooooooooooooooooooooooooooooooooooooooooooo%%%%%%%%%%%%%%%%%%%%%%%%%%%%%%%oooooooooooooooooooooooooooooooooooooooooooooooooooooooooooooooooo%%%%%%%%%%%%%%%%%%%%%%%%%%%%%%%%%%%%%%%%%%%%%%%%%%%%%%%%%%%%%%%ooo%oooooo%%%%%%%%%%%%oooooooooo@@@@@@@@@@@@@@@@@@",
"%%%%%%%%%%%%%%%%%%%%%%%%%%%%%%%%%%oooooooooooooooooooooooooooooooooo%%%%%%%%%%%o@@@@@@@@@@@@@@@oooo%%%%%%%%%%%%%%%%%%%%%%%%%%%%o%%%%%%%%%%%%%%%%%%%%%%%%===============%=%%%%%%%%%%%%%%ooooooo%%%%%%%%%%%%%%%%%%%%%%%%%%%%%%%%%%%%%%%%%%%%%%%%%%%%%%%%%%%%%%%%%%oooooooooooooooooooooooooooooooooooooooooooooooooooooooooooooooooooooooooooooooooooooooooooooooooooooooooooooooooooooooooooooooooooooooooooooooooooooooooooooooo%%%%%%%%%%%%%%%%%%%%%%%%%%%%%%%ooooooooooooooooo@@oooooooooo@@ooooooooooooooooooooooooooooooooooo%%%%%%%%%%%%%%%%%%%%%%%%%%%%%%%%%%%%%%%%%%%%%%%%%%%%%%%%%%%%%%%oooooooooo%%%%%%%%%%%%oooooooooo@@@@@@@@@@@@@@@@@@",
"%%%%%%%%%%%%%%%%%%%%%%%%%%%%%%%%%%ooooooooooooooooooooooooooooooooo%%%%%%%%%%%%o@@@@@@@@@@@@@@@oooo%%%%%%%%%%%%%%%%%%%%%%%%%%%%%%%%%%%%%%%%%%%%%=====%%%=================%%%%%%%%%%%%%oooooooo%%%%%%%%%%%%%%%%%%%%%%%%%%%%%%%%%%%%%%%%%%%%%%%%%%%%%%%%%%%%%%%%%%oooooooooooooooooooooooooooooooooooooooooooooooooooooooooooooooooooooooooooooooooooooooooooooooooooooooooooooooooooooooooooooooooooooooooooooooooooooooooooooooo%%%%%%%%%%%%%%%%%%%%%%%%%%%%%%%ooooo@@@@@@@@@@@@@@@@@@@@@@@@@@@@ooooooooooooooooooooooooooooooooo%%%%%%%%%%%%%%%%%%%%%%%%%%%%%%%%%%%%%%%%%%%%%%%%%%%%%%%%%%%%%%%ooooooooooo%%%%%%%%%%%oooooooooo@@@@@@@@@@@@@@@@@@",
"%%%%%%%%%%%%%%%%%%%%%%%%%%%%%%%%%%oooooooooooooooooooooooooooooooo%oo%%%%%%%%%%o@@@@@@@@@@@@@@@oooo%%%oo%%%%%%%%%%%%%%%%%%%%%%%%%%%%%%%%%%%%%%%%=========================%%%%%%%%%%%%%oooooooo%%%%%%%%%%%%%%%%%%%%%%%%%%%%%%%%%%%%%%%%%%%%%%%%%%%%%%%%%%%%%%%%%%ooooooooooooooooooooooooooooooooooooooooooooooooooooooooooooooooooooooooooooooooooooooooooooooooooooooooooooooooooooooooooooooooooooooooooooooooooooooooooooooo@o%%%%%%%%%%%%%%%%%%%%%%%%%%%%%%@o@@@@@@@@@@@@@@@@@@@@@@@@@@@@@@@@ooooooooooooooooooooooooooooooo%%%%%%%%%%%%%%%%%%%%%%%%%%%%%%%%%%%%%%%%%%%%%%%%%%%%%%%%%%%%%%%%ooooooooooo%%%%%%%%%%ooooooooooo@@@@@@@@@@@@@@@@@@",
"%%%%%%%%%%%%%%%%%%%%%%%%%%%%%%%%%oooooooooooooooooooooooooooooooooo%%%%%%%%%%%%@@@@@@@@@@@@@@@@oooooooooooooooooooooooooooooooo%%%%%%%%%%%====%%================%%===%%%%%%%%%%%%%%%%oooooooooo%%%%%%%%%%%%%%%%%%%%%%%%%%%%%%%%%%%%%%%%%%%%%%%%%%%%%%%%%%%%%%%%oooooooooooooooooooooooooooooooooooooooooooooooooooooooooooooooooooooooooooooooooooooooooooooooooooooooooooooooooooooooooooooooooooooooooooooooooooooooooooooooo+o%%%%%%%%%%%%%%%%%%%%%%%%%%%%%%@@@@@@@@@@@@@@@@@@@@@@@@@@@@@@@@@@@ooooooooooooooooooooooooooooo%%%%%%%%%%%%%%%%%%%%%%%%%%%%%%%%%%%%%%%%%%%%%%%%%%%%%%%%%%%%%%%%%ooooooooooo%%%%%%%%%%oooooooooooo%%%%%%%%%%%%%%%%%",
"%%%%%%%%%%%%%%%%%%%%%%%%%%%%%%%%%oooooooooooooooooooooooooooooooooo%%%%%%%%%%%%@@@@@@@@@@@@@@@@oooooooooooooooooooooooooooooooo%%%%%%%%%%==================================%%%%%%%%%%%%%%%%%%%%%%%%%%%%%%%%%%%%%%%%%%%%%%%%%%%%%%%%%%%%%%%%%%%%%%%%%%%%%%%%%%%%%oooooooooooooooooooooooooooooooooooooooooooooooooooooooooooooooooooooooooooooooooooooooooooooooooooooooooooooooooooooooooooooooooooooooooooooo@ooooooooooooooo@+o%%%%%%%%%%%%%@@%%%%%%%%%%%%%o@@@@@@XXXXXXXX@@@@@@XX@X@@@@@@X@@@@@oooooooooooooooooooooooooooo%%%%%%%%%%%%%%%%%%%%%%%%%%%%%%%%%%%%%%%%%%%%%%%%%%%%%%%%%%%%%%%%%%ooooooooooo%%%%%%%%%%oooooooooooo%%%%%%%%%%%%%%%%%",
"%%%%%%%%%%%%%%%%%%%%%%%%%%%%%%%%%oooooooooooooooooooooooooooooooooo%%%%%%%%%%%%@@@@@@@@@@@@@@@@oooooooooooooooooooooooooooooooo%%%%%%%%%%=======================%==%%%===%%%%%%%%%%%%%%%%%%%%%%%%%%%%%%%%%%%%%%%%%%%%%%%%%%%%%%%%%%%%%%%%%%%%%%%%%%%%%%%%%%%%%%ooooooooooooooooooooooooooooooooooooooooooooooooooooooooooooooooooooooooooooooooooooooooooooooooooooooooooooooooooooooooooooooooo@@@@@@@@@@@@@@@+@@@@@@@@@@@@@@++o%%%%%%%%%%%%%@@%%%%%%%%%%%%%@@@@@@@XXXX@@XX@@@@@XXXXX@@@@@@X@@@@@oooooooooooooooooooooooooooo%%%%%%%%%%%%%%%%%%%%%%%%%%%%%%%%%%%%%%%%%%%%%%%%%%%%%%%%%%%%%%%%%%ooooooo%%%%%%%%%%%%%%%%%%oooooo%%%%%%%%%%%%%%%%%%%",
"%%%%%%%%%%%%%%%%%%%%%%%%%%%%%%%%ooooooooooooooooooooooooooooooooooo%%%%%%%%%%%%@@@@@@@@@@@@@@@@@ooooooooooooooooooooooooooooooo%%%%%%%%%%=========================%%%%%%%%%%%%%%%%%%%%%%%%%%%%%%%%%%%%%%%%%%%%%%%%%%%%%%%%%%%%%%%%%%%%%%%%%%%%%%%%%%%%%%%%%%%%%oooooooooooooooooooooooooooooooooooooooooooooooooooooooooooooooooooooooooooooooooooooooooooooooooooooooooooooooooooooooooooooooo@@@@@@@@@@@@@@@@+@@@@@@@@@@@@@@@@@%%%@@@@%%%%ooo%%%%%@@@++@%%o@@@@@XX@@@@@@XXX@X@@@@@@XX@XXXX@@@@@@oooooooooooooooooooooooooooo%%%%%%%%%%%%%%%%%%%%%%%%%%%%%%%%%%%%%%%%%%%%%%%%%%%%%%%%%%%%%%ooooooooooo%%%%%%%%%%%%%%%%%%oooooo%%%%%%%%%%%%%%%%%%%",
"%%%%%%%%%%%%%%%%%%%%%%%%%%%%%%%%ooooooooooooooooooooooooooooooooooo%%%%%%%%%%%%@@@@@@@@@@@@@@@@oooooooooooooooooooooooooooooooo%%%%%%%%%%=========================%%%%%%%%%%%%%%%%%%%%%%%%%%%%%%%%%%%%%%%%%%%%%%%%%%%%%%%%%%%%%%%%%%%%%%%%%%%%%%%%%%%%%%%%%%%%%oooooooooooooooooooooooooooooooooooooooooooooooooooooooooooooooooooooooooooooooooooooooooooooooooooooooooooooooooooooooooooooooo@@@@@++@@@@@@@@@@@@@@@@++@@@@@@@@@@@@@@@@@@@@@@@@@@@@@@@@++@@@@@@@@XX@@@@X@X@X@@@@@@@XXXX@XXX@@@@@@oooooooooooooooooooooooooooo%%%%%%%%%%%%%%%%%%%%%%%%%%%%%%%%%%%%%%%%%%%%%%%%%%%%%%%%%%%%%%%ooo%%%%%%%%%%%%%%%%%%%%%%%%%%%%%%%%%%%%%%%%%%%%%%%%%%",
"%%%%%%%%%%%%%%%%%%%%%%%%%%%%%%%%ooooooooooooooooooooooooooooooooooo%%%%%%%%%%%%@@@@@@@@@@+++@@@ooooooooooooooooooooooooooooooooo%%%%%%%%%%===%%%==================%%%%%%%%%%%%%%%%%%%%%%%%%%%%%%%%%%%%%%%%%%%%%%%%%%%%%%%%%%%%%%%%%%%%%%%%%%%%%%%%%%%%%%%%%%%%%oooooooooooooooooooooooooooooooooooooooooooooooooooooooooooooooooooooooooooooooooooooooooooooooooooooooooooooooooooooooooooooooo@@@@@++@@@@@@@@@@@@@@@@@@@@@@@@@@@@@@+@@@@@@@@@@@@@@@@@@@@@@@@@@@@@@@@@@@@@@@@@@@@@@@@@@@@@@@@@@@@@oooooooooooooooooooooooooooo%%%%%%%%%%%%%%%%%%%%%%%%%%%%%%%%%%%%%%%%o%%%%%%%%%%%%o%%%%%%%%%%oo%%%%%%oo%%%%%%%%%%%%%%%%%%%%oooo%%%%%%%%%%%%%%%%%%",
"%%%%%%%%%%%%%%%%%%%%%%%%%%%%%%%%ooooooooooooooooooooooooooooooooooo%%%%%%%%%%%%@@@@@@@@@@@++@@@ooooooooooooooooooooooooooooooooo%%%%%%%%%%%%%%%%%================%%%%%%%%%%%%%%%%%%%%%%%%%=%=%%%%%%%%%%%%%%%%%%%%%%%%%%%%%%%%%%%%%%%%%%%%%%%%%%%%%%%%%%%%%%%%%%oooooooooooooooooooooooooooooooooooooooooooooooooooooooooooooooooooooooooooooooooooooooooooooooooooooooooooooooooooooooooooooooo@@@@@@@@@@@++@@@@@@@@@@@@+@@@@@@@@@@@@++@@@@@@@@@@@@@@@@@@@@@@@@@@@@@@@@@@@@@@@@@@@@@@@@@@@@@@@@@@oooooooooooooooooooooooooooooo%%%%%%%%%%%%%%%%%%%%%%%%%%%%%%%%%%ooooooo%%oooooooooooooooooooooooooooooo%%%%%%%%%%%%%%%%oooooooo%%%%%%%%%%%%%%%%%%",
"%%%%%%%%%%%%%%%%%%%%%%%%%%%%%%%%ooooooooooooooooooooooooooooooooooo%%%%%%%%%%%%@@@@@@@@@@@@@@@@ooooooooooooooooooooooooooooooooo%%%%%%%%%%%%%%%%%%====%%========%%%%%%%%%%%%%%%%%=%%%%%=%%%%==%%%%%%%%%%%%%%%%%%%%%%%%%%%%%%%%%%%%%%%%%%%%%%%%%%%%%%%%%%%%%%%%%oooooooooooooooooooooooooooooooooooooooooooooooooooooooooooooooooooooooooooooooooooooooooooooooooooooooooooooooooooooooooooooooo@@@@@@@@@@@++@@@@@@@@@@@@++@@@@@@@@@@@@@@@@@@@@XX@@XXXX@@@@@@@@@@@@@@@@@@@@@@@@@@@@@@@@@@@@@@@@@@ooooooooooooooooooooooooooooooo%%%%%%%%%%%%%%%%%%%%%%%%%%%%%%%%%%ooooooooooooooooooooooooooooooooooooooo%%%%%%%%%%%%%%%%oooooooo%%%%%%%%%%%%%%%%%%",
"%%%%%%%%%%%%%%%%%%%%%%%%%%%%%%%%ooooooooooooooooooooooooooooooooooo%%%%%%%%%%%%@@@@@@@@@@@@@@@@ooooooooooooooooooooooooooooooooo%%%%%%%%%%%%%%%%%%%===%%========%%%%%%%%%%%%%%%%=%%%%%==%%%%==%%%%%%%%%%%%%%%%%%%%%%%%%%%%%%%%%%%%%%%%%%%%%%%%%%%%%%%%%%%%%%%%%oooooooooooooooooooooooooooooooooooooooooooooooooooooooooooooooooooooooooooooooooooooooooooooooooooooooooooooooooooooooooooooooo@@@@@++@@@@++@@@@@@@@@@@X@+XXXX@@@@@@@@@@@@@@@@@@@@@@@@@@@@@@+@@@@@@ooooooooo@@@@ooooooooooooooooooooooooooooooooooooooooooooooo%%%%%%%%%%%%%%%%%%%%%%%%%%%%%%%%%%oooooooooooooooooooooooooooooooooooooooooo%%%%%%%%%%oooooooooooooo%%%%%%%%%%%@@%%",
"%%%%%%%%%%%%%%%%%%%%%%%%%%%%%%%%ooooooooooooooooooooooooooooooooooo%%%%%%%%%%%%%@@@@@@@@@@@@@@ooooooooooooooooooooooooooooooooooooo%%%%%%%%%%%%%%%%%============%%%%%%%%%%%%%%%%==%%%%==%%====%%%%%%%%%%%%%%%%%%%%%%%%%%%%%%%%%%%%%%%%%%%%%%%%%%%%%%%%%%%%%%%%ooooooooooooooooooooooooooooooooooooooooooooooooooooooooooooooooooooooooooooooooooooooooooooooooooooooooooooooooooooooooooooooooo@@@@@@@@@@@@@@XXX@@@XXXX@@XXX@@@@@@@@@@@@@@@@@@@@@@@@@@@@@@@@+@o@@@@oooooooooooooooooooooooooooooooooooooooooooooooooooooooooooo%%%%%%%%%%%%%%%%%%%%%%%%%%%%%%%%%%oooooooooooooooooooooooooooooooooooooooooo%%%%%ooo%%oooooooooooooo%%%%%%%%%%@@@@%",
"%%%%%%%%%%%%%%%%%%%%%%%%%%%%%%%%oooooooooooooooooooooooooooooooooooooooooooooooooooooooooooooooooooooooooooooooooooooooooooooooooooo%%%%%%%%%%%%%%%%============%%%%%%%%%%%%%%%%%==%%%%=%%===%%%%%%%%%%%%%%%%%%%%%%%%%%%%%%%%%%%oooooooooooooooooooooooooooooooooooooooooooooooooooooooooooooooooooooooooooooooooooooooooooooooooooooooooooooooooooooooooooooooooooooooooooooooooooooooooooooooo@@@@+@@@@@@@@@@@@@@@@@@@@@@@@@@@@@@@@@@@@@@@@@@@@@@@@@@@@@@@+oo@@@@oooooooooooooooooooooooooooooooooooooooooooooooooooooooooooo%@@@@@@@@@@@@@@@@@@@@@@@@@@@@@@@@%oooooooooooooooooooooooooooooooooooooooooo%%%%oooo%%oooooo@@@@@ooo%%%%%@@@@@@@@@@",
"%%%%%%%%%%%%%%%%%%%oooooooooooooooooooooooooooooooooooooooooooooooooooooooooooooooooooooooooooooooooooooooooooooooooooooooooooooooooooooo%%%%%%%%%%=============%%%%%%%%%%%%%%%%%%%%%%%%%%%%%%%%%%%%%%%%%%%%%%%%%%%%%%%%%%%%%%%%oooooooooooooooooooooooooooooooooooooooooooooooooooooooooooooooooooooooooooooooooooooooooooooooooooooooooooooooooooooooooooooooooooooooooooooooooooooooooooooooo@@@@@@@@@@@@@@@@@@@@@@@@@@@@@@@@@@oooooooooooooooooooooooooooooooooooooooooooooooooooooooooooooo@@ooooooooooooooooooooooooooooo@@@@@@@@@@@@@@@@@@@@@@@@@@@@@@@+++@@@@@@@@@@@@@@@@@@@@@@@@@@@@@@@oooooooooooo@o@@ooooooooo@@@@@@@@@@@@@@@@@@@@@@@@@",
"%%%%%%%%%%%%%%%%%%%oooooooooooooooooooooooooooooooooooooooooooooooooooooooooooooooooooooooooooooooooooooooooooooooooooooooo%%%ooooooooooo%%%%%%%%%%=============%%%%%%%%%%%%%%%%%%%%%%%%%%%%%%%%%%%%%%%%%%%%%%%%%%%%%%%%%%%%%%%%oooooooooooooooooooooooooooooooooooooooooooooooooooooooooooooooooooooooooooooooooooooooooooooooooooooooooooooooooooooooooooooooooooooooooooooooooooooooooooooooo@@@@@@@@@@@@@@@@@@@@@@@@@@@@@ooooooooooooooooooooooooooooooooooooooooooooooooooooooooooooooooooo@@@@@@@@@@+@@@@@@@@@@@@ooo%%%%@@@@@@@@@@@@@@@@@@@@@@@@@@@@@@@@@@@@@@@@@@@@@+@@@@@@@@@@@@@@@@@@@@oooooooo@@@@@@@@oooooooo@@@@@@@@@@@@@@@@@@@@@@@@@@",
"%%%%%%%%%%%%%%%%%%%oooooooooooooooooooooooooooooooooooooooooooooooooooooooooooooooooooooooooooooooooooooooooooooooooooooooo%%%oo%%%%%%%%%%%%%%%%%%%=============%%%====%%%%%%%%%%%%%%%%%%%%%%%%%%ooooooooooooooooooooooooooooooooooooooooooooooooooooooooooooooooooooooooooooooooooooooooooooooooooooooooooooooooooooooooooooooooooooooooooooooooooooooooooooooooooooooooooooooooooooooooooooooo@@@@@@@@@@@@@@@@@@@@@@@@@@@@@ooooooooooooooooooooooooooooooooooooooooooooooooooooooooooooooooooo@@@@@@@@@@@@@@@@@@@@@@@oo%%%%@@@@@@@@@@@@@@@@@@@@@@@@@@@@@@@@@@@@@@@@@@@@@@+++@@@@@@@++@@@@+@@@@ooooooo@@@@@@@@@@@@@@@@@@@@@@@@@@@@@@@@@@@@@@@XX@@",
"%%%%%%%%%%%%%%%%%%%oooooooooooooooooooooooooooooooooooooooooooooooooooooooooooooooooooooooooooooooooooooooooooooooooo%%%%%%%%%%%%%%%%%%%%%%%%%%%%%%=============%%%%====%%%%%%%%%%%%%%%%%%%%%%%ooooooooooooooooooooooooooooooooooooooooooooooooooooooooooooooooooooooooooooooooooooooooooooooooooooooooooooooooooooooooooooooooooooooooooooooooooooooooooooooooooooooooooooooooooooooooooooooooooooooooooooooooooooooooooooooooooooooooooooooooooooooooooooooooooooooooooooooooooooooooooooooooo@@@@@@@@@@@@@@@@@@@@@@@oooooo@@@@@@@@@@@@@@@@@@@@@@@@@@@@@@@@@@@@@@@@@@@@@+++@@@@@@@@@@@@+++@@@@@@@@@@@@@@@@@@@@@@@@@@@@@@@@@@@@@@@@@@XX@@@@@@XX@@",
"%%%%%%%%%%%%%%%%%%%ooooooooooooooooooooooooooooooooooooooooooooooooooooooooooooooooooooooooooooooooooooooooooooooo%o%%%%%%%%%%%%%%%%%%%%%%%%%%%%%%%%%%%%%%%%%%%%=======%%%%%%%%%%%%%%%%%%%%%%%%oooooooooooooooooooooooooooooooooooooooooooooooooooooooooooooooooooooooooooooooooooooooooooooooooooooooooooooooooooooooooooooooooooooooooooooooooooooooooooooooooooooooooooooooooooooooooooooooooooooooooooo@ooooooo@ooooooo@oooooooooooooooooooooooooooooooooooooooooooooooooooooooooooooooooooo@@++@@@@++@@@+++@@@@@@@oooooo@@@@@@@@@@@@@XXXX@@@@@@XXXX@@@@@@@@@+@@@@@@@@@@@@@@@@@@@@@@@@@@@@@@@@@@@@@@@@@@@@@@@@@@@@@@@@@@XXX@X@@@XXXXXXXXXXXX@@",
"%%%%%%%%%%%%%%%%%oooooooooooooooooooooooooooooooooooooooooooooooooooooooooooooooooooooooooooooooooooooooooooooooo%%%%%%%%%%%%%%%%%%%====%%%%%%%%%%%%%%%%%%%%%%%%%=====%%%%%%%%%%%%%%%%%%%%%%%%%ooooooooooooooooooooooooooooooooooooooooooooooooooooooooooooooooooooooooooooooooooooooooooooooooooooooooooooooooooooooooooooooooooooooooooooooooooooooooooooooooooooooooooooooooooooooooooooooooooooooooooooooooooooooooooooooooooooooooooooooooooooooooooooooooooooooooooooooooooooooooooooooooo@@++@@@@@@@@@++@@@@@+@@oooooo@@@@@@@X@@@@@XX@@@@@@@@XXXX@@@XXXX@++@@@@@@@@@@@@@@@@@@@@@@@@@@@@@@@@@@@@@@@XX@@@@@@@@@@@@@@@@@XXX@XX@@XXXXXXXX@@@@@@",
"%%%%%%%%%%%%%%%%%oooooooooooooooooooooooooooooooooooooooooooooooooooooooooooooooooooooooooooooooooooooooooooooooo%%%%%%%%%%%%%%%%========%%%%%%%%%%%%%%%%%%%%%%%%%%=%%%%%%%%%%%%%%%%%%%%%%%%%%%ooooooooooooooooooooooooooooooooooooooooooooooooooooooooooooooooooooooooooooooooooooooooooooooooooooooooooooooooooooooooooooooooooooooooooooooooooooooooooooooooooooooooooooooooooooooooooooooooooooooooooooooooooooooooooooooooooooooooooooooooooooooooooooooooooooooooooooooooooooooooooooooooo@@@@@@@@@@@@@@@@@@@@+@@o@@ooo@@@@@XXXX@@@XXX@@@@@@@@XXXXXXXXXXXX+XXX@@@X@XX@@@@@XXXX@@@@@@@@@XXX@@@@@@@@XXXX@@@@XX@@XXXXXX@@XXX@XX@@@@@@@@@@@@@@@@",
"%%%oooooooooooooooooooooooooooooooooooooooooooooooooooooooooooooooooooooooooooooooooooooooooooooooooooooo%%%%%%%%%%%%%%%%%%%%%%%==========%%%%%%%%%%%%%ooooooo%%%%%%%%%%%%%%%%%%%%%%%%%%%%%%%%%ooooooooooooooooooooooooooooooooooooooooooooooooooooooooooooooooooooooooooooooooooooooooooooooooooooooooooooooooooooooooooooooooooooooooooooooooooooooooooooooooooooooooooooooooooooooooooooooooooooooooooooooooooooooooooooooooooooooooooooooooooooooooooooooooooooooooooooooooooooooooooooooooo@@@@@@@@@@@@@@@@@@@@++@@@@@@@@@@@@XXXX@@@XXX@@@@@@XXXXXXXXXXXXXXXXXXXXXXXXXXXXXXXXXXXXXXXXXXXXXXXXXXXXXXXXXXX@@@X@@@XXXXXX+@XXX@@XXX@@@@@@@@@@@@@@",
"oooooooooooooooooooooooooooooooooooooooooooooooooooooooooooooooooooooooooooooooooooooooooooooooooooo%%%%%%%%%%%%%%%%%%%%%%%%%%%===========%%%%%%%%%%%%%ooooooo%o%%%%%%%%%%%%%%%%%%%%%%%%%%%%%%%oooooooooooooooooooooooooooooooooooooooooooooooooooooooooooooooooooooooooooooooooooooooooooooooooooooooooooooooooooooooooooooooooooooooooooooooooooooooooooooooooooooooooooooooooooooooooooooooooooooooooooooooooooooooooooooooooooooooooooooooooooooooooooooooooooooooooooooooooooooooooooooooo@@@@@@@@@@+@@@@@@@++@@@@@@@@@@@@@@@@XXX@@@XXX@@@@@XXXXXXXXXXXXXXXXXXXXXXXXXXXXXXXXXXXXXXXXXXXXXXXXXXXXXXXX@@@@@@@XX@@@@@@XX@XXX@@@@@@@@@@@@@@@@@@@@",
"ooooooooooooooooooooooooooooooooooooooooooooooooooooooooooooooooooooooooooooooooooooooooooooooooooo%%%%%%%%%%%%%%%%%%%%%%%%%%%%===========%%%%%%%%%%%%%ooooooooo%%%%%%%%%%%%%%%%%%%%%%%%%%%oooooooooooooooooooooooooooooooooooooooooooooooooooooooooooooooooooooooooooooooooooooooooooooooooooooooooooooooooooooooooooooooooooooooooooooooooooooooooooooooooooooooooooooooooooooooooooooooooooooooooooooooooooooooooooooooooooooooooooooooooooooooooooooooooooooooooooooooooooooooooooooooooooo@@@@@@@@@++@@@@@@@++@@@@@@@@@@@@@@@XXXX@@@XXX@@@@XXXXXXXXXXXXXXXXXXXXXXXXXXXXXXXXXXXXXXXXXXXXXXXXXXXXXXXX@@@@X@@#@@@@@@X@XX@X@X@@@@@@@@@@@@@@@@@@@@",
"oooooooooooooooooooooooooooooooooooooooooooooooooooooooooooooooooooooooooooooooooooooooooooooooo%%%%%%%%%%%%%%%%%%%%%%%%%%%%%%%===========%%%%%%%%%%%%%ooooooooo%%%%%%%%%%%%%%%%%%%%%%%%%%%oooooooooooooooooooooooooooooooooooooooooooooooooooooooooooooooooooooooooooooooooooooooooooooooooooooooooooooooooooooooooooooooooooooooooooooooooooooooooooooooooooooooooooooooooooooooooooooooooooooooooooooooooooooooooooooooooooooooooooooooooooooooooooooooooooooooooooooooooooooooooooooooooooo@@@++@@@@@@@@@@@@@@@@@@@@@@@@@@@@@@@@XXX@@@XX@X@@XXXXXXXXXXXXXXXXXXXXXXXXXXXXXXXXXXXXXXXXXXXXXXXXX@XXXXX@@@XXXXXXXXX@XX@@@@@@@@@@@@@@@@@@@@@@@@&&@@",
"ooooooooooooooooooooooo%%%%%%%%ooooooooooooooooooooooooooooooooooooooooooooooooooooooooooooooooo%%%%%%%%%%%%%%%%%%%%%%%%%%%%%%%=%===%%%%%%%%%%%%%%%%%%%ooooooooo%%%%%%%%%%%%%%%%%%%%%%%ooooooooooooooooooooooooooooooooooooooooooooooooooooooooooooooooooooooooooooooooooooooooooooooooooooooooo++@@@@@@@@@@@@@@@@@@@@@@@@@@@@@@ooooooooooooooooooooooooooooooooooooooooooooooooooooooooooooooooooooooooooooooooooooooooooooooooooooooooooooooooooooooooooooooooooooooooooooooooooooooooooooooo@@@@+@@@+@@@@@@@@@@@@@@@@@@@@@++@@@@XXXXXXXXXXXXXXXXXXXXXXXXXXXXXXXXXXXXXXXXXXXXXXXXXXXXXXXXXXXXXXXX@@@@@@XXXXX@@XX@@@@@@@@@@@@@@@@@@@@@@@&&=&&&&&=",
"ooooooooooooooooooooooo%%%%%%%%oooooooooooooooooooooooooooooooooooooooooooooooooooooooooooooooooooooo%%%%%%%%%%%%%%%%%%%%%%%%%%%%%%%%%%%%%%%%%%%%%%%%%%ooooooooo%%%%%%%%%%%%%%%%%%%%%%%ooooooooooooooooooooooooooooooooooooooooooooooooooooooooooooooooooooooooo@@@@@@@@@@@@@@@@@@@@@@@@@@@@@@@@@@@@@@@@@@@@@@@@@@@@@@@@@@@@@@@@ooooooooooooooooooooooooooooooooooooooooooooooooooooooooooooooooooooooooooooooooooooooooooooooooooooooooooooooooooooooooooooooooooooooooooooooooooooooooooooooo@@@@@@@++@@@@@@@@@@@@@@@@@@@@@@XXXXXXXXXXXXXXXXXXXXXXXXXXXXXXXXXXXXXXXXXXXXXXXXXXXXXXXXXXXXXXXXXXXXXX@@@@XXX@@@@@@@@@@@@@@@&&&&&@@@@@&&&&====:::===",
"ooooooooooooooooooooooo%%%%%%%%ooooooooooooooooooooooooooooooooooooooooooooooooooooooooooooooooooooooo%%%%%%%%%%%%%%%%%%%%%%%%%%%%%%%%%%%%%%%%%%%%%%%%%@@@@@@@@@%%%%%%%%%%%%%%%%%%%%%ooooooooooooooooooooooooooooooooooooooooooooooooooooooooooooooooooooooooooo@@@@@@@@@@@@@@@@@@@@@@@@@@@@@@@@@@@@@@@@@@@@@@@@@@@@@@@@@@@@@@@@oooooooooooooooooooooooooooooooooooooooooooooooooooooooooooooooooooooooooooooooooooooooooooooooooooooooooooooooooooooooooooooooooooooooooooooooooooooooooooooo@@@@++@@@@@@@@@@@@@@@@@@@@@@@@@@XXXXXXXXXXXXXXXXXXXXXXXXXXXXXXXXXXXXXXXXXXXXXXXXXXXXXXXXXXXXXXXXXXXXXX@@#XXX@@@@@@@@@@@@@@@@&&&=======&&&&::::::::==",
"ooooooooooooooooooooooo%%%%%%%%oooooooooooooooooooooooooooooooooooooooooooooooooooooooooooooooooooooooooooo%%%%%%%%%%%%%%%%%%%%%%%%%%%%%%%%%%%%%%%%%%%%@@@@@++@@%%%%%%%%%%%%%%%%%%%%%ooooooooooooooooooooooooooooooooooooooooooooooooooooooooooooooooooooooooooo@@@@@@@@@@@@@@@@@@@@@@@@@@@@@@@@@@@@@@@@@@@@@@@@@@@@@@@@@@@@@@@@ooooooooooooooooooooooooooooooooooooooooooooooooooooooooooooooooooooooooooooooooooooooooooooooooooooooooooooooooooooooooooooooooooooooooooooooooooooooooooooo@@@@@@+@@@@+@@XXXX@XXXXXXXX@@@@XXXXXXXXXXXXXXXXXXXXXXXXXXXXXXXXXXXXXXXXXXXXXXXXXXXXXXXXXXXXXXXXXXXXXXXXXXX@X@@@&&&@@@@@@@@@@@====::====::::::::::::==",
"ooooooooooooooooooooo%%%%%%%%%%ooooooooooooooooooooooooooooooooooooooooooooooooooooooooooooooooooooooooooooo%%%%%%%%%%%%%%%%%%%%%%%%%%%%%%%%%%%%%%%%@@@@@@@@@@@@%%%%%%%%%%%%%%%%%ooooooooooooooooooooooooooooooooooooooooooooooooooooooooooooooooooooooooooooooooooooooooooooooooooooooooooooooo@@++@@@@@@@@@@@@@@@@@@@@@@@@@ooooooooooooooooooooooooooooooooooooooooooooooooooooooooooooooooooooooooooooooooooooooooooooooooooooooooooooooooooooooooooooooooooooooooooooooooooooooooooooooooo@@@@@@@@@@+X@XX@@@XXXXXXX@@@XXXXXXXXXXXXXXXXXXXXXXXXXXXXXXXXXXXXXXXXXXXXXXXXXXXXXXXXXXXXXXXXXXXXXX@@@@X@@@@@@&&&&&&&&@&=========::::::::::::::::::==",
"ooooooooooooooooooooo%%%%%%%%%%oooooooooooooooooooooooooooooooooooooooooooooooooooooooooooooooooooooooooooooooooo%%%%%%%%%%%%%%%%%%%%%%%%%%%%%%%%%%%@@@@@@@@@@@@%%%%%%%%%%%%%%%%%ooooooooooooooooooooooooooooooooooooooooooooooooooooooooooooooooooooooooooooooooooooooooooooooooooooooooooooooo@@@@@@@@@@@@@@@@@@@@@@@@@@@@@oooooooooooooooooooooooooooooooooooooooooooooooooooooooooooooooooooooooooooooooooooooooooooooooooooooooooooooooooooooooooooooooooooooooooooooooooooooooooooooooooo@@@@@@@XX@@@@XXXXX@@@XXXXXXXXXXXXXXXXXXXXXXXXXXXXXXXXXXXXXXXXXXXXXXXXXXXXXXXXX@XXXXXXXXXXXXXX@@@@@@@@@@@@&&&@@@==::=====:::::==:::::::::::::::::===",
"ooooooooooooooooooo%%%%%%%%%%%%ooooooooooooooooooooooooooooooooooooooooooooooooooooooooooooooooooooooooooooooooooo%%%%%%%%%%%%%%%%%%%%%%%%%%%%%%%@@@@@@@@@@@++@@%%%%%%%%%%%%%%%%%oooooooooooooooooooooooooooooooooooooooooooooooooooooooooooooooooooooooooooooooooooooooooooooooooooooooooooooooooooooooooooooooooooooooooooooooooooooooooooooooooooooooooooooooooooooooooooooooooooooooooooooooooooooooooooooooooooooooooooooooooooooooooooooooooooooooooooooooooooooooooooooooooooooooooooooo@@@@@XXXXX@@@XXXXXX@@XXXXXXXXXXXXXXXXXXXXXXXXXXXXXXXXXXXXXXXXXXXXXX@@@@@@@@@@@@@@@@@@@@@@@@@@@@@@&&&&@@@@&:=&%%==:::===::<<::==:::::::::::::::::===",
"ooooooooooooooooooo%%%%%%%%%%%%oooooooooooooooooooooooooooooooooooooooooooooooooooooooooooooooooooooooooooooooooooooo%%%%%%%%%%%%%%%%%%%%%%%%%%%%%%o@@@@@@@++@@@%%%%%%%%%%%%%%%%%ooooooooooooooooooooooooooooooooooooooooooooooooooooooooooooooooooooooooooooooooooooooooooooooooooooooooooooooooooooooooooooooooooooooooooooooooooooooooooooooooooooooooooooooooooooooooooooooooooooooooooooooooooooooooooooooooooooooooooooooooooooooooooooooooooooooooooooooooooooooooooooooooooooooooooooooo@@@@@@@@@@@@@@@@@@@@++@@@@@@@@@@XXXXXXXXXXXXXXXXXXXXXXXXXXXXXXXX@@@@@@@@@@@@@@@@@@@@@@@@@@@@@@@@&&&&@@&&:&&====::::===::::::=:::::::====::========",
"oooooooooooooooooo%%%%%%%%%%%%%%%%oooooooooooooooooooooooooooooooooooooooooooooooooooooooooooooooooooooooooooooooooooo%%%%%%%%%%%%%%%%%%%%%%%%%ooo@@@@@@@@@@+@@@ooo%%%%%%%%%%ooooooooooooooooooooooooooooooooooooooooooooooooooooooooooooooooooooooooooooooooooooooooooooooooooooooooooooooooooooooooooooooooooooooooooooooooooooooooooooooooooooooooooooooooooooooooooooooooooooooooooooooooooooooooooooooooooooooooooooooooooooooooooooooooooooooooooooooooooooooooooooooooooooooooooooooooooo@@@@@@++@@@@@@@@@@@@+@@@@@@@@@@@XXXXXXXXXXXXXXXXXXXXXXXXXXXXX@@@@@@@@@@@@@@&@@@@&&@@@@@@@@@@@@@&&&======::::::::::::::::::::::::::::===:::========",
"oooooooooooo%%ooo%%%%%%%%%%%%%%%%oooooooooooooooooooooooooooooooooooooooooooooooooooooooooooooooooooooooooooooooooooooooo%%%%%%%%%%%%%%%%%%%%%%ooooo@@@@@@@+@@@@ooo%%%%%%%%%%ooooooooooooooooooooooooooooooooooooooooooooooooooooooooooooooooooooooooooooooooooooooooooooooooooooooooooooooooooooooooooooooooooooooooooooooooooooooooooooooooooooooooooooooooooooooooooooooooooooooooooooooooooooooooooooooooooooooooooooooooooooooooooooooooooooooooooooooooooooooooooooooooooooooooooooooooooo@@@@@@@+@@@@@@@@@@@@@@@@@@XX@@@XXXXXXXXXXXXXXXXXXXXXX@@@@@@@@@@@@@&&&&&&&&&&&&&&&&&&&&&&&&&&&&&&@@%%=::===:::<:::=:::::===:<<<:::=================",
"ooooooooooo%%%%%%%%%%%%%%%%%%%%%%%ooooooooooooooooooooooooooooooooooooooooooooooooooooooooooooooooooooooooooooooooooooooo%%%%%%%%%%%%%%%%%%%%%%ooo@@@@@@@@+@@@@@ooo%%%%%%%%%%ooooooooooooooooooooooooooooooooooooooooooooooooooooooooooooooooooooooooooooooooooooooooooooooooooooooooooooooooooooooooooooooooooooooooooooooooooooooooooooooooooooooooooooooooooooooooooooooooooooooooooooooooooooooooooooooooooooooooooooooooooooooooooooooooooooooooooooooooooooooooooooooooooooooooooooooooooo@@@@@@@@@@@@@@@@@@@@++@@@@@@@@@@@@@@@@@@@@@@XX@@@@@@@@@@@@@@@@@@@&===============================%%=::::===:<<::==::<<:===:<<<:===================",
"ooooooooooo%%%%%%%%%%%%%%%%%%%%%%%oooooooooooooooooooooooooooooooooooooooooooooooooooooooooooooooooooooooooooooooooooooo%%%%%%%%%%%%%%%%%%%%%%%oooooooo@@@@@@@@@ooo%%%%%%%%%%ooooooooooooooooooooooooooooooooooooooooooooooooooooooooooooooooooooooooooooooooooooooooooooooooooooooooooooooooooooooooooooooooooooooooooooooooooooooooooooooooooooooooooooooooooooooooooooooooooooooooooooooooooooooooooooooooooooooooooooooooooooooooooooooooooooooooooooooooooooooooooooooooooooooooooooooooooo@@++@@@@++@@@@@@@@@@+@@@@@@@@@@@@@@@@@@@@@@@@@@@&&&&@@&&@@&&@@@@=:====::======::=:====::======::====:<<:===::::===:<<<::==::::===%==============%%",
"%%oooooo%%%%%%%%%%%%%%%%%%%%%%%%%%ooooooooooooooooooooooooooooooooooooooooooooooooooooooooooooooooooooooooooooooooooooo%%%%%%%%%%%%%%%%%%%%%%oooooooo@@@@@@@@@@@ooo%%%%%%%%ooooooooooooooooooooooooooooooooooooooooooooooooooooooooooooooooooooooooooooooooooooooooooooooooooooooooooooooooooooooooooooooooooooooooooooooooooooooooooooooooooooooooooooooooooooooooooooooooooooooooooooooooooooooooooooooooooooooooooooooooooooooooooooooooooooooooooooooooooooooooooooooooooooooooooooooooooooo@@@+@@@@@+@@@@@@@@@@@@@@@@@@@@@@@@@@@@@@@@@@@@@@&<<:&@&&&=<:=%%%=:::::::::::::::::::::::::::::::==::::::===::=====::::::==::====%%%=============%%",
"%%%%%%%%%%%%%%%%%%%%%%%%%%%%%%%%%%oooooooooooooooooooooooooooooooooooooooooooooooooooooooooooooooooooooooooooooooooo%%%%%%%%%%%%%%%%ooooooo%ooooooooooooo@@@@@@@ooo%%%%%%%%oooooooooooooooooooooooooooooooooooooooooooooooooooooooooooooooooooooooooooooooooooooooooooooooooooooooooooooooooooooooooooooooooooooooooooooooooooooooooooooooooooooooooooooooooooooooooooooooooooooooooooooooooooooooooooooooooooooooooooooooooooooooooooooooooooooooooooooooooooooooooooooooooooooooooooooooooooooo@@@@@@@@@@@@@@@@@@@@@%%@@@@@@@@@@@@&&&@@&:<::@=:<3<=@@=:<<<=%%%=::::::::::::::::::::::::::::::::::::==:::======::=====:==============%%%%===%%%%%",
"%%%%%%%%%%====%%%%%%%%%%%%%%%%%%%%ooooooooooooooooooooooooooooooooooooooooooooooooooooooooooooooooooooooooooooooooooo%%%%%%%%%%%%oooooooooooooooooooooooo@@@@@@@ooo%%%%%%ooooooooooooooooooooooooooooooooooooooooooooooooooooooooooooooooooooooooooooooooooooooooooooooooooooooooooooooooooooooooooooooooooooooooooooooooooooooooooooooooooooooooooooooooooooooooooooooooooooooooooooooooooooooooooooooooooooooooooooooooooooooooooooooooooooooooooooooooooooooooooooooooooooooooooooooooooooooo@@oo%%%%%%%%%%%%%%%%%%%%@@%o%%%%%%%=<<:=%=:<<:=%::<:=%%=<33<:=%%========::::============::::===::::=====:::=%%==::=%%%==:=%%%%=====%%%%%%%%%%%%%%%",
"===============%%%%%%%%%%%%%%%%%%%ooooooooooooooooooooooooooooooooooooooooooooooooooooooooooooooooooooooooooooooooooo%%%%%%%%%%%%oooooooooooooooooooooooooooooooooo%%%%%%ooooooooooooooooooooooooooooooooooooooooooooooooooooooooooooooooooooooooooooooooooooooooooooooooooooooooooooooooooooooooooooooooooooooooooooooooooooooooooooooooooooooooooooooooooooooooooooooooooooooooooooooooooooooooooooooooooooooooooooooooooooooooooooooooooooooooooooooooooooooooooooooooooooooooooooooooooooooo@oo%%%%%%%%%%%%%%%%%%%%%@@@@%%%%%=:<<<<:%%=:<:=%%===%%%=<33<<:=%================================:::==%%=:::=%%==::=%%%%===%%%%=====%%%%%%%%%%%%%%%",
"===============%%%%%%%%%%%%%%%%%%%ooooooooooooooooooooooooooooooooooooooooooooooooooooooooooooooooooooooooooooo%%%%%%%%%%%%%%%%%%oooooooooooooooooooooooooooooooo%%%%%%%%oooooooooooooooooooooooooooooooooooooooooooooooooooooooooooooooooooooooooooooooooooooooooooooooooooooooooooooooooooooooooooooooooooooooooooooooooooooooooooooooooooooooooooooooooooooooooooooooooooooooooooooooooooooooooooooooooooooooooooooooooooooooooooooooooooooooooooooooooooooooooooooooooooooooooooooooooooooo%@@%%%%%%%%%%%%%%%%%%%%%%%%%%%%%%%%:<::::=%%=:<====%===%=<<<<<<:=====================================%%%=====%%%====%%%%%==%%%%====%%%%%%%%%%%%%%%%",
"==============%%%%%%%%%%%%%%%%%%%%ooooooooooooooooooooooooooooooooooooooooooooooooooooooooooooooooooooooooooooo%%%%%%%%%%%%%%%%%%ooooooooooooooooooooooooooo%%%%%%%%%%%%%oooooooooooooooooooooooooooooooooooooooooooooooooooooooooooooooooooooooooooooooooooooooooooooooooooooooooooooooooooooooooooooooooooooooooooooooooooooooooooooooooooooooooooooooooooooooooooooooooooooooooooooooooooooooooooooooooooooooooooooooooooooooooooooooooooooooooooooooooooooooooooooooooooooooooooooooooooooo%%%%%%%%%%%%%%%%%%%%%%%%%%%%%%%%%%%%=====::%=:<<<<:==::==:<==<<<:===========================================%%%%%%%%===%%====%%%%%%%%%%%%%%%%%%%%%o",
"=============%%%%%%%%%%%%%%%%%%%%%oooooooooooooooooooooooooooooooooooooooooooooooooooooooooooooooooooooooo%%%%%%%%%%%%%%%%%%%%%%%oooooooooooooooooooo%%%oo%o%%%%%%%%%%%%%oooooooooooooooooooooooooooooooooooooooooooooooooooooooooooooooooooooooooooooooooooooooooooooooooooooooooooooooooooooooooooooooooooooooooooooooooooooooooooooooooooooooooooooooooooooooooooooooooooooooooooooooooooooooooooooooooooooooooooooooooooooooooooooooooooooooooooooooooooooooooooooooooooooooooooooooooooooo%%%%%%%%%%%%%%%%%%%%%%%%%%%%%%%%%=%%%%%%=::==:<<<<:==::==::==<<<:================================%%====%%%%%%%%%%%%%==%%%%===%%%%%%%%%%%%%%%%%%%%oo",
"============%%%%%%%%%%%%%%%%%%%%%%ooooooooooooooooooooooooooooooooooooooooooooooooooooooooooooooooooooooooo%%%%%%%%%%%%%%%%%%%%%%oooooooooooooooooooo%%%%%%%%%%%%%%%%%%%%ooooooooooooooooooooooooooooooooooooooooooooooooooooooooooooooooooooooooooooooooooooooooooooooooooooooooooooooooooooooooooooooooooooooooooooooooooooooooooooooooooooooooooooooooooooooooooooooooooooooooooooooooooooooooooooooooooooooooooooooooooooooooooooooooooooooooooooooooooooooooooooooooooooooooooooooooooooooo%%%%%%%%%%%%%%%%%%%%%%%%%%%%%%%=::%%%%%=<<==::====%%==%=::<<<:==================================%%%%%===%%%%==%%%%%%==%%%%==%%%%%%%%%%%%%%%%%%%%oo",
"===========%%%%%%%%%%%%%%%%%%%%%%%%oooooooooooooooooooooooooooooooooooooooooooooooooooooooooooooooooooooooooooooo%%%%%%%%%%%%%%%%ooooooooooooooooooo%%%%%%%%%%%%%%%%%%%%%%%%%%ooooooooooooooooooooooooooooooooooooooooooooooooooooooooooooooooooooooooooooooooooooooooooooooooooooooooooooooooooooooooooooooooooooooooooooooooooooooooooooooooooooooooooooooooooooooooooooooooooooooooooooooooooooooooooooooooooooooooooooooooooooooooooooooooooooooooooooooooooooooooooooooooooooooooooooooooooo%%%%%%%%%%%%%%%%%%%%%%%%%%%%%%=::=%%%%=::==::=%%%%%%%%=:<<<<:=%================================%%%%%==%%%%%====%%%%%%%%%%%%%%%%%%%%%%%%%%%%%%%%oo",
"====%%%%====%%%%%%%%%%%%%%%%%%%%%%%%%%%%%%%%%%%%ooooooooooooooooooooooooooooooooooooooooooooooooooooooooooooooooo%%%oooo%%%%%%%%%oooooooooooooooooo%%%%%%%%%%%%%%%%%%%%%%%%%%%%%%%%%ooooooooooooooooooooooooooooooooooooooooooooooooooooooooooooooooooooooooooooooooooooooooooooooooooooooooooooooooooooooooooooooooooooooooooooooooooooooooooooooooooooooooooooooooooooooooooooooooooooooooooooooooooooooooooooooooooooooooooooooooooooooooooooooooooooooooooooooooooooooooooooooooooooooooooo%%%%%%%%%%%%%%%%%%%%%%%%%%%%%%%%====%%%======::==========::::::==================================%%%%%%%%%%%%%%==%%%%%%%%%%%%%%%%%%%%%%%%%%%%%%%ooo",
"%%%%%%%%%%%%%%%%%%%%%%%%%%%%%%%%%%%%%%%%%%%%%%%%ooooooooooooooooo%%%%%%%%%%ooooooooooooooooooooooooooooooooooooooooooooo%%%%%%%%%oooooooooooooo%%%%%%%%%%%%%%%%%%%%%%%%%%%%%%%%%%%%%%ooooooooooooooooooooooooooooooooooooooooooooooooooooooooooooooooooooooooooooooooooooooooooooooooooooooooooooooooooooooooooooooooooooooooooooooooooooooooooooooooooooooooooooooooooooooooooooooooooooooooooooooooooooooooooooooooooooooooooooooooooooooooooooooooooooooooooooooooooooooooooooooooooooooooooo%%%%%%%%%%%%%%%%%%%%%%%%%%%%%%%%%%%%%=======:::=:=======::==::==================================%%%%%%%%%%%%%%%%%%%%%%%%%%%%%%%%%%%%%%%%%%%%oo%%%%",
"%%%%%%%%%%%%%%%%%%%%%%%%%%%%%%%%%%%%%%%%%%%%%%%oooooooooooooooooo%%%%%%%%%%ooooooooooooooooooooooooooooooooooooooooooo@@%%%%%%@%%oooooooooooooo%%%%%%%%%%%%%%%%%%%%%%%%%%%%%%%%%%%%%%%%%%%oooooooooooooooooooooooooooooooooooooooooooooooooooooooooooooooooooooooooooooooooooooooooooooooooooooooooooooooooooooooooooooooooooooooooooooooooooooooooooooooooooooooooooooooooooooooooooooooooooooooooooooooooooooooooooooooooooooooooooooooooooooooooooooooooooooooooooooooooooooooooooooooooooooo%%%%%%%%%%%%%%%%%%%%%%%%%%%%%%%%%%%%%%==========================================================%%%%%%%%%%%%%%%%%%%%%%%%%%%%%%%%%%%%%%%%%%%%oooo%%",
"%%%%%%%%%%%%%%%%%%%%%%%%%%%%%%%%%%%%%%%%%%%%%%%oooooooooooooooooo%%%%%%%%%%oooooooooooooooooooooooooooooooooooooo@@@@@@@@@@@@@%%%%%%%%%%%%%%%%%%%%%%%%%%%%%%%%%%%%%%%%%%%%%%%%%%%%%%%%%%%%oooooooooooooooooooooooooooooooooooooooooooooooooooooooooooooooooooooooooooooooooooooooooooooooooooooooooooooooooooooooooooooooooooooooooooooooooooooooooooooooooooooooooooooooooooooooooooooooooooooooooooooooooooooooooooooooooooooooooooooooooooooooooooooooooooooooooooooooooooooooooooooooooooooo%%%%%%%%%%%%%%%%%%%%%%%%%%%%%%%%%%%%%%%=========================================================%%%%%%%%%%%%%%%%%%%%%%%%%%%%%%%%%%%%%%%%%%%%oooo%%",
"%%%%%%%%%%%%%%%%%%%%%%%%%%%%%%%%%%%%%%%%%%%%%%%oooooooooooooooooo%%%%%%%%%%ooooooooooooooooooooooooooooooooooo@@@@@@@@@@@@@@@@@%%%%%%%%%%%%%%%%%%%%%%%%%%%%%%%%%%%%%%%%%%%%%%%%%%%%%%%%%%%oooooooooooooooooooooooooooooooooooooooooooooooooooooooooooooooooooooooooooooooooooooooooooooooooooooooooooooooooooooooooooooooooooooooooooooooooooooooooooooooooooooooooooooooooooooooooooooooooooooooooooooooooooooooooooooooooooooooooooooooooooooooooooooooooooooooooooooooooooooooooooooooooooooo%%%%%%%%%%%%%%%%%%%%%%%%%%%%%%%%%%%%%%%%========================================================%%%%%%%%%%%%%%%%%%%%%%%%%%%%%%%%%%%%oooo%%%%%%%%%%",
"%o%ooooooo%ooooo%%%%ooooooooooooo%%%%%%%%%%%%%%oooooooooooooooooo%%%%%%%%%%ooooooooooooooooooooooooooooo@@@@@@@@@@@@@@@@@@@@@@@@%%%%%%%%%%%%%%%%%%%%%%%%%%%%%%%%%%%%%%%%%%%%%%%%%%%%%%%%%%oooooooooooooooooooooooooooooooooooooooooooooooooooooooooooooooooooooooooooooooooooooooooooooooooooooooooooooooooooooooooooooooooooooooooooooooooooooooooooooooooooooooooooooooooooooooooooooooooooooooooooooooooooooooooooooooooooooooooooooooooooooooooooooooooooooooooooooooooooooooooooooooooooooo%%%%%%%%%%%%%%%%%%%%%%%%%%%%%%%%%%%%%%%%%======================================================%%%%%%%%%%%%%%%%%%%%%%%%%%%%%%%%%%%%%oooo%ooooooooo",
"ooooooooooooooooooooooooooooooooo%%%%%%%%%%%%%%oooooooooooooooooo%%%%%%%%%%oooooooooooooooooooooooooooo@@@@@@@@@@@@@@@@@@@@@@@@@@%%%%%%%%%%%%%%%%%%%%%%%%%%%%%%%%%%%%%%%%%%%%%%%%%%%%%%%%%oooooooooooooooooooooooooooooooooooooooooooooooooooooooooooooooooooooooooooooooooooooooooooooooooooooooooooooooooooooooooooooooooooooooooooooooooooooooooooooooooooooooooooooooooooooooooooooooooooooooooooooooooooooooooooooooooooooooooooooooooooooooooooooooooooooooooooooooooooooooooooooooooooooo%%%%%%%%%%%%%%%%%%%%%%%%%%%%%%%%%%%%%%%%%%======================%%==%=%%%%====%%%%==%=%%%%====%%%%%%%%%%%%%%%%%%%%%%%%%%%%%%%%%%%%%%oooo%oo@@@@@@@",
"ooooooooooooooooooooooooooooooooo%%%%%%%%%%%%%%oooooooooooooooooooo%%%%%%%%oooooooooooooooooooooooooooo@@@@@@@@@@@@@@@@@@@@@@@@@@%%%%%%%%%%%%%%%%%%%%%%%%%%%%%%%%%%%%%%%%%%%%%%%%%%%%%%%%%oooooooooooooooooooooooooooooooooooooooooooooooooooooooooooooooooooooooooooooooooooooooooooooooooooooooooooooooooooooooooooooooooooooooooooooooooooooooooooooooooooooooooooooooooooooooooooooooooooooooooooooooooooooooooooooooooooooooooooooooooooooooooooooooooooooooooooooooooooooooooooooooooooooo%%%%%%%%%%%%%%%%%%%%%%%%%%%%%%%%%%%%%%%%%%%=====================%%%%%%%%%%%%%%%%%%%%%%%%%%%%%%%%%%%@@@@@@@@@@@@@@@@@@@@@@@@@@@@@@@@@@@@@@@@@@@@@@@",
"ooooooooooooooooooooooooooooooooo%%%%%%%%%%%ooooooooooooooooooooooo%%%%%%%%ooooooooooooooooooooooo@@@@@@@@@@@@XX@@XXXXXXXXXXX@@@@%%%%%%%%%%%%%%%%%%%%%%%%%%%%%%%%%%%%%%%%%%%%%%%%%%%%%%ooooooooooooooooooooooooooooooooooooooooooooooooooooooooooooooooooooooooooo%%%%%%%%%%%%%%%%%%%%%%%%%%%%%%oooooooooooooooooooooooooooooooooooooooooooooooooooooooooooooooooooooooooooooooooooooooooooooooooooooooooooooooooooooooooooooooooooooooooooooooooooooooooooooooooooooooooooooooooooooooooooooooo%%%%%%%%%%%%%%%%%%%%%%%%%%%%%%%%%%%%%%%%%%%%====================%%%%%%%%%%%%%%%%%%%%%%%%%%%%%%%%@@@@@@@@@@@@@@@@@@@@@@@@@@@@@@@@@@@@@@@@@@@@@@@@@@",
"%%%%%%%%ooo%%%%%%%%%%%%%ooo%%%%%%%%%%%%oooooooooooooooooooooooooooo%%%%%%%%ooooooooooooooooooooooo@@@@@@@@@@@@XX@@XXXXXXXXXX@@@@@%%%%%%%%%%%%%%%%%%%%%%%%%%%%%%%%%%%%%%%%%%%%%%%%%%%%%ooooooooooooooooooooooooooooooooooooooooooooooooooooooooooooooooooooooooooo%%%%%%%%%%%%%%%%%%%%%%%%%%%%%%%oooooooooooooooooooooooooooooooooooooooooooooooooooooooooooooooooooooooooooooooooooooooooooooooooooooooooooooooooooooooooooooooooooooooooooooooooooooooooooooooooooooooooooooooooooooooooooooooo%%%%%%%%%%%%%%%%%%%%%%%%%%%%%%%%%%%%%%%%%%%%===============%=%%%%%%%%%%%%%%%%%%%%%%%%%%%%%%%%%%%@@@@@@@@@@@@@@@@@@@@@@@@@@@@@@@@@@@@@@@@@@@@@@@@@@",
"%%%%%%%%oooo%%%%%%%%%%%%oooo%%%%%%%%%%%oooooooooooooooooooooooooooo%%%%%%%%oooooooooooooooooooooooo@@@@@@@@@@@@@@@XX@XXXXXX@@@@@@%%%%%%%%%%%%%%%%%%%%%%%%%%%%%%%%%%%%%%%%%%%%%%%%%%%%%oooooooooooooooooooooooooooooooooooooooooooooooooooooooooooooooooooooooooo%%%%%%%%%%%%%%%%%%%%%%%%%%%%%%%%oooooooooooooooooooooooooooooooooooooooooooooooooooooooooooooooooooooooooooooooooooooooooooooooooooooooooooooooooooooooooooooooooooooooooooooooooooooooooooooooooooooooooooooooooooooooooooooooo%%%%%%%%%%%%%%%%%%%%%%%%%%%%%%%%%%%%%%%%%%%%%===========%%%%%%%%%%%%%%%%%%%%%%%%%%%%%%%%%%%%%%%%@@@@@@@@@@@@@@@@@@@@@@@@@@@@@@@@@@@@@@@@@@@@@@@@@@",
"ooooooooooooooooooooooooooooooooooooooooooooooooooooooooooooooooooo%%%%%%%%ooooooooooooooooooooooooo@@@@@@@@@@@@@@@@@@@@@@@@@@@@@%%%%%%%%%%%%%%%%%%%%%%%%%%%%%%%%%%%%%%%%%%%%%%%%%%%%%oooooooooooooooooooooooooooooooooooooooooooooooooooooooooooooooooooooooooo%%%%%%%%%%%%%%%%%%%%%%%%%%%%%%%%oooooooooooooooooooooooooooooooooooooooooooooooooooooooooooooooooooooooooooooooooooooooooooooooooooooooooooooooooooooooooooooooooooooooooooooooooooooooooooooooooooooooooooooooooooooooooooooooo%%%%%%%%%%%%%%%%%%%%%%%%%%%%%%%%%%%%%%%%%%%%%===========%%%%%%%%%%%%%%%%%%%%%%%%%%%%%%%%%%%%%%%%@@@@@@@@@@@@@@@@@@@@@@@@@@@@@@@@@@@@@@@@@@@@@@@@@@",
"ooooooooooooooooooooooooooooooooooooooooooooooooooooooooooooooooooo%%%%%%%%oooooooooooooooooooooooooo@@@@@@@@@@@@@@@@@@@@@@@@@%%%%%%%%%%%%%%%%%%%%%%%%%%%%%%%%%%%%%%%%%%%%%%%%%%%%%ooooooooooooooooooooooooooooooooooooooooooooooooooooooooooooooooooooooooooooo%%%%%%%%%%%%%%%%%%%%%%%%%%%%%%%%oooooooooooooooooooooooooooooooooooooooooooooooooooooooooooooooooooooooooooooooooooooooooooooooooooooooooooooooooooooooooooooooooooooooooooooooooooooooooooooooooooooooooooooooooooooooooooooooo%%%%%%%%%%%%%%%%%%%%%%%%%%%%%%%%%ooo%%%%%%%%%%=%======%%%%%%%%%%%%%%%%%%%%%%%%%%%%%%%%%%%%%%%%%%@@@@@@@@@@@@@@@@@@@@@@@@@@@@@@@@@@@@@@@@@@oo%ooooo",
"ooooooooooooooooooooooooooooooooooooooooooooooooooooooooooooooooooo%%%%%%%%ooooooooooooooooooooooooooooooooooooooooooo@@@@@@%%%%%%%%%%%%%%%%%%%%%%%%%%%%%%%%%%%%%%%%%%%%%%%%%%%ooooooooooooooooooooooooooooooooooooooooooooooooooooooooooooooooooooooooooooooooo%%%%%%%%%%%%%%%%%%%%%%%%%%%%%%%%oooooooooooooooooooooooooooooooooooooooooooooooooooooooooooooooooooooooooooooooooooooooooooooooooooooooooooooooooooooooooooooooooooooooooooooooooooooooooooooooooooooooooooooooooooooooooooooooo%%%%%%%%%%%%%%%%%%%%%%%%%%%%%%%%oooo%%%%%%%%%%%%=====%%%%%%%%%%%%%%@@@@@@@@@@@@@@@@@@@@@@@@@@@@@%%%%%%%%%%%%%%%%%%%%%%%%%%%%%%%%%%%%%%%%%%oo%%%%oo",
"oooooooooooooooooooooooooooooooooooooooooooooooooooooooooooooooo%%%%%%%%%%%%oooooooooooooooooooooooooooooooooooooooooooo%%%%%%%%%%%%%%%%%%%%%%%%%%%%%%%%%%%%%%%%%%%%%%%%%%%%%%%ooooooooooooooooooooooooooooooooooooooooooooooooooooooooooooooooooooooooooooooooo%%%%%%%%%%%%%%%%%%%%%%%%%%%%%%%%oooooooooooooooooooooooooooooooooooooooooooooooooooooooooooooooooooooooooooooooooooooooooooooooooooooooooooooooooooooooooooooooooooooooooooooooooooooooooooooooooooooooooooooooooooooooooooooooo%%%%%%%%%%%%%%%%%%%%%%%%%%%%%%%%oooo%o%%%%%%%%%=====%%%%%%%%%%%%%%%@@@@@@@@@@@@@@@@@@@@@@@@@@@@@%%%%===%%%%%===%%%%%%%====%%%%%%%%%%%%%%%%%%%%%%oo",
"oooooooooooooooooooooooooooooooooooooooooooooooooooooooooooooooo%%%%%%%%%%%%oooooooooooooooooooooooooooooooooooooooooooo%%%%%%%%%%%%%%%%%%%%%%%%%%%%%%%%%%%%%%%%%%%%%%%%%%%%%ooooooooooooooooooooooooooooooooooooooooooooooooooooooooooooooooooooooooooooooooooo%%%%%%%%%%%%%%%%%%%%%%%%%%%%%%%%oooooooooooooooooooooooooooooooooooooooooooooooooooooooooooooooooooooooooooooooooooooooooooooooooooooooooooooooooooooooooooooooooooooooooooooooooooooooooooooooooooooooooooooooooooooooooooooooo%%%%%%%%%%%%%%%%%%%%%%%%%%%%%%%%oooooo%%%%%%%%%=====%%%%%%%%%%%%%%%@@@@@@@@@@@@@@@@@@@@@@@@@@@@@%%%%===%%%%%===%%%%%%%%===%%%%%%%%%%%%%%%%%%%%%%oo",
"oooooooooooooooooooooooooooooooooooooooooooooooooooooooooooooooo%%%%%%%%%%%%ooooooooooooooooooooooooooooooooooooooooooo%%%%%%%%%%%%%%%%%%%%%%%%%%%%%%%%%%%%%%%%%%%%%%%%%%%%%oooooooooooooooooooooooooooooooooooooooooooooooooooooooooooooooooooooooooooooooooooo%%%%%%%%%%%%%%%%%%%%%%%%%%%%%%%%oooooooooooooooooooooooooooooooooooooooooooooooooooooooooooooooooooooooooooooooooooooooooooooooooooooooooooooooooooooooooooooooooooooooooooooooooooooooooooooooooooooooooooooooooooooooooooooooo%%%%%%%%%%%%%%%%%%%%%%%%%%%%%%%%oooooo%%%%%%%%%=====%%%%%%%%%%%%%%%%%%%%%%%%%%%%%%%%%%%%%%%%%%%%%=====================================%%%%%%%%%%%%",
"ooooooooooooooooooooooooooooooooooooooooo%%%%%%ooooooooooooooooo%%%%%%%%%%%%oooooooooooooooooooooooooooooooooooooooooo%%%%%%%%%%%%%%%%%%%%%%%%%%%%%%%%%%%%%%%%%%%%%%%%%%%%%ooooooooooooooooooooooooooooooooooooooooooooooooooooooooooooooooooooooooooooooooooooo%%%%%%%%%%%%%%%%%%%%%%%%%%%%%%%%oooooooooooooooooooooooooooooooooooooooooooooooooooooooooooooooooooooooooooooooooooooooooooooooooooooooooooooooooooooooooooooooooooooooooooooooooooooooooooooooooooooooooooooooooooooooooooooooo%%%%%%%%%%%%%%%%%%%%%%%%%%%%%%%%oooooo%%%%%%%%%=====%%%%%%%%%%%%%%%%%%%%%%%%%%%%%%%%%%%%%%%%%%%%====================================%=%%%%%%%%%%%%",
"oooo%%%%%%%%%%%%%%%%%%%%%%%%%%%%ooooooooo%%%%%%ooooooooooooooooo%%%%%%%%%%%%oooooooooooooooooooooooooooooooooooooooooo%%%%%%%%%%%%%%%%%%%%%%%%%%%%%%%%%%%%%%%%%%%%%%%%%%%%%ooooooooooooooooooooooooooooooooooooooooooooooooooooooooooooooooooooooooooooooooooooo%%%%%%%%%%%%%%%%%%%%%%%%%%%%%%%%oooooooooooooooooooooooooooooooooooooooooooooooooooooooooooooooooooooooooooooooooooooooooooooooooooooooooooooooooooooooooooooooooooooooooooooooooooooooooooooooooooooooooooooooooooooooooooooooo%%%%%%%%%%%%%%%%%%%%%%%%%%%%%%%%oooooo%%%%%%%%%%======%%%%%%%%%%%%%%%%%%%%%%%%%%%%%%%%%%%%%%%%%%==================================%%%%%%%%%%%%%%%%",
"%%%%%%%%%%%%%%%%%%%%%%%%%%%%%%%%%%%%%%%%%%%%%%%ooooooooooooooooo%%%%%%%%%%%%oooooooooooooooooooooooooooooooooooooooooo%%%%%%%%%%%%%%%%%%%%%%%%%%%%%%%%%%%%%%%%%%%%%%%%%%%oooooooooooooooooooooooooooooooooooooooooooooooooooooooooooooooooooooooooooooooooooooo%%%%%%%%%%%%%%%%%%%%%%%%%%%%%%%%%%ooooooooooooooooooooooooooooooooooooooooooooooooooooooooooooooooooooooooooooooooooooooooooooooooooooooooooooooooooooooooooooooooooooooooooooooooooooooooooooooooooooooooooooooooooooooooooooooo%%%%%%%%%%%%%%%%%%%%%%%%%%%%%%%%%oooo%%%%%%%%%%%======%%%%%%%%%%%%%%%%%%%%%%%%%%%%%%%%%%%%%%%%%%=========================================%%%%%%%%%",
"%%%%%%%%%%%%%%%%%%%%%%%%%%%%%%%%%%%%%%%%%%%%%%%ooooooooooooooooo%%%%%%%%%%%%oooooooooooooooooooooooooooooooooooooooooo%%%%%%%%%%%%%%%%%%%%%%%%%%%%%%%%%%%%%%%%%%%%%%%%%%%ooooooooooooooooooooooooooooooooooooooooooooooooooooooooooooooooooooooooooooo%%oooooo%%%%%%%%%%%%%%%%%%%%%%%%%%%%%%%%%%%%oooooooooooooooooooooooooooooooooooooooooooooooooooooooooooooooooooooooooooooooooooooooooooooooooooooooooooooooooooooooooooooooooooooooooooooooooooooooooooooooooooooooooooooooooooooooooooooo%%%%%%%%%%%%%%%%%%%%%%%%%%%%%%%%%%%%%%%%%%%%%=%========%=%%%%%%%%%%%%%====%=%%%%========%%%%=%===========================================%%%%%%%%%",
"%%%%%%%%%%%%%%%%%%%%%%%%%%%%%%%%%%%%%%%%%%%%%%%%ooooooooo%%%oo%%%%%%%%%%%%%%oooooooooooooooooooooooooooooooooooooooooo%%%%%%%%%%%%%%%%%%%%%%%%%%%%%%%%%%%%%%%%%%%%%%%%%oooooooooooooooooooooooooooooooooooooooooooooooooooooooooooooooooooooooooooooooo%ooooo%%%%%%%%%%%%%%%%%%%%%%%%%%%%%%%%%%%%%oooooooooooooooooooooooooooooooooooooooooooooooooooooooooooooooooooooooooooooooooooooooooooooooooooooooooooooooooooooooooooooooooooooooooooooooooooooooooooooooooooooooooooooooooooooooooooooo%%%%%%%%%%%%%%%%%%%%%%%%%%%%%%%%%%%%%%%%%%%%================%%%%========================================================================%%%%%%%%%%",
"oooooooooooooooooooooo%%ooooooooo%%%%%%%%%%%%%%%oooooooo%%%%%%%%%%%%%%%%%%%%oooooooooooooooooooooooooooooooooooooooooo%%%%%%%%%%%%%%%%%%%%%%%%%%%%%%%%%%%%%%%%%%%%%%%%%ooooooooooooooooooooooooooooooooooooooooooooooooooooooooo%%%%%%%%%%%%%%%%%%%%%%%%%%%%%%%%%%%%%%%%%%%%%%%%%%%%%%%%%%%%%%%%%%oooooooooooooooooooooooooooooooooooooooooooooooooooooooooooooooooooooooooooooooooooooooooooooooooooooooooooooooooooooooooooooooooooooooooooooooooooooooooooooooooooooooooooooooooooooooooooooo%%%%%%%%%%%%%%%%%%%%%%%%%%%%%%%%%%%%%%%%%%%=============================================================================================%%%%%%%%%o",
"oooooooooooooooooooooooooooooooo%%%%%%%%%%%%%%%%oooo%%%%%%%%%%%%%%%%%%%%%%%%oooooooooooooooooooooooooooooooooooooooooo%%%%%%%%%%%%%%%%%%%%%%%%%%%%%%%%%%%%%%%%%%o%%ooooooooooooooooooooooooooooooooooooooooooooooooooooooooooooo%%%%%%%%%%%%%%%%%%%%%%%%%%%%%%%%%%%%%%%%%%%%%%%%%%%%%%%%%%%%%%%%%%oooooooooooooooooooooooooooooooooooooooooooooooooooooooooooooooooooooooooooooooooooooooooooooooooooooooooooooooooooooooooooooooooooooooooooooooooooooooooooooooooooooooooooooooooooooooooooooo%%%%%%%%%%%%%%%%%%%%%%%%%%%%%%%%%%%%%%%%%%=============================================================================================%%%%%%%%%%o",
"oooo%%o%ooooo%%%%%%%oooo%ooo%%%%%%%%%%%%%%%%%%==%%%%%%%%%%%%%%%%%%%%%%%%%%%%oooooooooooooooooooooooooooooooooooooooooo%%%%%%%%%%%oooooooooooooooooooooooooooooooo%%ooooooooooooooooooooooooooooooooooooooooooooooooooooooooooooo%%%%%%%%%%%%%%%%%%%%%%%%%%%%%%%%%%%%%%%%%%%%%%%%%%%%%%%%%%%%%%%%%%oooooooooooooooooooooooooooooooooooooooooooooooooooooooooooooooooooooooooooooooooooooooooooooooooooooooooooooooooooooooooooooooooooooooooooooooooooooooooooooooooooooooooooooooooooooooooooooo%%%%%%%%%%%%%%%%%%%%%%%%%%%%%%%%%%%%%%%%%%%=========================:::::=:::::=::::::=====:::========================================%%%%%%%%%%%%",
"%%%%%%%%%%%%%%%%%%%%%%%%%%%%%%%%%%%%%%%%=========%%%%%%%%%%%%%%%%%%%%%%%%%%%oooooooooooooooooooooooooooooooooooooooooo%%%%%%%%%%oooooooo%%ooooooooooooooooooooooo%%ooooooooooooooooooooooooooooooooooooooooooooooooooooooooooooo%%%%%%%%%%%%%%%%%%%%%%%%%%%%%%%%%%%%%%%%%%%%%%%%%%%%%%%%%%%%%%%%%%oooooooooooooooooooooooooooooooooooooooooooooooooooooooooooooooooooooooooooooooooooooooooooooooooooooooooooooooooooooooooooooooooooooooooooooooooooooooooooooooooooooooooooooooooooooooooooooo%%%%%%%%%%%%%%%%%%%%%%%%%%%%%%%%%%%%%%%%%%==========================:::===::::==::::====:==:::======================================%%%%%%%ooooooo",
"%=%%====%%%%%%==%====%%%==%%=%==%%===============%%%%%%%%%%%%%%%%%%%%%%%%%%%oooooooooooooooooooooooooooooooooooooooooo%%%%%%%%%%ooooooooooooooooooooooooooooooooo%%ooooooooooooooooooooooooooooooooooooooooooooooooooooooooooooo%%%%%%%%%%%%%%%%%%%%%%%%%%%%%%%%%%%%%%%%%%%%%%%%%%%%%%%%%%%%%%%%%%oooooooooooooooooooooooooooooooooooooooooooooooooooooooooooooooooooooooooooooooooooooooooooooooooooooooooooooooooooooooooooooooooooooooooooooooooooooooooooooooooooooooooooooooooooooooooooooo%%%%%%%%%%%%%%%%%%%%%%%%%%%%%%%%%%%%%%%=%===========================================================%%%%====%%%%==%%%%======%%%%==%%%%%%%%oooooooo",
"=================================================%%%%%%%%%%%%%%%%%%%%%%%%%%%oooooooooooooooooooooooooooooooooooooooooo%%%%%%%%%%oooooooooooooooooooooooooooooooooooooooooooooooooooooooooooooooooooooooooooooooooooooooooooooooo%%%%%%%%%%%%%%%%%%%%%%%%%%%%%%%%%%%%%%%%%%%%%%%%%%%%%%%%%%%%%%%%%%oooooooooooooooooooooooooooooooooooooooooooooooooooooooooooooooooooooooooooooooooooooooooooooooooooooooooooooooooooooooooooooooooooooooooooooooooooooooooooooooooooooooooooooooooooooooooooooo%%%%%%%%%%%%%%%%%%%%%%%%%%%%%%%%%%%%%%%=============================================================%%%%====%%%%==%%%%======%%%%=%%%%%%%%ooooooooo",
"=================================================%%%%%%%%%%%%%%%%%%%%%%%%%%%oooooooooooooooooooooooooooooooooooooooooo%%%%%%%%%ooooooooooooooooooooooooooooooooooooooooooooooooooooooooooooooooooooooooooooooooooooooooooooooooo%%%%%%%%%%%%%%%%%%%%%%%%%%%%%%%%%%%%%%%%%%%%%%%%%%%%%%%%%%%%%%%%%%oooooooooooooooooooooooooooooooooooooooooooooooooooooooooooooooooooooooooooooooooooooooooooooooooooooooooooooooooooooooooooooooooooooooooooooooooooooooooooooooooooooooooooooooooooooooooooooo%%%%%%%%%%%%%%%%%%%%%%%%%%%%%%%%%%%%%%%%============================%%%%%%%%%===%%%%%%%%=====%%%%%%%%%%%%%%%%%%%%%%%%%%%%%%%%%%%%%%%%%%%%ooooooooo",
"=================================================%%%%%%%%%%%%%%%%%%%%%%%%%%%oooooooooooooooooooooooooooooooooooooooooo%%%%%%%%oooooooooooooooooooooooooooooooooooooooooooooooooooooooooooooooooooooooooooooooooooooooooooooooooo%%%%%%%%%%%%%%%%%%%%%%%%%%%%%%%%%%%%%%%%%%%%%%%%%%%%%%%%%%%%%%%%%%oooooooooooooooooooooooooooooooooooooooooooooooooooooooooooooooooooooooooooooooooooooooooooooooooooooooooooooooooooooooooooooooooooooooooooooooooooooooooooooooooooooooooooooooooooooooooooooo%%%%%%%%%%%%%%%%%%%%%%%%%%%%%%%%%%%%%%%%%======================%%%%%%%%%%%%%%%%%%%%%%%%%%%%%%%%%%%%%%%%%%%%%%%%%%%%%%%%%%%%%%%%%%%%%%%%%%%%%%ooooo",
"======%==%========%==%====%%%%%%=================%%%%%%%%%%%%%%%%%%%%%%%%%%%oooooooooooooooooooooooooooooooooooooooooo%%%%%%%%oooooooooooooooooooooooooooooooooooooooooooooooooooooooooooooooooooooooooooooooooooooooooooooooooo%%%%%%%%%%%%%%%%%%%%%%%%%%%%%%%%%%%%%%%%%%%%%%%%%%%%%%%%%%%%%%%%%ooooooooooooooooooooooooooooooooooooooooooooooooooooooooooooooooooooooooooooooooooooooooooooooooooooooooooooooooooooooooooooooooooooooooooooooooooooooooooooooooooooooooooooooooooooooooooooooo%%%%%%%%%%%%%%%%%%%%%%%%%%%%%%%%%%%%%%%%%%==%%==%%%%====%%==%%%%%%%%%%%%%%%%%%%%%%%%%%%%%%%%%%%%%%%%%%%%%%%%%%%%%%%%%%%%%%%%%%%%%%%%%%%%%%%%%ooooo",
"%%%%%%%%%%%%%%%%%%%%%%%%%%%%%%%%=================%%%%%%%%%%%%%%%%%%%%%%%%%%%oooooooooooooooooooooooooooooooooooooooooo%%%%%%%%oooooooooooooooooooooooooooooooooooooooooooooooooooooooooooooooooooooooooooooooooooooooooooooooooo%%%%%%%%%%%%%%%%%%%%%%%%%%%%%%%%%%%%%%%%%%%%%%%%%%%%%%%%%%%%%%%%oooooooooooooooooooooooooooooooooooooooooooooooooooooooooooooooooooooooooooooooooooooooooooooooooooooooooooooooooooooooooooooooooooooooooooooooooooooooooooooooooooooooooooooooooooooooooooooooo%%%%%%%%%%%%%%%%%%%%%%%%%%%%%%%%%@@@@@@@@@@&&&&&@@@&&&&&@@@@@@@@%%%%%%%%%%%%%%%%%%%%%%%%%%%%%%%%%%%%%%%%%%%%%%%%%%%%%%%%%%%%%%%%%%%%%%%%%%%%%ooooo",
"%%%%%%%%%%%%%%%%%%%%%%%%%%%%%%%=================%%%%%%%%%%%%%%%%%%%%ooooooooooooooooooooooooooooooooooooooooooooooooooooooooooooooooooooooooooooooooooooooooooooooooooooooooooooooooooooooooooooooooooooooooooooooooooooooooooooooooooooooooooooooooooooooooooo%o%%%%%%%%%%%%%oo%%%%%%%o%%%%oooooooooooooooooooooooooooooooooooooooooooooooooooooooooooooooooooooooooooooooooooooooooooooooooooooooooooooooooooooooooooooooooooooooooooooooooooooooooooooooooooooooooooooooooooooooooooooooooooooooooooooooooooooooooooooooooooo@@@@@@@@@@@@@@@@@@@@@@@@@@@@@@@@@@@@%%%%%%%%%%%%%%%%%%%%%%%%%%%%%%%%%%%%%%%%@@@@@@@@@@@@@@@@@@@@%%%%%%%%%%%%%ooooo",
"%%%%%%%%%%%%%%%%%%%%%%%%%%%%%%%=================%%%%%%%%%%%%%%%%%%%%ooooooooooooooooooooooooooooooooooooooooooooooooooooooooooooooooooooooooooooooooooooooooooooooooooooooooooooooooooooooooooooooooooooooooooooooooooooooooooooooooooooooooooooooooooooooooooooooooooooooooooooooooooooooooooooooooooooooooooooooooooooooooooooooooooooooooooooooooooooooooooooooooooooooooooooooooooooooooooooooooooooooooooooooooooooooooooooooooooooooooooooooooooooooooooooooooooooooooooooooooooooooooooooooooooooooooooooooooooooooooooo@@@@@@@@@@@@@@@@@@@@@@@@@@@@@@@@@@@%@%%%%%%%%%%%%%%%%%%%%%%%%%%%%%%%%%%%%oo%@@@@@@@@@@@@@@@@@@@@@%%%%%%%%%%%%%%%%%%",
"%%%%%%%%%%%%%%%%%%%%%%%%%%%%%%%=================%%%%%%%%%%%%%%%%%%%%ooooooooooooooooooooooooooooooooooooooooooooooooooooooooooooooooooooooooooooooooooooooooooooooooooooooooooooooooooooooooooooooooooooooooooooooooooooooooooooooooooooooooooooooooooooooooooooooooooooooooooooooooooooooooooooooooooooooooooooooooooooooooooooooooooooooooooooooooooooooooooooooooooooooooooooooooooooooooooooooooooooooooooooooooooooooooooooooooooooooooooooooooooooooooooooooooooooooooooooooooooooooooooooooooooooooooooooooooooooooooooo@@@@@@@@@@@@@@@@@@@@@@@@@@@@@@@@@@%%%%%oo%%%%%%%%o%oo%%%%%%%%%%%o%%%%%%%%oo@@@@@@@@@@@@@@@@@@@@@@%%%%%%%%%%%%%%%%%%",
"%%%%%%%%%%%%%%%%%%%%%%%%%%%%%%%================%%%%%%%%%%%%%%%%%%%%%ooooooooooooooooooooooooooooooooooooooooooooooooooooooooooooooooooooooooooooooooooooooooooooooooooooooooooooooooooooooooooooooooooooooooooooooooooooooooooooooooooooooooooooooooooooooooooooooooooooooooooooooooooooooooooooooooooooooooooooooooooooooooooooooooooooooooooooooooooooooooooooooooooooooooooooooooooooooooooooooooooooooooooooooooooooooooooooooooooooooooooooooooooooooooooooooooooooooooooooooooooooooooooooooooooooooooooooooooooooooooooo@@@@@@@@@@@@@@@@+@@@@@@@@@@@@@@@@@@@@@@@@@@@@@@@@@@@@@@@@@@@@@@@+%%%%%%%%@@@@@@@@@@@@@@@@@@@@@@@@%%%%%%%%%%%%%%%%%%",
"%%%%%%%%%%%%%%%%%%%%%%%%%%%%%%%%====%%%%%%%===%%%%%%%%%%%%%%%%%%%%ooooooooooooooooooooooooooooooooooooooooooooooooooooooooooooooooooooooooooooooooooooooooooooooooooooooooooooooooooooooooooooooooooooooooooooooooooooooooooooooooooooooooooooooooooooooooooooooooooooooooooooooooooooooooooooooooooooooooooooooooooooooooooooooooooooooooooooooooooooooooooooooooooooooooooooooooooooooooooooooooooooooooooooooooooooooooooooooooooooooooooooooooooooooooooooooooooooooooooooooooooooooooooooooooooooooooooooooooooooooooooooo@@++@++@@@@@@@@@+@@@@@@@@++@@@@+@@@@@@@@+@@@@@@@@@@@+++@@@@@@@@@@@@@@@@@@@@@@@@@@@@@@@@@@@@@@@@@@%%%%%%%%%%%%%%%%%%",
"%%%%%%%%%%%%%%%%%%%%%%%%%%%%%%%%%%%%%%%%%%%%%%%%%%%%%%%%%%%%%%%%%%ooooooooooooooooooooooooooooooooooooooooooooooooooooooooooooooooooooooooooooooooooooooooooooooooooooooooooooooooooooooooooooooooooooooooooooooooooooooooooooooooooooooooooooooooooooooooooooooooooooooooooooooooooooooooooooooooooooooooooooooooooooooooooooooooooooooooooooooooooooooooooooooooooooooooooooooooooooooooooooooooooooooooooooooooooooooooooooooooooooooooooooooooooooooooooooooooooooooooooooooooooooooooooooooooooooooooooooooooooooooooooooo@@@++@@@@@@@@@@@@@@@@@@@@+@@@@++@@@@@@@@@@@@@@@@@@@+++@@@@@@@@@@@@@@@@@@@@@@@@@@@@@@@@@@@@@@@@@@@%%%%%%%%%%%%%%%%%%",
"%%%%%%%%%%%%%%%%%%%%%%%%%%%%%%%%%%%%%%%%%%%%%%%%%%%%%%%%%%%%%%%%%oooooooooooooooooooooooooooooooooooooooooooooooooooooooooooooooooooooooooooooooooooooooooooooooooooooooooooooooooooooooooooooooooooooooooooooooooooooooooooooooooooooooooooooooooooooooooooooooooooooooooooooooooooooooooooooooooooooooooooooooooooooooooooooooooooooooooooooooooooooooooooooooooooooooooooooooooooooooooooooooooooooooooooooooooooooooooooooooooooooooooooooooooooooooooooooooooooooooooooooooooooooooooooooooooooooooooooooooooooooooooooooo@@@@@@@@@@@@@@@@@@@@@@@@@@@@@@@@@@@@@@@@@@@@@@@@@@@@@+@@@@@@@@@@@@@@@@@@@@@@@@@@@@@@@@@@@@@@@@@@@%%%%%%%%%%%%%%%%%%",
"%%%%%%%%%%%%%%%%%%%%%%%%%%%%%%%%%%%%%%%%%%%%%%%%%%%%%%%%%%%%%%%%ooooooooooooooooooooooooooooooooooooooooooooooooooooooooooooooooooooooooooooooooooooooooooooooooooooooooooooooooooooooooooooooooooooooooooooooooooooooooooooooooooooooooooooooooooooooooooooooooooooooooooooooooooooooooooooooooooooooooooooooooooooooooooooooooooooooooooooooooooooooooooooooooooooooooooooooooooooooooooooooooooooooooooooooooooooooooooooooooooooooooooooooooooooooooooooooooooooooooooooooooooooooooooooooooooooooooooooooooooooooooooooooo@@@@@@@@@@@@@@@@@@@@@@@@@@@@@@@@@@@@@@@@@+@@@@@@@@@@@@@@@@@@@@@@@@@@@@@@@@@@@@@@@@@@@@@@@@@@@@@@@%%%%%%%%%%%%%%%%%%",
"%%%%%%%%%%%%%%%%%%%%%%%%%%%%%%%%%%%%%%%%%%%%%%%%%%%%%%%%%%%%%%%%ooooooooooooooooooooooooooooooooooooooooooooooooooooooooooooooooooooooooooooooooooooooooooooooooooooooooooooooooooooooooooooooooooooooooooooooooooooooooooooooooooooooooooooooooooooooooooooooooooooooooooooooooooooooooooooooooooooooooooooooooooooooooooooooooooooooooooooooooooooooooooooooooooooooooooooooooooooooooooooooooooooooooooooooooooooooooooooooooooooooooooooooooooooooooooooooooooooooooooooooooooooooooooooooooooooooooooooooooooooooooooooooo@@@@@@@@@++@@@@@@+@@@+++@@@@@@@@@@@@@@@@@@@@@@+++@@@@@@@@@++@@@@@@@@+@@@@@@@@@@@@@@@@@@@@@@@@@@@@@%%%%%%%%%%%%%%%%%",
"%%%%%%%%%%%%%%%%%%%%%%%%%%%%%%%%%%%%%%%%%%%%%%%%%%%%%%%%%%%%%%%%oooooooooooooooooooooooooooooooooooooooooooooooooooooooooooooooooooooooooooooooooooooooooooooooooooooooooooooooooooooooooooooooooooooooooooooooooooooooooooooooooooooooooooooooooooooooooooooooooooooooooooooooooooooooooooooooooooooooooooooooooooooooooooooooooooooooooooooooooooooooooooooooooooooooooooooooooooooooooooooooo@@@@@@@oooooooooooooooooooooooooooooooooooooooooooooooooooooooooooooooooooooooooooooooooooooooooooooooooooooooooooooooooooooooo@@@@@@@@@+@@@@++@@+@@@@@@@@@@@@@@@++@@@@@@+@@@@@+@@@@@@@@@++@@@@@@@+@@@@@X@@@@@@@@@@@@@@@@@@@@@@@@%%%%%%%%%%%%%%%%%",
"%%%%%%%%%%%%%%%%%%%%%%%%%%%%%%%%%%%ooooooooooooooo%%oooooooooooooooooooooooooooooooooooooooooooooooooooooooooooooooooooooooooooooooooooooooooooooooooooooooooooooooooooooooooooooooooooooooooooooooooooooooooooooooooooooooooooooooooooooooooooooooooooooooooooooooooooooooooooooooooooooooooooooooooooooooooooooooooooooooooooooooooooooooooooooooooooooooooooooooooooooooooooooooooooooooooooo@@@@@@@@@oooooooooooooooooooooooooooooooooooooooooooooooooooooooooooooooooooooooooooooooooooooooooooooooooooooooooooooooooooooo@@@@@@++@+@@@@@@@@@@@@@@@++@@@@@@@@@@@@@@@@@@@@@@@@@@@++@@@@@@@@@XX@+@@@X@XXX@@@@@@@@@@@@@@@@@@@@@%%%%%%%%%%%%%%%%%",
"%%%%%%%%%%%%%%%%%%%%%%%%%%%%%%%%%%ooooooooooooooo%%%oooooooooooooooooooooooooooooooooooooooooooooooooooooooooooooooooooooooooooooooooooooooooooooooooooooooooooooooooooooooooooooooooooooooooooooooooooooooooooooooooooooooooooooooooooooooooooooooooooooooooooooooooooooooooooooooooooooooooooooooooooooooooooooooooooooooooooooooooooooooooooooooooooooooooooooooooooooooooooooooooooooooooooo@@@@@@@@ooooooooooooooooooooooooooooooooooooooooooooooooooooooooooooooooooooooooooooooooooooooooooooooooooooooooooooooooooooooo@@++@++@@@@@@@@@@@@@@@@@@+@@@+++@@@@@@@@@@@@@@@@@@@@@@@@@@@@@@@@@X@@@@@@X@XXX@@@@@@@@@@@@@@@@@@@@@%%%%%%%%%%%%%%%%%",
"%%%%%%%%%%%%%%%%%%%%%%%%%%%%%%%%%%ooooooooooooooooooooooooooooooooooooooooooooooooooooooooooooooooooooooooooooooooooooooooooooooooooooooooooooooooooooooooooooooooooooooooooooooooooooooooooooooooooooooooooooooooooooooooooooooooooooooooooooooooooooooooooooooooooooooooooooooooooooooooooooooooooooooooooooooooooooooooooooooooooooooooooooooooooooooooooooooooooooooooooooooooooooooooooooooo@@@@oooooooooooooooooooooooooooooooooooooooooooooooooooooooooooooooooooooooooooooooooooooooooooooooooooooooooooooooooooooooooo@@@@@@@@@@@@@@@@@@@@@@@@@@@@@++@@@@@@@@@@@@@@@@@@@@@@@@@@@@@@@@@@XX@@@@XX@@@@@@@@@@@@@@@@@@@@@@@@@%%%%%%%%%%%%%%%%%",
"%%%%%%%%%%%%%%%%%%%%%%%%%%%%%%%%%%%oooooooooooooooooooooooooooooooooooooooooooooooooooooooooooooooooooooooooooooooooooooooooooooooooooooooooooooooooooooooooooooooooooooooooooooooooooooooooooooooooooooooooooooooooooooooooooooooooooooooooooooooooooooooooooooooooooooooooooooooooooooooooooooooooooooooooooooooooooooooooooooooooooooooooooooooooooooooooooooooooooooooooooooooooooooooooooooooooooooooooooooooooooooooooooooooooooooooooooooooooooooooooooooooooooooooooooooooooooooooooooooooooooooooooooooooooooooooooooo@@@@@@@@@@@@@@@@@+@@@@@@@@@@@@+@@@@@@@@@@@@@@@@+@@@@@@@@@@@@@@@@@@@@@@@@@@@@@@@XXXXX@@@@@@@@@@@@@@@%%%%%%%%%%%%%%%%",
"%%%%%%%%%%%%%%%%%%%%%%%%%%%%%%%%%%%%%%%%%%%%%%%%%%%%%%%%%%%%%%%%ooooooooooooooooooooooooooooooooooooooooooooooooooooooooooooooooooooooooooooooooooooooooooooooooooooooooooooooooooooooooooooooooooooooooooooooooooooooooooooooooooooooooooooooooooooooooooooooooooooooooooooooooooooooooooooooooooooooooooooooooooooooooooooooooooooooooooooooooooooooooooooooooooooooooooooooooooooooooooooooooooooooooooooooooooooooooooooooooooooooooooooooooooooooooooooooooooooooooooooooooooooooooooooooooooooooooooooooooooooooooooooooo@@@++@@@@++@@+@@@+@@@@++@@@@@@@@@@@@+@@@@@@@@@@++@@@@@@@@@@@@@@@@XXX@@@@XXXXXXXXXXXX@@@@#@@@@@@@@@@@%%%%%%%%%%%%%%%",
"%%%%%%%%%%%%%%%%%%%%%%%%%%%%%%%%%%%%%%%%%%%%%%%%%%%%%%%%%%%%%%%%ooooooooooooooooooooooooooooooooooooooooooooooooooooooooooooooooooooooooooooooooooooooooooooooooooooooooooooooooooooooooooooooooooooooooooooooooooooooooooooooooooooooooooooooooooooooooooooooooooooooooooooooooooooooooooooooooooooooooooooooooooooooooooooooooooooooooooooooooooooooooooooooooooooooooooooooooooooooooooooooooooooooooooooooooooooooooooooooooooooooooooooooooooooooooooooooooooooooooooooooooooooooooooooooooooooooooooooooooooooooooooooooo@@@@++@@@@@@@+++@++@@@@+@@@@@@@@@@+++@@@@@@@@@@@@@@@@@@@@@+++@@@@XXX@XXXXXXXXXXXXXXX@@@@#X@@@@@@@@@@%%%%%%%%%%%%%%%",
"%%%%%%%%%%%%%%%%%%%%%%%%%%%%%%%%%%%%%%%%%%%%%%%%%%%%%%%%%%%%%%%%ooooooooooooooooooooooooooooooooooooooooooooooooooooooooooooooooooooooooooooooooooooooooooooooooooooooooooooooooooooooooooooooooooooooooooooooooooooooooooooooooooooooooooooooooooooooooooooooooooooooooooooooooooooooooooooooooooooooooooooooooooooooooooooooooooooooooooooooooooooooooooooooooooooooooooooooooooooooooooooooooooooooooooooooooooooooooooooooooooooooooooooooooooooooooooooooooooooooooooooooooooooooooooooooooooooooooooooooooooooooooooooooo@@@@@@@@@@@@@@@@@@@@@++@@@@@@@@@@XX@@@XXXXXXXXX@@@@XXXXXXXXXXXX@@XXXXXXXXXXXXXXXXXXX@@@@@@@@##@@@@@@%%%%%%%%%%%%%oo",
"%%%%%%%%%%%%%%%%%%%%%%%%%%%%%%%%%%%%%%%%%%%%%%%%%%%%%%%%%%%%%%%%ooooooooooooooooooooooooooooooooooooooooooooooooooooooooooooooooooooooooooooooooooooooooooooooooooooooooooooooooooooooooooooooooooooooooooooooooooooooooooooooooooooooooooooooooooooooooooooooooooooooooooooooooooooooooooooooooooooooooooooooooooooooooooooooooooooooooooooooooooooooooooooooooooooooooooooooooooooooooooooooooooooooooooooooooooooooooooooooooooooooooooooooooooooooooooooooooooooooooooooooooooooooooooooooooooooooooooooooooooooooooooooooo@@@@@@@@@@@@@@@@@+@@@@+@@@@@@@@@@XXXX@XXXXXXX@X@@XXXXX@@XXXXX@X@@XXXXXXXXXXXXXXXXXXX@@@@@@@@@##@@@@@%%%%%%%%%%%%%%o",
"%%%%%%%%%%%%%%%%%%%%%%%%%%%%%%%%%%%%%%%%%%%%%%%%%%%%%%%%%%%%%%%%ooooooooooooooooooooooooooooooooooooooooooooooooooooooooooooooooooooooooooooooooooooooooooooooooooooooooooooooooooooooooooooooooooooooooooooooooooooooooooooooooooooooooooooooooooooooooooooooooooooooooooooooooooooooooooooooooooooooooooooooooooooooooooooooooooooooooooooooooooooooooooooooooooooooooooooooooooooooooooooooooooooooooooooooooooooooooooooooooooooooooooooooooooooooooooooooooooooooooooooooooooooooooooooooooooooooooooooooooooooooooooooooo@+@@@@++@@@@@@@++++@@@@@@@@@@@@@@@@@@@@@@@@@+@@@@@@@@@@@@@@@+@@@@XX@@@@X@XX@@X@X@@@@@@@@@@@@@@@@@@@%%%%%%%%%%%%%%%%",
"%%%%%%%%%%%%%%%%%%%%%%%%%%%%%%%%%%%%%%%%%%%%%%%%%%%%%%%%%%%%%%%oooooooooooooooooooooooooooooooooooooooooooooooooooooooooooooooooooooooooooooooooooooooooooooooooooooooooooooooooooooooooooooooooooooooooooooooooooooooooooooooooooooooooooooooooooooooooooooooooooooooooooooooooooooooooooooooooooooooooooooooooooooooooooooooooooooooooooooooooooooooooooooooooooooooooooooooooooooooooooooooooooooooooooooooooooooooooooooooooooooooooooooooooooooooooooooooooooooooooooooooooooooooooooooooooooooooooooooooooooooooooooooooo@+@@@@@++@++@@@@@@@@@@@@@@@++@@@@@@@@@@@@@@@@@@@@@@@@@@@@@@@@@@@@XX@@@@XXXX@@@@X@@@@@@@@@@@@@@@@@@%%%%%%%%%%%%%%%%%",
"%%%%%%%%%%%%%%%%%%%%%%%%%%%%%%%%%%%%%%%%%%%%%%%%%%%%%%%%%%%%%%%oooooooooooooooooooooooooooooooooooooooooooooooooooooooooooooooooooooooooooooooooooooooooooooooooooooooooooooooooooooooooooooooooooooooooooooooooooooooooooooooooooooooooooooooooooooooooooooooooooooooooooooooooooooooooooooooooooooooooooooooooooooooooooooooooooooooooooooooooooooooooooooooooooooooooooooooooooooooooooooooooo%%%%%ooooooooooooooooooooooooooooooooooooooooooooooooooooooooooooooooooooooooooooooooooooooooooooooooooooooooooooooooooooooooo@@@@@@@@@@@+++@@@@@@@@@@@@++@@+++@++@@@@@@@@+@@@@@@++@@@@@@@+@@@@@@@@@@XX@@@@@@@@@@@@@@@@@@@@@@@@@%%%%%%%%%%%%%%%%%",
"%%%%%%%%%%%%%%%%%%%%%%%%%%%%%%%%%%%%%%%%%%%%%%%%%%%%%%%%%%%%%%%oooooooooooooooooooooooooooooooooooooooooooooooooooooooooooooooooooooooooooooooooooooooooooooooooooooooooooooooooooooooooooooooooooooooooooooooooooooooooooooooooooooooooooooooooooooooooooooooooooooooooooooooooooooooooooooooooooooooooooooooooooooooooooooooooooooooooooooooooooooooooooooooooooooooooooooooooooooooooooooooooo%%%%%ooooooooooooooooooooooooooooooooooooooooooooooooooooooooooooooooooooooooooooooooooooooooooooooooooooooooooooooooooooooooo@@@@@@@@@@@+@@@@@@@@@@@@@@+@@@@++@++@@@@@@@+@@@@@@@+@@@@@@@+@@@@@@@@@@XX@@@@@@@@@@@@@@@@@@@@@@@@@@%%%%%%%%%%%%%%%%%",
"%%%%%%%%%%%%%%%%%%%%%%%%%%%%%%%%%%%%%%%%%%%%%%%%%%%%%%%%%%%%%%%oooooooooooooooooooooooooooooooooooooooooooooooooooooooooooooooooooooooooooooooooooooooooooooooooooooooooooooooooooooooooooooooooooooooooooooooooooooooooooooooooooooooooooooooooooooooooooooooooooooooooooooooooooooooooooooooooooooooooooooooooooooooooooooooooooooooooooooooooooooooooooooooooooooooooooooooooooooooooooooooooo%%%%%ooooooooooooooooooooooooooooooooooooooooooooooooooooooooooooooooooooooooooooooooooooooooooooooooooooooooooooooooooooooooo@@@++@@@@@@@@@@@@+@@@++@@@@@@@@@@@@@@@@@@@@@@@@@@@@@@@@@@@@@@@@@@@@@@X@@@X@@@@@@@@@@@@@@@@@@@@@@@@%%%%%%%%%%%%%%%%%",
"%%%%%%%%%%%%%%%%%%%%%%%%%%%%%%%%%%%%%%%%%%%%%%%%%%%%%%%%%%%%%%%oooooooooooooooooooooooooooooooooooooooooooooooooooooooooooooooooooooooooooooooooooooooooooooooooooooooooooooooooooooooooooooooooooooooooooooooooooooooooooooooooooooooooooooooooooooooooooooooooooooooooooooooooooooooooooooooooooooooooooooooooooooooooooooooooooooooooooooooooooooooooooooooooooooooooooooooooooooooooooooooooooooooooooooooooooooooooooooooooooooooooooooooooooooooooooooooooooooooooooooooooooooooooooooooooooooooooooooooooooooooooooooooo@@++@@@@+@@@@@@@@+@@@+@@@@@@@@@@@@@@@@@@@@@@@@@@@@@@@@@@@@@@@@@@@@@@@@@@@@@@@@@@@@@@@@@@@@@@@@@@@@%%%%%%%%%%%%%%%%%",
"%%%%%%%%%%%%%%%%%%%%%%%%%%%%%%%%%%%%%%%%%%%%%%oo%%%%%%%%oo%%%%%oooooooooooooooooooooooooooooooooooooooooooooooooooooooooooooooooooooooooooooooooooooooooooooooooooooooooooooooooooooooooooooooooooooooooooooooooooooooooooooooooooooooooooooooooooooooooooooooooooooooooooooooooooooooooooooooooooooooooooooooooooooooooooooooooooooooooooooooooooooooooooooooooooooooooooooooooooooooooooooooooooooooooooooooooooooooooooooooooooooooooooooooooooooooooooooooooooooooooooooooooooooooooooooooooooooooooooooooooooooooooooooooo@@@@@@@++@@@@@@@@+@@@@+@@@@@@@@@@@@@@@@@@@@@@@@@@@@@@@@@@@@@@@@@@@@@@@@@@%%%%%@@@@@@@%%%%%%%%%%%%%%%%%%%%%%%%%%%%%%",
"%%%%%%%%%%%%%%%%%%%%%%%%%%%%%%%%%oooooooooooooooooooooooooooooooooooooooooooooooooooooooooooooooooooooooooooooooooooooooooooooooooooooooooooooooooooooooooooooooooooooooooooooooooooooooooooooooooooooooooooooooooooooooooooooooooooooooooooooooooooooooooooooooooooooooooooooooooooooooooooooooooooooooooooooooooooooooooooooooooooooooooooooooooooooooooooooooooooooooooooooooooooooooooooooooooooooooooooooooooooooooooooooooooooooooooooooooooooooooooooooooooooooooooooooooooooooooooooooooooooooooooooooooooooooooooooooo@@@@@@@@@@@@@@@@@@@@@++@@@@@@@@@@@@@@@@@@@@@@@@@@@@@@@@@@@@@@@@@@@@@@%%%%%%%%%%%%%%%%%%%%%%%%%%%%%%%%%%%%%%%%%%%%%%",
"%%%%%%%%%%%%%%%%%%%%%%%%%%%%%%%%%oooooooooooooooooooooooooooooooooooooooooooooooooooooooooooooooooooooooooooooooooooooooooooooooooooooooooooooooooooooooooooooooooooooooooooooooooooooooooooooooooooooooooooooooooooooooooooooooooooooooooooooooooooooooooooooooooooooooooooooooooooooooooooooooooooooooooooooooooooooooooooooooooooooooooooooooooooooooooooooooooooooooooooooooooooooooooooooooooooooooooooooooooooooooooooooooooooooooooooooooooooooooooooooooooooooooooooooooooooooooooooooooooooooooooooooooooooooooooooooo@@@@@@@@@@@@@@@@@@@@@@@@@@@@@@@@@@@@@%%%%%%%%%%%%%@++%%%%%%%%%%%%@@@@%%%%%%%%%%%%%%%%%%%%%%%%%%%%%%%%%%%%%%%%%%%%%%",
"%%%%%%%%%%%%%%%%%%%%%%%%%%%%%%%%%oooooooooooooooooooooooooooooooooooooooooooooooooooooooooooooooooooooooooooooooooooooooooooooooooooooooooooooooooooooooooooooooooooooooooooooooooooooooooooooooooooooooooooooooooooooooooooooooooooooooooooooooooooooooooooooooooooooooooooooooooooooooooooooooooooooooooooooooooooooooooooooooooooooooooooooooooooooooooooooooooooooooooooooooooooooooooooooooooooooooooooooooooooooooooooooooooooooooooooooooooooooooooooooooooooooooooooooooooooooooooooooooooooooooooooooooooooooooooooooo@@@@@@@@@+@@@@@@@@@@@@@@@@@@@@@@@@+++%%%%%%%%%%%%%@++%%%%%%%%%%%%@@%%%%%%%%%%%%%%%%%%%%%%%%%%%%%%%%%%%%%%%%%%%%%%%%",
"%%%%%%%%%%%%%%%%%%%%%%%%%%%%%%%%%oooooooooooooooooooooooooooooooooooooooooooooooooooooooooooooooooooooooooooooooooooooooooooooooooooooooooooooooooooooooooooooooooooooooooooooooooooooooooooooooooooooooooooooooooooooooooooooooooooooooooooooooooooooooooooooooooooooooooooooooooooooooooooooooooooooooooooooooooooooooooooooooooooooooooooooooooooooooooooooooooooooooooooooooooooooooooooooooooooooooooooooooooooooooooooooooooooooooooooooooooooooooooooooooooooooooooooooooooooooooooooooooooooooooooooooooooooooooooooooo@@@@@@@@@@@@@@@@@@@@@@@++@@@@@@@%@%%%%%%%%%%%%%%%%%%%%%%%%%%%%%%%%%%%%%%%%%%%%%%%%%%%%%%%%%%%%%%%%%%%%%%%%%%%%%%%%%",
"%%%%%%%%%%%%%%%%%%%%%%%%%%%%%%%oooooooooooooooooooooooooooooooooooooooooooooooooooooooooooooooooooooooooooooooooooooooooooooooooooooooooooooooooooooooooooooooooooooooooooooooooooooooooooooooooooooooooooooooooooooooooooooooooooooooooooooooooooooooooooooooooooooooooooooooooooooooooooooooooooooooooooooooooooooooooooooooooooooooooooooooooooooooooooooooooooooooooooooooooooooooooooooooooooooooooooooooooooooooooooooooooooooooooooooooooooooooooooooooooooooooooooooooooooooooooooooooooooooooooooooooooooooooooooooooo@@@@@@@@@+@@@@@@@@@@@@@@+@@@@@%%%@%%%%%%%%%%%%%%%%%%%%%%%%%%%%%%%%%%%%%%%%%%%%%%%%%%%%%%%%%%%%%%%%%%%%%%%%%%%%%%%%%",
"%%%%%%%%%%%%%%%%%%%%%%%%%%%%%%%ooooooooooooooooooooooooooooooooooooooooooooooooooooooooooooooooooooooooooooooooooooooooooooooooooooooooooooooooooooooooooooooooooooooooooooooooooooooooooooooooooooooooooooooooooooooooooooooooooooooooooooooooooooooooooooooooooooooooooooooooooooooooooooooooooooooooooooooooooooooooooooooooooooooooooooooooooooooooooooooooooooooooooooooooooooooooooooooooooooooooooooooooooooooooooooooooooooooooooooooooooooooooooooooooooooooooooooooooooooooooooooooooooooooooooooooooooooooooooooooooo@@@@@@@@@@@@@@@@@@@@@@@@@@@@@@%%%%%%%%%%%%%%%%%%%%%%%%%%%%%%%%%%%%%%%%%%%%%%%%%%%%%%%%%%%%%%%%%%%%%%%%%%%%%%%%%%%%",
"%%%%%%%%%%%%%%%%%%%%%%%%%%%%%%%oooooooooooooooooooooooooooooooooooooooooooooooooooooooooooooooooooooooooooooooooooooooooooooooooooooooooooooooooooooooooooooooooooooooooooooooooooooooooooooooooooooooooooooooooooooooooooooooooooooooooooooooooooooooooooooooooooooooooooooooooooooooooooooooooooooooooooooooooooooooooooooooooooooooooooooooooooooooooooooooooooooooooooooooooooooooooooooooooooooooooooooooooooooooooooooooooooooooooooooooooooooooooooooooooooooooooooooooooooooooooooooooooooooooooooooooooooooooooooooooooo%%%%%@@@@@@%%%%%%@@@@@@%%%%%%%ooo%%%%%%%%%%%%%%%%%%%%%%%%%%%%%%%%%%%%%%%%%%%%%%%%%%%%%%%%%%%%%%oooooooooooooooooo",
"%%%%%%%%%%%%%%%%%%%%%%%%%%%%%%%ooooooooooooooooooooooooooooooooooooooooooooooooooooooooooooooooooooooooooooooooooooooooooooooooooooooooooooooooooooooooooooooooooooooooooooooooooooooooooooooooooooooooooooooooo%%%oooooooooooooooooooooooooooooooooooooooooooooooooooooooooooooooooooooooooooooooooooooooooooooooooooooooooooooooooooooooooooooooooooooooooooooooooooooooooooooooooooooooooooooooooooooooooooooooooooooooooooooooooooooooooooooooooooooooooooooooooooooooooooooooooooooooooooooooooooooooooooooooooooooooooooooo%%%%%%%%%%%%%%%%%%%%%%%%%%%%%%o%ooooooooooooooooooooooooooooooo%%%%ooooooo%%%%%%%%%%%%%%%%%%%%%oooooooooooooooooo",
"%%%%%%%%%%%%%%%%%%%%%%%%%%%%%%%ooooooooooooooooooooooooooooooooooooooooooooooooooooooooooooooooooooooooooooooooooooooooooooooooooooooooooooooooooooooooooooooooo@@@@@@@@@@@@@@@@@@@@@@@@@@@@@@oooo%%%%%%%%%%%%%%%%%%%%%%%%%%%%%ooooooooooooooooooooooooooooooooooooooooooooooooooooooooooooooooooooooooooooooooooooooooooooooooooooooooooooooooooooooooooooooooooooooooooooooooooooooooooooooooooooooooooooooooooooooooooooooooooooooooooooooooooooooooooooooooooooooooooooooooooooooooooooooooooooooooooooooooooooo%%%%%%oooo%%%%%%%%%%%%%%%%%%%%%%%%%%%%%%%%%%oooooooooooooooooooooooooooooooo%%%%oooooooo%%%%%%%%%%%%%%%%%%%%oooooooooooooooooo",
"%%%%%%%%%%%%%%%%%%%%%%%%%%%%%%%oooooooooooooooooooooooooooooooooooooooooooooooooooooooooooooooooooooooooooooooooooooooooooooooooooooooooooooooooooooooooooooooo@@@@@@@@@@@@@@@@@@@@@@@@@@@@@@@@o%%%%%%%%%%%%%%%%%%%%%%%%%%%%%%%%oooooooooooooooooooooooooooooooooooooooooooooooooooooooooooooooooooooooooooooooooooooooooooooooooooooooooooooooooooooooooooooooooooooooooooooooooooooooooooooooooooooooooooooooooooooooooooooooooooooooooooooooooooooooooooooooooooooooooooooooooooooooooooooooooooooooooooooo%%%%%%%%%%%%%%%%%%%%%%%%%%%%%%%%%%%%%%%%%%%%%%%%%%oooooooooooooooooooooooooooooooooo%%oooooooooooooooooooooooooooooooooooooooooooooo",
"%%%%%%%%%%%%%%%%%%%%%%%%%%%%%%%oooooooooooooooooooooooooooooooooooooooooooooooooooooooooooooooooooooooooooooooooooooooooooooooooooooooooooooooooooooooooooooooo@@@@@@@@@@@@@@@@@@@@@@@@@@@@@@@@o%%%%%%%%%%%%%%%%%%%%%%%%%%%%%%%%ooooooooooooooooooooooooooooooooooooooooooooooooooooooooooooooooooooooooooooooooooooooooooooooooooooooooooooooooooooooooooooooooooooooooooooooooooooooooooooooooooooooooooooooooooooooooooooooooooooooooooooooooooooooooooooooooooooooooooooooooooooooooooooooooooooooooo%%%%%%%%%%%%%%%%%%%%%%%%%%%%%%%%%%%%%%%%%%%%%%%%%%%%%%%oooooooooooooooooooooooooooooooooo%%oooooooooooooooooooooooooooooooooooooooooooooo",
"%%%%%%%%%%%%%%%%%%%%%%%%%%%%%%%oooooooooooooooooooooooooooooooooooooooooooooooooooooooooooooooooooooooooooooooooooooooooooooooooooooooooooooooooooooooooooooooo@@@@@@@@@@@@@@@@@@@@@@@@@@@@@@@@o%%%%%%%%%%%%%%%%%%%%%%%%%%%%%%%%ooooooooooooooooooooooooooooooooooooooooooooooooooooooooooooooooooooooooooooooooooooooooooooooooooooooooooooooooooooooooooooooooooooooooooooooooooooooooooooooooooooooooooooooooooooooooooooooooooooooooooooooooooooooooooooooooooooooooooooooooooooooooooooooooooooooooo%%%%%%%%%%===%%%%%%%%%%=%%%%%%%%%%%%%%%%%%%%%%%%%%%%%%%oooooooooooooooooooooooooooooooooooooooooooooooooooooooooooooooooooooooooooooooooo",
"%%%%%%%%%%%%%%%%%%%%%%%%%%%%%%%oooooooooooooooooooooooooooooooooooooooooooooooooooooooooooooooooooooooooooooooooooooooooooooooooooooooooooooooooooooooooooooooo@@@@@@@@@@@@@@@@@@@@@@@@@@@@@@@@o%%%%%%%%%%%%%%%%%%%%%%%%%%%%%%%%ooooooooooooooooooooooooooooooooooooooooooooooooooooooooooooooooooooooooooooooooooooooooooooooooooooooooooooooooooooooooooooooooooooooooooooooooooooooooooooooooooooooooooooooooooooooooooooooooooooooooooooooooooooooooooooooooooooooooooooooooooooooooooooooooooooooooo%%%%%%%%%%%==%%%%%=%%=%=%%%%%%%%%%%%%%%%%%%%%%%%%%%%%%%oooooooooooooooooooooooooooooooooooooooooooooooooooooooooooooooooooooooooooooooooo",
"%%%%%%%%%%%%%%%%%%%%%%%%%%%%%%%ooooooooooooooooooooooooooooooooooooooooooooooooooooooooooooooooooooooooooooooooooooooooooooooooooooooooooooooooooooooooooooooooo@@@@@@@@@@@@@@@@@@@@@@@@@@@@@@oo%%%%%%%%%%%%%%%%%%%%%%%%%%%%%%%%oooooooooooooooooooooooooooooooooooooooooooooooooooooooooooooooooooooooooooooooooooooooooooooooooooooooooooooooooooooooooooooooooooooooooooooooooooooooooooooooooooooooooooooooooooooooooooooooooooooooooooooooooooooooooooooooooooooooooooooooooooooooooooooooooooooooo%%%%%%%%%%%%============%%%%%%%%%%%%%%%%%%%%%%%%%%%%%%%%oooooooooooooooooooooooooooooooooooooooooooooooooooooooooooooooooooooooooooooooooo",
"%%%%%%%%%%%%%%%%%%%%%%%%%%%%%%%ooooooooooooooooooooooooooooooooooooooooooooooooooooooooooooooooooooooooooooooooooooooooooooooooooooooooooooooooooooooooooooooooooooooooooooooooooooooooooooooooo%%%%%%%%%%%%%%%%%%%%%%%%%%%%%%%%oooooooooooooooooooooooooooooooooooooooooooooooooooooooooooooooooooooooooooooooooooooooooooooooooooooooooooooooooooooooooooooooooooooooooooooooooooooooooooooooooooooooooooooooooooooooooooooooooooooooooooooooooooooooooooooooooooooooooooooooooooooooooooooooooooooooo%%%%%%%%%%%%%%%%%%====%%%%%%%%%%%%%%%%%%%%%%%%%%%%%%%%%%oooooooooooooooooooooooooooooooooooooooooooooooooooooooooooooooooooooooooooooooooo",
"%%%%%%%%%%%%%%%%%%%%%%%%%%%%%%%ooooooooooooooooooooooooooooooooooooooooooooooooooooooooooooooooooooooooooooooooooooooooooooooooooooooooooooooooooooooooooooooooooooooooooooooooooooooooooooooooo%%%%%%%%%%%%%%%%%%%%%%%%%%%%%%%%ooooooooooooooooooooooooooooooooooooooooooooooooooooooooooooooooooooooooooooooooooooooooooooooooooooooooooooooooooooooooooooooooooooooooooooooooooooooooooooooooooooooooooooooooooooooooooooooooooooooooooooooooooooooooooooooooooooooooooooooooooooooooooooooooooooooooooooo%%%%%%%%%%%%%%%%%%%%%%%%%%%%%%%%%%%%%%%%%%%%%%%%%%%oooooooooooooooooooooooooooooooooooooooooooooooooooooooooooooooooooooooooooooooooo",
"%%%%%%%%%%%%%%%%%%%%%%%%%%%%%%%%%%%%%%%%oo%%%%%%%%%%%%%%%%%%%%%ooooooooooooooooooooooooooooooooooooooooooooooooooooooooooooooooooooooooooooooooooooooooooooooooooooooooooooooooooooooooooooooooo%%%%%%%%%%%%%%%%%%%%%%%%%%%%%%%%oooooooooooooooooooooooooooooooooooooooooooooooooooooooooooooooooooooooooooooooooooooooooooooooooooooooooooooooooooooooooooooooooooooooooooooooooooooooooooooooo@@@@@@@@@@@@@@@@@@@@@@@@@@@@@@@@oooooooooooooooooooooooooooooooooooooooooooooooooooooooooooooooooooooooooooooo%%%%%%%%%%%%%%%%%%%%%%%%%%%%%%%%%%%%%%%%%%%%%%%%%%oooooooooooooooooooooooooooooooooooooooooooooooooooooooooooooooooooooooooooooooooo",
"%%%%%%o%%%%%%%%%%%%o%%%%%%%%%%%%%%%%%%%%%%%%%%%%%%%%%%%%%%%%%%%ooooooooooooooooooooooooooooooooooooooooooooooooooooooooooooooooooooooooooooooooooooooooooooooooooooooooooooooooooooooooooooooooo%%%%%%%%%%%%%%%%%%%%%%%%%%%%%%%%oooooooooooooooooooooooooooooooooooooooooooooooooooooooooooooooooooooooooooooooooooooooooooooooooooooooooooooooooooooooooooooooooooooooooooooooooooooooooooooooo@@@@@@@@@@@@@@@@@@@@@@@@@@@@@oooooooooooooooooooooooooooooooooooooooooooooooooooooooooooooooooooooooooooooooooooooooooo%%%%%%%%%%%%%%%%%%%%%%%%%%%%%%%%%%%%%%%%%oooooooooooooooooooooooooooooooooooooooooooooooooooooooooooooooooooooooooooooooooo",
"ooooooooooooooooooooooooooooooooo%%%%%%%%%%%%%%%%%%%%%%%%%%%%%%ooooooooooooooooooooooooooooooooooooooooooooooooooooooooooooooooooooooooooooooooooooooooooooooooooooooooooooooooooooooooooooooooo%%%%%%%%%%%%%%%%%%%%%%%%%%%%%%%%oooooooooooooooooooooooooooooooooooooooooooooooooooooooooooooooooooooooooooooooooooooooooooooooooooooooooooooooooooooooooooooooooooooooooooooooooooooooooooooooo@@@@@@@@@@@@@@@@@@@@@@@@@@@@@oooooooooooooooooooooooooooooooooooooooooooooooooooooooooooooooooooooooooooooooooooooooooo%%%%%%%%%%%%%%%%%%%%%%%%%%%%%%%%%%%%%%%%%oooooooooooooooooooooooooooooooooooooooooooooooooooooooooooooooooooooooooooooooooo",
"ooooooooooooooooooooooooooooooooo%%%%%%%%%%%%%%%%%%%%%%%%%%%%%%ooooooooooooooooooooooooooooooooooooooooooooooooooooooooooooooooooooooooooooooooooooooooooooooooooooooooooooooooooooooooooooooooo%%%%%%%%%%%%%%%%%%%%%%%%%%%%%%%%oooooooooooooooooooooooooooooooooooooooooooooooooooooooooooooooooooooooooooooooooooooooooooooooooooooooooooooooooooooooooooooooooooooooooooooooooooooooooooooooo@@@@@@@@@@@@@@@@@@@@@@@@@@@@@ooooooooooooooooooooooooooooooooooooooooooooooooooooooooooooooooooooooooooooooooooo%%%%%%%%%%%%%%%%%%%%%%%%%%%%%%%%%%%%%%%%%%%%%%%%oooooooooooooooooooooooooooooooooooooooooooooooooooooooooooooooooooooooooooooooooo",
"ooooooooooooooooooooooooooooooooo%%%%%%%%%%%%%%%%%%%%%%%%%%%%%%ooooooooooooooooooooooooooooooooooo@@@@@@@@@@@@@@@@@@@@@@@@@@@@@@oooooooooooooooooooooooooooooooooooooooooooooooooooooooooooooooo%%%%%%%%%%%%%%%%%%%%%%%%%%%%%%%%oooooooooooooooooooooooooooooooooooooooooooooooooooooooooooooooooooooooooooooooooooooooooooooooooooooooooooooooooooooooooooooooooooooooooooooooooooooooooooooooo@@@@@@@@@@@@@@@@@@@@@@@@@@@@@oooooooooooooooooooooooooooooooooooooooooooooooooooooooooooooooooooooooooooooooooo%%%%%%%%%%%%%%%%%%%%%%%%%%%%%%%%%%%%%%%%%%%%%%%%%oooooooooooooooooooooooooooooooooooooooooooooooooooooooooooooooooooooooooooooooooo",
"ooooooooooooooooooooooooooooooooo%%%%%%%%%%%%%%%%%%%%%%%%%%%%%%oooooooooooooooooooooooooooooooooo@@@@@@@@@@@@@@@@@@@@@@@@@@@@@@@@ooooooooooooooooooooooooooooooooooooooooooooooooooooooooooooooo%%%%%%%%%%%%%%%%%%%%%%%%%%%%%%%%oooooooooooooooooooooooooooooooooooooooooooooooooooooooooooooooooooooooooooooooooooooooooooooooooooooooooooooooooooooooooooooooooooooooooooooooooooooooooooooooooooooooooooooooooooooooooooooooooooooooooooooooooooooooooooooooooooooooooooooooooooooooooooooooooooooooooo%%%%%%%%%%%%%%%%%%%%%%%%%%%%%%%%%%%%%%%%%%%%%%%%%%%%%%oooooooooooooooooooooooooooooooooooooooooooooooooooooooooooooooooooooooooooooooooo",
"ooooooooooooooooooooooooooooooooo%%%%%%%%%%%%%%%%%%%%%%%%%%%%%%oooooooooooooooooooooooooooooooooo@@@@@@@@@@@@@@@@@@@@@@@@@@@@@@@@ooooooooooooooooooooooooooooooooooooooooooooooooooooooooooooooo%%%%%%%%%%%%%%%%%%%%%%%%%%%%%%%%ooooooooooooooooooooooooooooooooooooooooooooooooooooooooooooooooooooooooooooooooooooooooooooooooooooooooooooooooooooooooooooooooooooooooooooooooooooooooooooooooooooooooooooooooooooooooooooooooooooooooooooooooooooooooooooooooooooooooooooooooooooooooooooooooooooooooo%%%%%%%%%%%===%%%=====%%%%%%%%%%%%%%%%%%%%%%%%%%%%%%%%%oooooooooooooooooooooooooooooooooooooooooooooooooooooooooooooooooooooooooooooooooo",
"ooooooooooooooooooooooooooooooooo%%%%%%%%%%%%%%%%%%%%%%%%%%%%%%oooooooooooooooooooooooooooooooooo@@@@@@@@@@@@@@@@@@@@@@@@@@@@@@@oooooooooooooooooooooooooooooooooooooooooooooooooooooooooooooooo%%%%%%%%%%%%%%%%%%%%%%%%%%%%%%%%oooooooooooooooooooooooooooooooooooooooooooooooooooooooooooooooooooooooooooooooooooooooooooooooooooooooooooooooooooooooooooooooooooooooooooooooooooooooooooooooooooooooooooooooooooooooooooooooooooooooooooooooooooooooooooooooooooooooooooooooooooooooooooooooooooooo%%%%%%%%%%%===============%%%%%%%%%%%%%%%%%%%%%%%%%%%%%%%%oooooooooooooooooooooooooooooooooooooooooooooooooooooooooooooooooooooooooooooooooo",
"%%%%%%%%%%%%%%%%%%%%%%%%%%%%%%%%%%%%%%%%%%%%%%%%%%%%%%%%%%%%%%%%oo%%%%%%%%%%%%%%%%%%%%%%%%%%%%%oo@@@@@@@@@@@@@@@@@@@@@@@@@@@@@@ooooooooooooooooooooooooooooooooooooooooooooooooooooooooooooooooo%%%%%%%%%%%%%%%%%%%%%%%%%%%%%%%%oooooooooooooooooooooooooooooooooooooooooooooooooooooooooooooooooooooooooooooooooooooooooooooooooooooooooooooooooooooooooooooooooooooooooooooooooooooooooooooooooooooooooooooooooooooooooooooooooooooooooooooooooooooooooooooooooooooooooooooooooooooooooooooooooooooo%%%%%%%%%=================%%%%%%%%%%%%%%%%%%%%%%%%%%%%%%%%oooooooooooooooooooooooooooooooooooooooooooooooooooooooooooooooooooooooooooooooooo",
"%%%%%%%%%%%%%%%%%%%%%%%%%%%%%%%%%%%%%%%%%%%%%%%%%%%%%%%%%%%%%%%%%%%%%%%%%%%%%%%%%%%%%%%%%%%%%%%ooo@@@@@@@@@@@@@@@@@@@@@@@@@@@@oooooooooooooooooooooooooooooooooooooooooooooooooooooooooooooooooo%%%%%%%%%%%%%%%%%%%%%%%%%%%%%%%%oooooooooooooooooooooooooooooooooooooooooooooooooooooooooooooooooooooooooooooooooooooooooooooooooooooooooooooooooooooooooooooooooooooooooooooooooooooooooooooooooooooooooooooooooooooooooooooooooooooooooooooooooooooooooooooooooooooooooooooooooooooooooooooooooooooo%%%%%%%%=============:::====%%%%%%%%%%%%%%%%%%%%%%%%%%%%%%oooooooooooooooooooooooooooooooooooooooooooooooooooooooooooooooooooooooooooooooooo",
"%%%%%%%%%%%%%%%%%%%%%%%%%%%%%%%%%%%%%%%%%%%%%%%%%%%%%%%%%%%%%%%%%%%%%%%%%%%%%%%%%%%%%%%%%%%%%%%ooooooooooooooooooooooooooooooooooooooooooooooooooooooooooooooooooooooooooooooooooooooooooooooooo%%%%%%%%%%%%%%%%%%%%%%%%%%%%%%%%oooooooooooooooooooooooooooooooooooooooooooooooooooooooooooooooooooooooooooooooooooooooooooooooooooooooooooooooooooooooooooooooooooooooooooooooooooooooooooooooooooooooooooooooooooooooooooooooooooooooooooooooooooooooooooooooooooooooooooooooooooooooooooooooooooooo%%%%%%%%=============:::====%%%%%%%%%%%%%%%%%%%%%%%%%%%%%%oooooooooooooooooooooooooooooooooooooooooooooooooooooooooooooooooooooooooooooooooo",
"%%%%%%%%%%%%%%%%%%%%%%%%%%%%%%%%%%%%%%%%%%%%%%%%%%%%%%%%%%%%%%%%%%%%%%%%%%%%%%%%%%%%%%%%%%%%%%%ooooooooooooooooooooooooooooooooooooooooooooooooooooooooooooooooooooooooooooooooooooooooooooooooo%%%%%%%%%%%%%%%%%%%%%%%%%%%%%%%%oooooooooooooooooooooooooooooooooooooooooooooooooooooooooooooooooooooooooooooooooooooooooooooooooooooooooooooooooooooooooooooooooooooooooooooooooooooooooooooooooooooooooooooooooooooooooooooooooooooooooooooooooooooooooooooooooooooooooooooooooooooooooooooooooooooo%%%%%%%====================%%%%%%%%%%%%%%%%%%%%%%%%%%%%%%%oooooooooooooooooooooooooooooooooooooooooooooooooooooooooooooooooooooooooooooooooo",
"%%%%%%%%%%%%%%%%%%%%%%%%%%%%%%%%%%%%%%%%%%%%%%%%%%%%%%%%%%%%%%%%%%%%%%%%%%%%%%%%%%%%%%%%%%%%%%%ooooooooooooooooooooooooooooooooooooooooooooooooooooooooooooooooooooooooooooooooooooooooooooooooo%%%%%%%%%%%%%%%%%%%%%%%%%%%%%%%%ooooooooooooooooooooooooooooooooooooooooooooooooooooooooooooooooooooooooooooooooooooooooooooooooooooooooooooooooooooooooooooooooooo%%%%%oo%%%%%%%%%%%%%%%%%%%%%ooooooooooooooooooooooooooooooooooooooooooooooooooooooooooooooooooooooooooooooooooooooooooooooooooooooo%%%%%%%==================%=%%%%%%%%%%%%%%%%%%%%%%%%%%%%%%%oooooooooooooooooooooooooooooooooooooooooooooooooooooooooooooooooooooooooooooooooo",
"%%%%%%%%%%%%%%%%%%%%%%%%%%%%%%%%%%%%%%%%%%%%%%%%%%%%%%%%%%%%%%%%%%%%%%%%%%%%%%%%%%%%%%%%%%%%%%%ooooooooooooooooooooooooooooooooooooooooooooooooooooooooooooooooooooooooooooooooooooooooooooooooo%%%%%%%%%%%%%%%%%%%%%%%%%%%%%%%%ooooooooooooooooooooooooooooooooooooooooooooooooooooooooooooooooooooooooooooooooooooooooooooooooooooooooooooooooooooooooooooooooooo%%%%%%%%%%%%%%%%%%%%%%%%%%%%ooooooooooooooooooooooooooooooooooooooooooooooooooooooooooooooooooooooooooooooooooooooooooooooooooooo%%%%%%%%%%%%%%============%%%%%%%%%%%%%%%%%%%%%%%%%%%%%%%%%%oooooooooooooooooooooooooooooooooooooooooooooooooooooooooooooooooooooooooooooooooo",
"%%%%%%%%%%%%%%%%%%%%%%%%%%%%%%%%%%%%%%%%%%%%%%%%%%%%%%%%%%%%%%%%%%%%%%%%%%%%%%%%%%%%%%%%%%%%%%%ooooooooooooooooooooooooooooooooooooooooooooooooooooooooooooooooooooooooooooooooooooooooooooooooo%%%%%%%%%%%%%%%%%%%%%%%%%%%%%%%%oooooooooooooooooooooooooooooooooooooooooooooooooooooooooooooooooooooooooooooooooooooooooooooooooooooooooooooooooooooooooooooooooo%%%%%%%%%%%%%%%%%%%%%%%%%%%%%%oooooooooooooooooooooooooooooooooooooooooooooooooooooooooooooooooooooooooooooooooooooooooooooooooooo%%%%%%%%%%%%%%%==========%%%%%%%%%%%%%%%%%%%%%%%%%%%%%%%%%%%oooooooooooooooooooooooooooooooooooooooooooooooooooooooooooooooooooooooooooooooooo",
"%%%%%%%%%%%%%%%%%%%%%%%%%%%%%%%%%%%%%%%%%%%%%%%%%%%%%%%%%%%%%%%%%%%%%%%%%%%%%%%%%%%%%%%%%%%%%%%ooooooooooooooooooooooooooooooooooooooooooooooooooooooooooooooooooooooooooooooooooooooooooooooooo%%%%%%%%%%%%%%%%%%%%%%%%%%%%%%%%oooooooooooooooooooooooooooooooooooooooooooooooooooooooooooooooooooooooooooooooooooooooooooooooooooooooooooooooooooooooooooooooooo%%%%%%%%%%%%%%%%%%%%%%%%%%%%%%oooooooooooooooooooooooooooooooooooooooooooooooooooooooooooooooooooooooooooooooooooooooooooooooooooooooo%%%%%%%%%%%%====%%====%%%%%%%%%%%%%%%%%%%%%%%%%%%%%%%%%%oooooooooooooooooooooooooooooooooooooooooooooooooooooooooooooooooooooooooooooooooo",
"====%%%%%%==%%%%=====%%%%%====%%%%%%%%%%%%%%%%%%%%%%%%%%%%%%%%%%%%%%%%%%%%%%%%%%%%%%%%%%%%%%%%%ooooooooooooooooooooooooooooooooooooooooooooooooooooooooooooooooooooooooooooooooooooooooooooooooo%%%%%%%%%%%%%%%%%%%%%%%%%%%%%%%%oooooooooooooooooooooooooooooooooooooooooooooooooooooooooooooooooooooooooooooooooooooooooooooooooooooooooooooooooooooooooooooooooo%%%%%%%%%%%%%%%%%%%%%%%%%%%%%%oooooooooooooooooooooooooooooooooooooooooooooooooooooooooooooooooooooooooooooooooooooooooooooooooooooooo%%%%%%%%%%%%%%%%%%%%%%%%%%%%%%%%%%%%%%%%%%%%%%%%%%%%%%%%oooooooooooooooooooooooooooooooooooooooooooooooooooooooooooooooooooooooooooooooooo",
"===============================%=%%%%%%%%%%%%%%%%%%%%%%%%%%%%%%%%%%%%%%%%%%%%%%%%%%%%%%%%%%%%%%oooooooooooooooooooooooooooooooooooooooooooooooooooooooooooooooooooooooooooooooooooooooooooooooooo%%%%%%%%%%%%%%%%%%%%%%%%%%%%%%ooooooooooooooooooooooooooooooooooooooooooooooooooooooooooooooooooooooooooooooooooooooooooooooooooooooooooooooooooooooooooooooooooo%%%%%%%%%%%%%%%%%%%%%%%%%%%%%%ooooooooooooooooooooooooooooooooooooooooooooooooooooooooooooooooooooooooooooooooooooooooooooooooooooooooo%%%%%%%%%%%%%%%%%%%%%%%%%%%%%%%%%%%%%%%%%%%%%%%%%%%%%%%oooooooooooooooooooooooooooooooooooooooooooooooooooooooooooooooooooooooooooooooooo",
"=================================%%%%%%%%%%%%%%%%%%%%%%%%%%%%%%%%%%%%%%%%%%%%%%%%%%%%%%%%%%%%%%oooooooooooooooooooooooooooooooooooooooooooooooooooooooooooooooooooooooooooooooooooooooooooooooooo%%%%%%%%%%%%%%%%%%%%%%%%%%%%%%ooooooooooooooooooooooooooooooooooooooooooooooooooooooooooooooooooooooooooooooooooooooooooooooooooooooooooooooooooooooooooooooooooo%%%%%%%%%%%%%%%%%%%%%%%%%%%%%%oooooooooooooooooooooooooooooooooooooooooooooooooooooooooooooooooooooooooooooooooooooooooooooooooooooooooo%%%%%%%%%%%%%%%%%%%%%%%%%%%%%%%%%%%%%%%%%%%%%%%%%%%%%%oooooooooooooooooooooooooooooooooooooooooooooooooooooooooooooooooooooooooooooooooo",
"=================================%%%%%%%%%%%%%%%%%%%%%%%%%%%%%%%%%%%%%%%%%%%%%%%%%%%%%%%%%%%%%%oooooooooooooooooooooooooooooooooooooooooooooooooooooooooooooooooooooooooooooooooooooooooooooooooo%%%%%%%%%%%%%%%%%%%%%%%%%%%%%%ooooooooooooooooooooooooooooooooooooooooooooooooooooooooooooooooooooooooooooooooooooooooooooooooooooooooooooooooooooooooooooooooooo%%%%%%%%%%%%%%%%%%%%%%%%%%%%%%oooooooooooooooooooooooooooooooooooooooooooooooooooooooooooooooooooooooooooooooooooooooooooooooooooooooooo%%%%%%%%%%%%%%%%%%%%%%%%%%%%%%%%%%%%%%%%%%%%%%%%%%%%%%oooooooooooooooooooooooooooooooooooooooooooooooooooooooooooooooooooooooooooooooooo",
"==============================%%%%%%%%%%%%%%========%%%%%%%%%%%%%%%%%%%%%%%%%%%%%%%%%%%%%%%%%%%oooooooooooooooooooooooooooooooooooooooooooooooooooooooooooooooooooooooooooooooooooooooooooooooooo%%%%%%%%%%%%%%%%%%%%%%%%%%%%%%ooooooooooooooooooooooooooooooooooooooooooooooooooooooooooooooooooooooooooooooooooooooooooooooooooooooooooooooooooooooooooooooooooo%%%%%%%%%%%%%%%%%%%%%%%%%%%%%%oooooooooooooooooooooooooooooooooooooooooooooooooooooooooooooooooooooooooooooooooooooooooooooooooooooooooo%%%%%%%%%%%%%%%%%%%%%%%%%%%%%%%%%%%%%%%%%%%%%%%%%%%%%%oooooooooooooooooooooooooooooooooooooooooooooooooooooooooooooooooooooooooooooooooo",
"==================%%%==%=====%%%%%%%%%%%%%%==========%%%%%%%%%%%%%%%%%%%%%%%%%%%%%%%%%%%%%%%%%ooooooooooooooooooooooooooooooooooooooooooooooooooooooooooooooooooooooooooooooooooooooooooooooooooo%%%%%%%%%%%%%%%%%%%%%%%%%%%%%%ooooooooooooooooooooooooooooooooooooooooooooooooooooooooooooooooooooooooooooooooooooooooooooooooooooooooooooooooooooooooooooooooooo%%%%%%%%%%%%%%%%%%%%%%%%%%%%%%oooooooooooooooooooooooooooooooooooooooooooooooooooooooooooooooooooooooooooooooooooooooooooooooooooooooooo%%%%%%%%%%%%%%%%%%%%%%%%%%%%%%%%%%%%%%%%%%%%%%%%%%%%%%oooooooooooooooooooooooooooooooooooooooooooooooooooooooooooooooooooooooooooooooooo",
"==================%%%%%%%%%%%%%%=====================%%%%%%%%%%%%%%%%%%%%%%%%%%%%%%%%%%%%%%%%%ooooooooooooooooooooooooooooooooooooooooooooooooooooooooooooooooooooooooooooooooooooooooooooooooooo%%%%%%%%%%%%%%%%%%%%%%%%%%%%%%ooooooooooooooooooooooooooooooooooooooooooooooooooooooooooooooooooooooooooooooooooooooooooooooooooooooooooooooooooooooooooooooooooo%%%%%%%%%%%%%%%%%%%%%%%%%%%%oooooooooooooooooooooooooooooooooooooooooooooooooooooooooooooooooooooooooooooooooooooooooooooooooooooooooooo%%%%%%%%%%%%%%%%%%%%%%%%%%%%%%%%%%%%%%%%%%%%%%%%%%%%%%oooooooooooooooooooooooooooooooooooooooooooooooooooooooooooooooooooooooooooooooooo",
"::::::========%%==%%%%%%ooooooo%:::::::::::=======%%%%%%%%%%%%%%%%%%%%%%%%%%%%%%%%%%%%%%%%%%%%%oooooooooooooooooooooooooooooooooooooooooooooooooooooooooooooooooooooooooooooooooooooooooooooooooo%%%@%%%@%%%%%%%%%%%@%%%%%%%%%%oooooooooooooooooooooooooooooooooooooooooooooooooooooooooooooooooooooooooooooooooooooooooooooooooooooooooooooooooooooooooooooooooooooooooooooooooooooooooooooooooooooooooooooooooooooooooooooooooooooooooooooooooooooooooooooooooooooooooooooooooooooooooooooooooooooooooooooooooo%%%%%%%%%%%%%%%%%%%%%%%%ooooooooooooooooooooooooooooooooooooooooooooooooooooooooooooooooooooooooooooooooooooooooooooooooooooooooo",
"===:=========%%%==%%%%%%%%ooo%%%::::::::========%%%%%%%%%%%%%%%%%%%%%%%%%%%%%%%%%%%%%%%%%%%ooooooooooooooooooooooooooooooooooooooooooooooooooooooooooooooooooooooooooooooooooooooooooooooooooooo@@@@@@@@@@@@@@@@@@@@@@@@@@@@@@@@oooooooooooooooooooooooooooooooooooooooooooooooooooooooooooooooooooooooooooooooooooooooooooooooooooooooooooooooooooooooooooooooooooooooooooooooooooooooooooooooooooooooooooooooooooooooooooooooooooooooooooooooooooooooooooooooooooooooooooooooooooooooooooooooooooooooooooooooooo%%%%%%%%%%%%%%%%%%%%%%ooooooooooooooooooooooooooooooooooooooooooooooooooooooooo%%%%%%%%%%%%%%%%%%%%%%%%%%%%%%ooooooooooooooooooo",
"%%%%%%%%%%%%%%%%%%================%%%%%%%%%%%%%oooooooooooo%%%%%%%%%%%%%%%%%%%%%%%%%%%%%%%%oooooooooooooooooooooooooooooooooooooooooooooooooooooooooooooooooooooooooooooooooooooooooooooooooooo@@@@@@@@@@@@@@@@@@@@@@@@@@@@@@@@@ooooooooooooooooooooooooooooooooooooooooooooooooooooooooooooooooooooooooooooooooooooooooooooooooooooooooooooooooooooooooooooooooooooooooooooooooooooooooooooooooooooooooooooooooooooooooooooooooooooooooooooooooooooooooooooooooooooooooooooooooooooooooooooooooooooooooooooooooooooooooooooooooooooooooooooooooooooooooooooooooooooooooooooooooooooooooooooooooo%%%%%%%%%%%%%%%%%%%%%%%%%%%%%%ooooooooooooooooooo",
"oooooooo%%%%%%%%%%=======:=====%%%ooooooooooooooooooooooooooooo%%%%%%%%%%%%%%%%%%%%%%%%oooooooooooooooooooooooooooooooooooooooooooooooooooooooooooooooooooooooooooooooooooooooooooooooooooooooo@@@@@@@@@@@@@@@@@@@@@@@@@@@@@@@@@ooooooooooooooooooooooooooooooooooooooooooooooooooooooooooooooooooooooooooooooooooooooooooooooooooooooooooooooooooooooooooooooooooooooooooooooooooooooooooooooooooooooooooooooooooooooooooooooooooooooooooooooooooooooooooooooooooooooooooooooooooooooooooooooooooooooooooooooooooooooooooooooooooooooooooooooooooooooooooooooooooooooooooooooooooooooooooooooooo%%%%%%%%%%%%%%%%%%%%%%%%%%%%%%ooooooooooooooooooo",
"%%%%%%%%%%%%%==%%===%%%%=%%%=%%%o%ooooooooooooooooooooooooooooo%%%%%%%%%%%%%%%%%%%%%%%%ooooooooooooooooooooooooooooooooooooooooooooooooooooooooooooooooooooooooooooooooooooooooooooo@+@@ooooooo@@@@@@@@@@@@@@@@@@@@@@@@@@@@@@@@@ooooooooooooooooooooooooooooooooooooooooooooooooooooooooooooooooooooooooooooooooooooooooooooooooooooooooooooooooooooooooooooooooooooooooooooooooooooooooooooooooooooooooooooooooooooooooooooooooooooooooooooooooooooooooooooooooooooooooooooooooooooooooooooooooooooooooooooooooooooooooooooooooooooooooooooooooooooooooooooooooooooooooooooooooooooooooooooooooo%%%%%%%%%%%%%%%%%%%%%%%%%%%%%%ooooooooooooooooooo",
"===============%%%%%%o%%%%%%%%%o%%o%%%%%%ooo%%ooooooooooooooooo%%%%%%%%%%%%%%%%%%%%%%ooooooooooooooooooooooooooooooooooooooooooooooooooooooooooooooooooooooooooooo@@@@@@@@@@@@@@@@@@@++@@@@@@@@@@@@@@@@@@@@@@@@@@@@@@@@@@@@@@@@oooooooooooooooooooooooooooooooooooooooooooooooooooooooooooooooooooooooooooooooooooooooooooooooooooooooooooooooooooooooooooooooooooooooooooooooooooooooooooooooooooooooooooooooooooooooooooooooooooooooooooooooooooooooooooooooooooooooooooooooooooooooooooooooooooooooooooooooooooooooooooooooooooooooooooooooooooooooooooooooooooooooooooooooooooooooooooooooooo%%%%%%%%%%%%%%%%%%%%%%%%%%%%%%ooooooooooooooooooo",
"::::::::========%%%%ooooooooooo%%%%%==%%%%%%%%%%%%ooooooooooooo%%%%%%%%%%%%%%%%%%%%%%oooooooooooooooooooooooooooooooooooooooooooooooooooooooooooooooooooooooooooo@@@@@@@@@@@@@@@@@@@@@@@@@@@@@@@@@@@@@@@@@@@@@@@@@@@@@@@@@@@@@%oooooooooooooooooooooooooooooooooooooooooooooooooooooooooooooooooooooooooooooooooooooooooooooooooooooooooooooooooooooooooooooooooooooooooooooooooooooooooooooooooooooooooooooooooooooooooooooooooooooooooooooooooooooooooooooooooooooooooooooooooooooooooooooooooooooooooooooooooooooooooooooooooooooooooooooooooooooooooooooooooooooooooooooooooooooooooooooooooo%%%%%%%%%%%%%%%%%%%%%%%%%%%%%%ooooooooooooooooooo",
"::::::::=======%%%%%oooooooooo%%%%========%%=%%%%%%%%oooooooooo%%%%%%%%%%%%%%%%%%oooooooooooooooooooooooooooooooooooooooooooooooooooooooooooooooooooooooooooooooo@@@@@@@@@@@@@@@@@@@@@@@@@@@@@@@@@@@%%%%@@@o%%%%@@@@%%%%@@@@%%%oooooooooooooooooooooooooooooooooooooooooooooooooooooooooooooooooooooooooooooooooooooooooooooooooooooooooooooooooooooooooooooooooooooooooooooooooooooooooooooooooooooooooooooooooooooooooooooooooooooooooooooooooooooooooooooooooooooooooooooooooooooooooooooooooooooooooooooooooooooooooooooooooooooooooooooooooooooooooooooooooooooooooooooooooooooooooooooooooo%%%%%%%%%%%%%%%%%%%%%%%%%%%%%%ooooooooooooooooooo",
"===%%===%%=%%%%%%%%%%%%%%%%%%%%%%===========%%%%%%%%%oooooooooo%%%%%%%%%%%%%%%%%%ooooooooooooooooooooooooooooooooooooooooooooooooooooooooooooooooooooooooooooooo@@++@@@@@@@@@@@@@@@@@@@@@@@@@@@@@%%%%%%%%%%%%%%%%%%%%%%%%%%%%%%oooooooooooooooooooooooooooooooooooooooooooooooooooooooooooooooooooooooooooooooooooooooooooooooooooooooooooooooooooooooooooooooooooooooooooooooooooooooooooooooooooooooooooooooooooooooooooooooooooooooooooooooooooooooooooooooooooooooooooooooooooooooooooooooooooooooooooooooooooooooooooooooooooooooooooooooooooooooooooooooooooooooooooooooooooooooooooooooooo%%%%%%%%%%%%%%%%%%%%%%%%%%%%%%ooooooooooooooooooo",
"%%%%%%%%%%%%%%%%%%====%=%%%====%===========%%%%%%%%%%%oo%%%%oo%%%%%%%%%%%%%%%%%ooooooooooooooooooooooooooooooooooooooooooooooooooooooooooooooooooooooooooooooooo@@@+@@@@@@@@@@+@@@@@@@@@@@@@@@@@@%%%%%%%%%%%%%%%%%%%%%%%%%%%%%%oooooooooooooooooooooooooooooooooooooooooooooooooooooooooooooooooooooooooooooooooooooooooooooooooooooooooooooooooooooooooooooooooooooooooooooooooooooooooooooooooooooooooooooooooooooooooooooooooooooooooooooooooooooooooooooooooooooooooooooooooooooooooooooooooooooooooooooooooooooooooooooooooooooooooooooooooooooooooooooooooooooooooooooooooooooooooooooooooo%%%%%%%%%%%%%%%%%%%%%%%%%%%%%%ooooooooooooooooooo",
"%%%%%%%%%%%%%%%%%%====%=%%%%===%%%%%%%%%%%%%%%%%%%%%%%%%%%%%%%%%%%%%%%%%%%%%%%%ooooooooooooooooooooooooooooooooooooooooooooooooooooooooooooooooooooooooooooooooo@@@@@@++@@@@@@++@@+++@@@++@@@@@@o%%%%%%%%%%%%%%%%%%%%%%%%%%%%%%oooooooooooooooooooooooooooooooooooooooooooooooooooooooooooooooooooooooooooooooooooooooooooooooooooooooooooooooooooooooooooooooooooooooooooooooooooooooooooooooooooooooooooooooooooooooooooooooooooooooooooooooooooooooooooooooooooooooooooooooooooooooooooooooooooooooooooooooooooooooooooooooooooooooooooooooooooooooooooooooooooooooooooooooooooooooooooooooooo%%%%%%%%%%%%%%%%%%%%%%%%%%%%%%ooooooooooooooooooo",
"%%%%%%%%%%%%%%%%%%%%%%%%%%%%%%%%%%%%%%%%%%%%%%%%%%%%%%%%%%%%%%%%%%%%%%%%%%%%%ooooooooooooooooooooooooooooooooooooooooooooooooooooooooooooooooooooooooooooooooooo@@@@@@+@@@@@@@++@@+@++@@@+@@@@@@o%%%%%%%%%%%%%%%%%%%%%%%%%%%%%%oooooooooooooooooooooooooooooooooooooooooooooooooooooooooooooooooooooooooooooooooooooooooooooooooooooooooooooooooooooooooooooooooooooooooooooooooooooooooooooooooooooooooooooooooooooooooooooooooooooooooooooooooooooooooooooooooooooooooooooooooooooooooooooooooooooooooooooooooooooooooooooooooooooooooooooooooooooooooooooooooooooooooooooooooooooooooooooooooo%%%%%%%%%%%%%%%%%%%%%%%%%%%%%%ooooooooooooooooooo",
"===========%=%%%%%%%%%%%%%oooo%%%%%%%%%%%%%%%===%%%=%%%%%%%%%%%%%%%%%%%%%%%%%ooooooooooooooooooooooooooooooooooooooooooooooooooooooooooooooooooooooooooooooooooo@@@@@@@@@@@@@@@@@@@@@@@@@@@@@@@@o%%%%%%%%%%%%%%%%%%%%%%%%%%%%%%oooooooooooooooooooooooooooooooooooooooooooooooooooooooooooooooooooooooooooooooooooooooooooooooooooooooooooooooooooooooooooooooooooooooooooooooooooooooooooooooooooooooooooooooooooooooooooooooooooooooooooooooooooooooooooooooooooooooooooooooooooooooooooooooooooooooooooooooooooooooooooooooooooooooooooooooooooooooooooooooooooooooooooooooooooooooooooooooooo%%%%%%%%%%%%%%%%%%%%%%%%%%%%%%ooooooooooooooooooo",
"===========%=%%%%%%%%%%%%oooooo%%%%%%%%%%%%%%===%%%%%%%%%%%%%%%%%%%%%%%%%%%%%ooooooooooooooooooooooooooooooooooooooooooooooooooooooooooooooooooooooooooooooooooo@@+@@@@@@@@@@@@@@@@@@@@@@@@@@@@@o%%%%%%%%%%%%%%%%%%%%%%%%%%%%%%oooooooooooooooooooooooooooooooooooooooooooooooooooooooooooooooooooooooooooooooooooooooooooooooooooooooooooooooooooooooooooooooooooooooooooooooooooooooooooooooooooooooooooooooooooooooooooooooooooooooooooooooooooooooooooooooooooooooooooooooooooooooooooooooooooooooooooooooooooooooooooooooooooooooooooooooooooooooooooooooooooooooooooooooooooooooooooooooooo%%%%%%%%%%%%%%%%%%%%%%%%%%%%%%ooooooooooooooooooo",
"==%%%%====%%%%%%%%%%%%%%%oooooo%%%%%%%%%%%%%%%%%%%%%%%%%%%%%%%%%%%%%%%%%%%%%%%oooooooooooooooooooooooooooooooooooooooooooooooooooooooooooooooooooooooooooooooooo@@++@@@@@@@@@+@@@@@@@@+@@@@@@@ooo%%%%%%%%%%%%%%%%%%%%%%%%%%%%%%oooooooooooooooooooooooooooooooooooooooooooooooooooooooooooooooooooooooooooooooooooooooooooooooooooooooooooooooooooooooooooooooooooooooooooooooooooooooooooooooooooooooooooooooooooooooooooooooooooooooooooooooooooooooooooooooooooooooooooooooooooooooooooooooooooooooooooooooooooooooooooooooooooooooooooooooooooooooooooooooooooooooooooooooooooooooooooooooooo%%%%%%%%%%%%%%%%%%%%%%%%%%%%%%ooooooooooooooooooo",
"==%%%%====%%%%%%%%%%%%%%%%%%%%%%%%%%%%%%%%%%%%%%%%%%%%%%%%%%%%%%%%%%%%%%%%%%%%%ooooooooooooooooooooooooooooooooooooooooooooooooooooooooooooooooooooooooooooooooooooo@@@ooo@@@+@@@@@ooo+++@@@ooooo%%%%%%%%%%%%%%%%%%%%%%%%%%%%%%oooooooooooooooooooooooooooooooooooooooooooooooooooooooooooooooooooooooooooooooooooooooooooooooooooooooooooooooooooooooooooooooooooooooooooooooooooooooooooooooooooooooooooooooooooooooooooooooooooooooooooooooooooooooooooooooooooooooooooooooooooooooooooooooooooooooooooooooooooooooooooooooooooooooooooooooooooooooooooooooooooooooooooooooooooooooooooooooooo%%%%%%%%%%%%%%%%%%%%%%%%%%%%%%ooooooooooooooooooo",
"=%%%%%%===%%%%%%%%%%%%%%%%%%%%%%%%%%%%%%%%%%%%%%%%%%%%%%%%%%%%%%%%%%%%%%%%%%%%%%ooooooooooooooooooooooooooooooooooooooooooooooooooooooooooooooooooooooooooooooooooooooooooooooooooooooooooooooooo%%%%%%%%%%%%%%%%%%%%%%%%%%%%%%oooooooooooooooooooooooooooooooooooooooooooooooooooooooooooooooooooooooooooooooooooooooooooooooooooooooooooooooooooooooooooooooooooooooooooooooooooooooooooooooooooooooooooooooooooooooooooooooooooooooooooooooooooooooooooooooooooooooooooooooooooooooooooooooooooooooooooooooooooooooooooooooooooooooooooooooooooooooooooooooooooooooooooooooooooooooooooooooooo%%%%%%%%%%%%%%%%%%%%%%%%%%%%%%ooooooooooooooooooo",
"=%%%%=%==%%%%%%%%%%%%%%%%%%%%o%%%%%%%%%%%%%%%%%%%%%%%%%%%%%%%%%%%%%%%%%%%%%%%%%%%%oooooooooooooooooooooooooooooooooooooooooooooooooooooooooooooooooooooooooooooooooooooooooooooooooooooooooooooo%%%%%%%%%%%%%%%%%%%%%%%%%%%%%%%%ooooooooooooooooooooooooooooooooooooooooooooooooooooooooooooooooooooooooooooooooooooooooooooooooooooooooooooooooooooooooooooooooooooooooooooooooooooooooooooooooooooooooooooooooooooooooooooooooooooooooooooooooooooooooooooooooooooooooooooooooooooooooooooooooooooooooooooooooooooooooooooooooooooooooooooooooooooooooooooooooooooooooooooooooooooooooooooooooo%%%%%%%%%%%%%%%%%%%%%%%%%%%%%%ooooooooooooooooooo",
"%%%%%%%%%%%%%%%%%%%%%%%%%%%%ooo%%%%%%%%%%%%%%%%%%%%%%%%%%%%%%%%%%%%%%%%%%%%%%%%%%%%%%%oooooooooooooooooooooooooooooooooooooooooooooooooooooooooooooooooooooooooooooooooooooooooooooooooooooooooo%%%%%%%%%%%%%%%%%%%%%%%%%%%%%%%%ooooooooooooooooooooooooooooooooooooooooooooooooooooooooooooooooooooooooooooooooooooooooooooooooooooooooooooooooooooooooooooooooooooooooooooooooooooooooooooooooooooooooooooooooooooooooooooooooooooooooooooooooooooooooooooooooooooooooooooooooooooooooooooooooooooooooooooooooooooooooooooooooooooooooooooooooooooooooooooooooooooooooooooooooooooooooooooooooo%%%%%%o%%%%%%%%%%%o%%%%%%%%%%oooooooooooooooooooo",
"%%%%%%%%%%%%%%%%%%%%%%%%%%%%ooo%%%%%%%%%%%%%%%%%%%%%%%%%%%%%%%%%%%%%%%%%%%%%%%%%%%%%%%%ooooooooooooooooooooooooooooooooooooooooooooooooooooooooooooooooooooooooooooooooooooooooooooooooooooooooo%%%%%%%%%%%%%%%%%%%%%%%%%%%%%%%%oooooooooooooooooooooooooooooooooooooooooooooooooooooooooooooooooooooooooooooooooooooooooooooooooooooooooooooooooooooooooooooooooooooooooooooooooooooooooooooooooooooooooooooooooooooooooooooooooooooooooooooooooooooooooooooooooooooooooooooooooooooooooooooooooooooooooooooooooooooooooooooooooooooooooooooooooooooooooooooooooooooooooooooooooooooooooooooooo@@@@@@@@@@@@@@@@@@@@@@@@@@@@@@@@oooooooooooooooooo",
"%%%%%%%%%%%%%%%%%%%%%%%%%%%%%%%%%%%%%%%%%%%%%%%%%%%%%%%%%%%%%%%%%%%%%%%%%%%%%%%%%%%%%%%%%%oooo%%ooooooooooooooooooooooooooooooooooooooooooooooooooooooooooooooooooooooooooooooooooooooooooooooooo%%%%%%%%%%%%%%%%%%%%%%%%%%%%%%oooooooooooooooooooooooooooooooooooooooooooooooooooooooooooooooooooooooooooooooooooooooooooooooooooooooooooooooooooooooooooooooooooooooooooooooooooooooooooooooooooooooooooooooooooooooooooooooooooooooooooooooooooooooooooooooooooooooooooooooooooooooooooooooooooooooooooooooooooooooooooooooooooooooooooooooooooooooooooooooooooooooooooooooooooooooooooooooo@@@@@@@@@@@@@@@@@@@@@@@@@@@@@@@@@@ooooooooooooooooo",
"%%%%%%%%%%%%%%%%%%%oooooooooooooooooooooooooo%%%%%%%%%%%%%%%%%%%%%%%======%%%%%%%%%%%%%%%%%oooo%oooooooooooooooooooooooooooooooooooooooooooooooooooooooooooooooooooooooooooooooooooooooooooooooo%%%%%%%%%%%%%%%%%%%%%%%%%%%%%%%%ooooooooooooooooooooooooooooooooooooooooooooooooooooooooooooooooooooooooooooooooooooooooooooooooooooooooooooooooooooooooooooooooooooooooooooooooooooooooooooooooooooooooooooooooooooooooooooooooooooooooooooooooooooooooooooooooooooooooooooooooooooooooooooooooooooooooooooooooooooooooooooooooooooooooooooooooooooooooooooooooooooooooooooooooooooooooooooooo@@@@@@@@@@@@@@@@@@@@@@@@@@@@@@@@@@ooooooooooooooooo",
"==%%%%%%%%%%%%%%%%%oooooooooooooooooooooooo%%%%%%%%%%%%%%%%%===%%==========%%%%%%%%%%%%%%%%%%%%%ooooooooooooooooooooooooooooooooooooooooooooooooooooooooooooooooooooooooooooooooooooooooooooooooo%%%%%%%%%%%%%%%%%%%%%%%%%%%%%%oooooooooooooooooooooooooooooooooooooooooooooooooooooooooooooooooooooooooooooooooooooooooooooooooooooooooooooooooooooooooooooooooooooooooooooooooooooooooooooooooooooooooooooooooooooooooooooooooooooooooooooooooooooooooooooooooooooooooooooooooooooooooooooooooooooooooooooooooooooooooooooooooooooooooooooooooooooooooooooooooooooooooooooooooooooooooooooooo@@@@@@@@@@@@@@@@@@@@@@@@@@@@@@@@@@ooooooooooooooooo",
"===%%%%=%%%%%%%%%%%oooooooooooooooooooooooo%%%%%%%%%==========================%%%%%%%%%%%%%%%%%%ooooooooooooooooooooooooooooooooooooooooooooooooooooooooooooooooooooooooooooooooooooooooooooooooo%%%%%%%%%%%%%%%%%%%%%%%%%%%%%%oooooooooooooooooooooooooooooooooooooooooooooooooooooooooooooooooooooooooooooooooooooooooooooooooooooooooooooooooooooooooooooooooooooooooooooooooooooooooooooooooooooooooooooooooooooooooooooooooooooooooooooooooooooooooooooooooooooooooooooooooooooooooooooooooooooooooooooooooooooooooooooooooooooooooooooooooooooooooooooooooooooooooooooooooooooooooooooooo@@@@@@@@@@@@@@@@@@@@@@@@@@@@@@@@@@ooooooooooooooooo",
"%%%%%%%%%%%%%%%%%%%ooooooooooooooooooo%%%%%%%%%%%========:::=================%%%%%%%%%%%%%%%%%%%ooooooooooooooooooooooooooooooooooooooooooooooooooooooooooooooooooooooooooooooooooooooooooooooooo%%%%%%%%%%%%%%%%%%%%%%%%%%%%%%oooooooooooooooooooooooooooooooooooooooooooooooooooooooooooooooooooooooooooooooooooooooooooooooooooooooooooooooooooooooooooooooooooooooooooooooooooooooooooooooooooooooooooooooooooooooooooooooooooooooooooooooooooooooooooooooooooooooooooooooooooooooooooooooooooooooooooooooooooooooooooooooooooooooooooooooooooooooooooooooooooooooooooooooooooooooooooooooo@@@@@@@@@@@@@@@@@@@@@@@@@@@@@@@@@@ooooooooooooooooo",
"%%%%%%%%%%%%%%%%%%%ooooooooooooo%%%%%%%%%%%%%%%=%=============================%%====%%%%%%%%%%%%%oooooooooooooooooooooooooooooooooooooooooooooooooooooooooooooooooooooooooooooooooooooooooooooooo%%%%%%%%%%%%%%%%%%%%%%%%%%%%%%oooooooooooooooooooooooooooooooooooooooooooooooooooooooooooooooooooooooooooooooooooooooooooooooooooooooooooooooooooooooooooooooooooooooooooooooooooooooooooooooooooooooooooooooooooooooooooooooooooooooooooooooooooooooooooooooooooooooooooooooooooooooooooooooooooooooooooooooooooooooooooooooooooooooooooooooooooooooooooooooooooooooooooooooooooooooooooooooo@@@@@@@@@@@@@@@@@@@@@@@@@@@@@@@@@@@@@@@oooooooooooo",
"%%%%%%%%%%%%%%%%%%%ooooooooooooo%%%%%%%%%%%%%%%%%%====%%%%%%%%=======================%%%%%%%%%%%%%ooooooooooooooooooooooooooooooooooooooooooooooooooooooooooooooooooooooooooooooooooooooooooooooo%%%%%%%%%%%%%%%%%%%%%%%%%%%%%%oooooooooooooooooooooooooooooooooooooooooooooooooooooooooooooooooooooooooooooooooooooooooooooooooooooooooooooooooooooooooooooooooooooooooooooooooooooooooooooooooooooooooooooooooooooooooooooooooooooooooooooooooooooooooooooooooooooooooooooooooooooooooooooooooooooooooooooooooooooooooooooooooooooooooooooooooooooooooooooooooooooooooooooooooooooooooooooooo+@@@@@@+@@@@@@@@@@@+@@@@@@@@@@@@@@@@@@@oooooooooooo",
"%%%%%%%%%%%%%%%%%%%%%%%%%%%%%%%%%%%%%%==%%%%====%%===%%%%%%%%%%%=====================%%%%%%%%%%%%%ooooooooooooooooooooooooooooooooooooooooooooooooooooooooooooooooooooooooooooooooooooooooooooooo%%%%%%%%%%%%%%%%%%%%%%%%%%%%%%ooooooooooooooooooooooooooooooooooooooooooooooooooooooooooooooooooooooooooooooooooooooooooooooooooooooooooooooooooooooooooooooooooooooooooooooooooooooooooooooooooooooooooooooooooooooooooooooooooooooooooooooooooooooooooooooooooooooooooooooooooooooooooooooooooooooooooooooooooooooooooooooooooooooooooooooooooooooooooooooooo@@@@@@@@@@@@@@@@@@@@@@@@@@@@@@o@@@@@@@+@@@@@@@@@@++@@@@@@@@@@@@@@@@@@@oooooooooooo",
"%%%%%%%%%%%%%%%%%%%%%%%%%%%%%%%%%%%===================%====%%=======================%%%%%%%%%%%%%%oooooooooooooooooooooooooooooooooooooooooooooooooooooooooo%%%%ooooooooooooooooooooooooooooooooo%%%%%%%%%%%%%%%%%%%%%%%%%%%%%%oooooooooooooooooooooooooooooooooooooooooooooooooooooooooooooooooooooooooooooooooooooooooooooooooooooooooooooooooooooooooooooooooooooooooooooooooooooooooooooooooooooooooooooooooooooooooooooooooooooooooooooooooooooooooooooooooooooooooooooooooooooooooooooooooooooooooooooooooooooooooooooooooooooooooooooooooooooooooooooooo@@@@@@@@@@@@@@@@+@@@@@@@@@@@@@@@+@@@@@@@@@@@@@@@@@@@@@@@@@@@@@@@@@@@@@@oooooooooooo",
"%%%%%%%%%%%%%%%%%%%%%%%%%%%%%%%%%%=================::::=::::=======================%=%%%%%%%%%%%%%ooooooooooooooooooooooooooooooooooooooooooooooooooooooooooo%%%ooooooooooooooooooooooooooooooooo%%%%%%%%%%%%%%%%%%%%%%%%%%%%%%oooooooooooooooooooooooooooooooooooooooooooooooooooooooooooooooooooooooooooooooooooooooooooooooooooooooooooooooooooooooooooooooooooooooooooooooooooooooooooooooooooooooooooooooooooooooooooooooooooooooooooooooooooooooooooooooooooooooooooooooooooooooooooooooooooooooooooooooooooooooooooooooooooooooooooooooooooooooooooooooo@@@@@@@@@@@@@@@@@@@@@@@@@@@@@@@@@@@@@@@@@@@@@@@@@@@@@@@@@@@@@@@@@@@oo%%%%%%%ooooooo",
"%%%%%%%%%%%%%%%%%%%%%%%%%%%%%%%%=========:====:::::<<<<<<<3<<<::================%%%%%%%%%%%%%%%%%%oooooooooooooooooooooooooooooooooooooooooooooooooooooooooooo%%ooooooooooooooooooooooooooooooooo%%%%%%%%%%%%%%%%%%%%%%%%%%%%%%ooooooooooooooooooooooooooooooooooooooooooooooooooooooooooooo%%%%ooooooooooooooooooooooooooooooooooooooooooooooooooooooooooooooooooooooooooooooooooooooooooooooooooooooooooooooooooooooooooooooooooooooooooooooooooooooooooooooooooooooooooooooooooooooooooooooooooooooooooooooooooooooooooooooooooooooooooooooooooooooooooooooo@@@@@@@@@@@@@@@@@@@@@@@@@@@@@@@@@@@@@@@@@++@@@@@@@@@+@@@@@+@@@@@@ooo%%%%%%%%ooooooo",
"%%%%%%%%%%%%%%%%%%%%%%%%%%%%%%%%========::===::::::<<<<<<<3<<<:::==============%%%%%%%%%%%%%%%%%%%oooooooooooooooooooooooooooooooooooooooooooooooooooooooooooo%%ooooooooooooooooooooooooooooooooooooooooooooooooooooooooooooooooooooooooooooooooooooooooooooooooooooooooooooooooooooooooooo%%%%%ooooooooooooooooooooooooooooooooooooooooooooooooooooooooooooooooooooooooooooooooooooooooooooooooooooooooooooooooooooooooooooooooooooooooooooooooooooooooooooooooooooooooooooooooooooooooooooooooooooooooooooooooooooooooooooooooooooooooooooooooooooooooo%o%%oo@@@@@@@@@@@@@@@@@@@@@@@@@@@@@@@@@@@@@@@@+++@@@@@@@@@+++@@@@@@@%oooo%%%%%%%%%%%%%%%%",
"%%%%%%%%%%%%%%%%%%%%%%%%%%%%%%%==============:::::===:===::===::================%%%%%%%%%%%%%%%ooooooooooooooooooooooooooooooooo%%%%%%%%%%%%%%%%%%%%%%%%%%%%%%%%%%%%%%%%%%%%%%%%%%%%%%%%%%%%%%%%ooooooooooooooooooooooooooooooooooooooooooooooooooooooooooooooooooooooooooooo%%%oooo%%%%%%%%%%%%oo%%%%%%%%%%%%%%%%%%%%%%%%%%%%%%ooooooooooooooooooooooooooooooooooooooooooooooooooooooooooooooooooooooooooooooooooooooooooooooooooooooooooooooooooooooooooooooooooooooooooooooooooooooooooooooooooooooooooooooooooooooooooooooooooooooooooooooooooooooooo%%%%oo@@@++@@@@@@@@@@@@@@@@@@@@@@@@@@@o@@@@@@@@@@@@@@@@@@@@@@@@@@@@@%%%%%%%%%%%%%%%%%%%%%",
"%%%%%%%%%%%%%%%%%%%%%%%%%%%%%%%================:===============================%%%%%%%%%%%%%%%oooooooooooooooooooooooooooooooooo%%%%%%%%%%%%%%%%%%%%%%%%%%%%%%%%%%%%%%%%%%%%%%%%%%%%%%%%%%%%%%%%ooooooooooooooooooooooooooooooooooooooooooooooooooooooooooooooooooooooooooooo%%%ooo%%%%%%%%%%%%%%%%%%%%%%%%%%%%%%%%%%%%%%%%%%%%%ooooooooooooooooooooooooooooooooooooooooooooooooooooooooooooooooooooooooooooooooooooooooooooooooooooooooooooooooooooooooooooooooooooooooooooooooooooooooooooooooooooooooooooooooooooooooooooooooooooooooooooooo%%%%%%%%%%%%%%%%@@@++@@@@@@@@@@@@@@@@@@@@@@@@@@@o@@@@@@@@@@@@@@@@@@@@@@@@@@@@@%%%%%%%%%==%%%%==%%%%",
"%%%%%%%%%%%%%%%%%%%%%%%%%%%%%%%=========================================%==%==%%%%%%%%%%%%%ooooooooooooooooooooooooooooooooooooo%%%%%%%%%%%%%%%%%%%%%%%%%%%%%%%%%%%%%%%%%%%%%%%%%%%%%%%%%%%%%%%%oooooooooooooooooooooooooooooooooooooooooooooooooooooooooooooooooooooo%%%%%%%%%%%%%%%%%%%%%%%%%%%%%%%%%%%%%%%%%%%%%%%%%%%%%%%%%%oooooooooooooooooooooooooooooooooooooooooooooooooooooooooooooooooooooooooooooooooooooooooooooooooooooooooooooooooooooooooooooooooooooooooooooooooooooooooooooooooooooooooooooooooooooooooooooooooooooooooooooooo%%%%%%%%%%%%%%%@@@@@@@@@@@@@@@@@@@@@@@@@@@@@@@@o@+@@ooooo%ooooooooooooooooooo%%%%%==============%%",
"%%%%%%%%%%%%%%%%%%%%%%%%%%%%%%%==========================================%%%%%%%%%%%%%%%%%oooooooooooooooooooooooooooooooooooooo%%%%%%%%%%%%%%%%%%%%%%%%%%%%%%%%%%%%%%%%%%%%%%%%%%%%%%%%%%%%%%%%ooooooooooooooooooooooooooooooooooooooooooooooooooooooooooooooooooooo%%%%%%%%%%%%%%%%%%%%%%%%%%%%%%%%%%%%%%%%%%%%%%%%%%%%%%%%%%%%oooooooooooooooooooooooooooooooooooooooooooooooooooooooooooooooooooooooooooooooooooooooooooooooooooooooooooooooooooooooooooooooooooooooooooooooooooooooooooooooooooooooooooooooooooooooooooooooooooooooooooooooo%%%%%%%%%%%%oo@@@@@@@@@@@@@@@@@@@@@@@@@@@@@@@@o++oo%oo%%%%%%%%%%%%%%%%%%%%%%%%%%%==============%%",
"%%%%%%%%%%%%%%%%%%%%%%%%%%%%%%%%=========%====%%====%%=%================%%%%%%%%%%%%%%%%%%oooooooooooooooooooooooooooooooooooooo%%%%%%%%%%%%%%%%%%%%%%%%%%%%%%%%%%%%%%%%%%%%%%%%%%%%%%%%%%%%%%%%oooooooooooooooooooooooooooooooooooooooooooooooooooooooooooooooooooo%%%%%%%%%%%%%%%%%%%%%%%%%%%%%%%%%%%%%%%%%%%%%%%%%%%%%%%%%%%%%%ooooooooooooooooooooooooooooooooooooooooooooooooooooooooooooooooooooooooooooooooooooooooooooooooooooooooooooooooooooooooooooooooooooooooooooooooooooooooooooooooooooooooooooooooooooooooooooooooooooooooooooooo%%%%%%%%%%%%oo@@@@@@@@@@+@+@@@@@@@@@@@@@@@@@@@oo%%%%%%%%%%%%%%%%%%%%%%%%%%%%%%%=================%",
"%%%%%%%%%%%%%%%%%%%%%%%%%%%%%%%%%%%%%%%%%%%%%%%%%%%%%%%%%%%%%%%=%====%%%%%%%%%%%%%%%%%%%%%%ooooooooooooooooooooooooooooooooooooo%%%%%ooo%%%%%%%%%%%%%%%%%%%%%%%o%%%%%%%%%%%%%%%%%%%%%%%%%%%%%%%%ooooooooooooooooooooooooooooooooooooooooooooooooooooooooooooooo%oooo%%%%%%%%%%%%%%%%%%%%%%%%%%%%%%%%%%%%%%%%%%%%%%%%%%%%%%%%%%%%%%ooooooooooooooooooooooooooooooooooooooooooooooooooooooooooooooooooooooooooooooooooooooooooooooooooooooooooooooooooooooooooooooooooooooooooooooooooooooooooooooooooooooooooooooooooooooooooooooooooooooooooooooo%%%%%%%%%%%%oo@@@@@@@@@@@@@@@@@@@@@@@@@@@@+@@@%%%%%%%%%%%%%%%%%%%%%%%%%%%%%%%%%===============%=%",
"%%%%%%%%%%%%%%%%%%%%%%%%%%%%%%%%%%%%%%%%%%%%%%%%%%%%%%%%%%%%%%%%%%==%%%%%%%%%%%%%%%%%%%%%%%%oooooooooooooooooooooooooooooooooooooooooooo%%%%oooooooo%%%%oooooooo%%%%%%%%%%%%%%%%%%%%%%%%%%%%%%%%oooooooooooooooooooooooooooooooooooooooooooooooooooooooooooooo%%oooo%%%%%%%%%%%%%%%%%%%%%%%=%==%=%%%%%%%%%%%%%%%%%%%%%%%%%%%%%%%%%ooooooooooooooooooooooooooooooooooooooooooooooooooooooooooooooooooooooooooooooooooooooooooooooooooooooooooooooooooooooooooooooooooooooooooooooooooooooooooooooooooooooooooooooooooooooooooooooooooooooooooooooo%%%%%%%%%%%%ooo@@++@@@@@@@@@@@@@@@@@@@@@@@@@@%%%%%=========================================%%%%%%",
"%%%%%%%%%%%%%%%%%%%%%%%%%%%%%%%%%%%%%%%%%%%%%%%%%%%%%%%%%%%%%%%%%%%%%%%%%%%%%%%%%%%%%%%%%%%%%ooooooooooooooooooooooooooooooooooooooooooo%%%%ooooooooo%%%oooooooo%%%%%%%%%%%%%%%%%%%%%%%%%%%%%%%%oooooooooooooooooooooooooooooooooooooooooooooooooooooooooooooo%%ooo%%%%%%%%%%%====%%=============%%%%%%%%%%%%%%%%%%%%%%%%%%%%%%%%%ooooooooooooooooooooooooooooooooooooooooooooooooooooooooooooooooooooooooooooooooooooooooooooooooooooooooooooooooooooooooooooooooooooooooooooooooooooooooooooooooooooooooooooooooooooooooooooooooooooooooooooooo%%%%%%%%%%%%ooooooooooooooo%%%%%%%%%%%%%%oo%%%%%%=========================================%%%%%%%",
"%%%%%%%%%%%%%%%%%%%%%%%%%%%%%%%%%%%%%%%%%%%%%%%%%%%%%%%%%%%%%%%%%%%%%%%%%%%%%%%%%%%%%%%%%%%%%%%%oooooooooooooooooooooooooooooooooooooooooooooooooooooooooooooooo%%%%%%%%%%%%%%%%%%%%%%%%%%%%%%%%oooooooooooooooooooooooooooooooo%%%%%%%%%%%%%%%%%%%%%%%%%%%%%%%%%%%%%%%%%%%%%====================%%%%%%%%%%%%%%%%%%%%%%%%%%%%%%%%%oooooooooooooooooooooooooooooooooooooooooooooooooooooooooooooooooooooooooooooooooooooooooooooooooooooooooooooooooooooooooooooooooooooo@@@+oooooooooooo@@@@ooooooooooooooooooooooooooooooooooooooooooooooooooooo%%%%%%%%%%%%o%ooooooooo%%%%%%%%%%===%%%=%%%%%%===================================%%%%======%%%%%%",
"%%%%%%%%%%%%%%%%%%%%%%%%%%%%%%%%%%%%%%%%%%%%%%%%%%%%%%%%%%%%%%%%%%%%%%%%%%%%%%%%%%%%%%%%%%%%%%%%ooooooooooooooooooooooooooooooooooooooooooooooooooooooooooooooooooo%%%%%%%%%%%%%%%%%%%%%%%%%%%%ooooooooooooooooooooooooooooooooo%%%%%%%%%%%%%%%%%%%%%%%%%%%%%%%%%%%%%%%%%%%%%====================%%%%%%%%%%%%%%%%%%%%%%%%%%%%%%%%%oooooooooooooooooooooooooooooooooooooooooooooooooooooooooooooooooooooooooooooooooooooooooooooooooooooooooooooooooooooooooooooo@@@@@@@@@@++@@@@@@@@@@@@@@@@@@@@ooooooooooooooooooooooooooooooooooooooooooooooo%o%%%%%%%%%%%%%%%oooo%%%%%%%%%%==%%%%==%%==%%%%====================================%%%%%%%%%%%%%%%%",
"%%%%%%%%%%%%%%%%%%%%%%%%%%%%%%%%%%%%%%%%%%%%%%%%%%%%%%%%%%%%%%%%%%%%%%%%%%%%%%%%%%%%%%%%%%%%%%%%ooooooooooooooooooooooooooooooooooooooooooooooooooooooooooooooooooo%%%%%%%%%%%%%%%%%%%%%%%%%%%%ooooooooooooooooooooooooooooooooo%%%%%%%%%%%%%%%%%%%%%%%%%%%%%%%%%%%%%%%%%%%%%%===================%%%%%%%%%%%%%%%%%%%%%%%%%%%%%%%%%oooooooooooooooooooooooooooooooooooooooooooooooooooooooooooooooooooooooooooooooooooooooooooooooooooooooooooooooooooooooooooooo@@@@@@@@@@@@@@@@@@@@@@@@@+@@@@@@@ooooooooooooooooooooooooooooooooooooooooooooo%%o%%%%%%%%%%%%%%%oooo%%%%%%%=============%====%%====================================%%%%%%%%%%%%%%%",
"%%%%%%%%%%%%%%%%%%%%%%%%%%%%%%%%%%%%%%%%%%%%%%%%%%%%%%%%%%%%%%%%%%%%%%%%%%%%%%%%%%%%%%%%%%%%%%%%ooooooooooooooooooooooooooooooooooooooooooooooooooooooooooooooooooo%%%%%%%%%%%%%%%%%%%%%%%%%%%%ooooooooooooooooooooooooooooooooo%%%%%%%%%%%%%%%%%%%%%%%%%%%%%%%%%%%%%%%%%%%%%%%%%==============%=%%%%%%%%%%%%%%%%%%%%%%%%%%%%%%%%%ooooooooooooooooooooooooooooooooooooooooooooooooooooooooooooooooooooooooooooooooooooooooooooooooooooooooooooooooooooooooooooo@@@@@@@@@@@@@@@@@@@@@@@@@+@@@@@@@@oooooooooooooooooooooooooooooooooooooooooooo%%%%%%%%%%%%%%%%%%%oooo%%%%%%===============%%=%%%===================================%%%%%%%%%%%%%%%%",
"%%%%%%%%%%%%%%%%%%%%%%%%%%%%%%%%%%%%%%%%%%%%%%%%%%%%%%%%%%%%%%%%%%%%%%%%%%%%%%%%%%%%%%%%%%%%%%%%ooooooooooooooooooooooooooooooooooooooooooooooooooooooooooooooooooo%%%%%%%%%%%%%%%%%%%%%%%%%%%%ooooooooooooooooooooooooooooooooo%%%%%%%%%%%%%%%%%%%%%%%%%%%%%%%%%%%%%%%%%%%%%%%%%%==%%%%======%%%%%%%%%%%%%%%%%%%%%%%%%%%%%%%%%%%%ooooooooooooooooooooooooooooooooooooooooooooooooooooooooooooooooooooooooooooooooooooooooooooooooooooooooooooooooooooooooooooo@@@++@@@@@++@++@@@@++@@@@@@@@@@@@@ooooooooooooooooooooooooooooooooooooooooooo%%%%%%%%%%%%%%%%%%%%%%%%%%%===========::=============================================%%%%%%%%%%%%%%%%%",
"%%%%%%%%%%%%%%%%%%%%%%%%%%%%%%%%%%%%%%%%%%%%%%%%%%%%%%%%%%%%%%%%%%%%%%%%%%%%%%%%%%%%%%%%%%%%%%%%oooooooooooooooooooooooooooooooooooooooooooooooooooooooooooooooooo@@@@@@@@@@@@@@@@@@@@@@@@@@@@%ooooooooooooooooooooooooooooooooo%%%%%%%%%%%%%%%%%%%%%%%%%%%%%%%%%%%%%%%%%%%%%%%%%%%%%%%%%%%%%%%%%%%%%%%%%%%%%%%%%%%%%%%%%%%%%%%%%%ooooooooooooooooooooooooooooooooooooooooooooooooooooooooooooooooooooooooooooooooooooooooooooooooooooooooooooooooooooooooooooo@@@@+@@@@@@@@@++@@@@+@@@@@@@@@@@@@oooooooooooooooooooooooooooooooooo%%%%%%%%%%%%%%%%%%%%%%%%%%%%%%%%%%%===========::::============================================%%%%%%%%%%%%%%%%%",
"%%%%%%%%%%%%%%%%%%%%%%%%%%%%%%%%%%%%%%%%%%%%%%%%%%%%%%%%%%%%%%%%%%%%%%%%%%%%%%%%%%%%%%%%%%%%%%%%ooooooooooooooooooooooooooooooooooooooooooooooooooooooooooooooooo@@@@@@@@@@@@@@@@@@@@@@@@@@@@@@ooooooooooooooooooooooooooooooooo%%%%%%%%%%%%%%%%%%%%%%%%%%%%%%%%%%%%%%%%%%%%%%%%%%%%%%%%%%%%%%%%%%%%%%%%%%%%%%%%%%%%%%%%%%%%%%%%%oooooooooooooooooooooooooooooooooooooooooooooooooooooooooooooooooooooooooooooooooooooooooooooooooooooooooooooooooooooooooooooo@@@@@@@@@@@@@@@@@@@@@@@@@@@@@@@@@ooooooooooooooooooooooooooooooooooo%%%%%%%%%%%%%%%%%====%%%%================::====:::===::=======================================%%%%%%%%%%%%ooo%%",
"%%%%%%%%%%%%%%%%%%%%%%%%%%%%%%%%%%%%%%%%%%%%%%%%%%%%%%%%%%%%%%%%%%%%%%%%%%%%%%%%%%%%%%%%%%%%%%%%%oooooooooooooooooooooooooooooooooooooooooooooooooooooooooooooooo@@@@@@@@@@@@@@@@@@@@@@@@@@@@@@ooooooooooooooooooooooooooooooo%%%%%%%%%%%%%%%%%%%%%%%%%%%%%%%%%%%%%%%%%%%%%%%%%%%%%%%%%%%%%%%%%%%%%%%%%%%%%%%%%%%%%%%%%%%%%%%%%%ooooooooooooooooooooooooooooooooooooooooooooooooooooooooooooooooooooooooooooooooooooooooooooooooooooooooooooooooooooooooooooooo@@@@@@@@@@@@@@@@@@@@@@@@@@@@@@@@ooooooooooooooooooooooooooooooooooo%%%%%%%%%%%%%%%%%%====%%%%=================:::::::::::::=====================================%%%%%%%%%%%%%oooo%%",
"%%%%%%%%%%%%%%%%%%%%%%%%%%%%%%%%%%%%%%%%%%%%%%%%%%%%%%%%%%%%%%%%%%%%%%%%%%%%%%%%%%%%%%%%%%%%%%%%%%ooooooooooooooooooooooooooooooooooooooooooooooooooooooooooooooo@@@@@@@@@@@@@@@@@@@@@@@@@@@@@@ooooooooooooooooooooooooooooooo%%%%%%%%%%%%%%%%%%%%%%%%%%%%%%%%%%%%%%%%%%%%%%%%%%%%%%%%%%%%%%%%%%%%%%%%%%%%%%%%%%%%%%%%%%%%%%%%%%ooooooooooooooooooooooooooooooooooooooooooooooooooooooooooooooooooooooooooooooooooooooooooooooooooooooooooooooooooooooooooooooo@@@@@@++@@@++@@@@@@@@@@@@@@@@@@@ooooooooooooooooooooooooooooooooooo%%%%%%%%%%%%%=============================:::::::::::::=====================================%%%%%%%%%%%%%%oooooo",
"%%%%%%%%%%%%%%%%%%%%%%%%%%%%%%%%%%%%%%%%%%%%%%%%%%%%%%%%%%%%%%%%%%%%%%%%%%%%%%%%%%%%%%%%%%%%%%%%%%ooooooooooooooooooooooooooooooooooooooooooooooooooooooooooooooo@@@@@@@@@@@@@@@@@@@@@@@@@@@@@@ooooooooooooooooooooooooooooooo%%%%%%%%%%%%%%%%%%%%%%%%%%%%%%%%%%%%%%%%%%%%%%%%%%%%%%%%%%%%%%%%%%%%%%%%%%%%%%%%%%%%%%%%%%%%%%%%%%ooooooooooooooooooooooooooooooooooooooooooooooooooooooooooooooooooooooooooooooooooooooooooooooooooooooooooooooooooooooooooooooo@@@+@@@@@@@+@@@@@@@@@@@@@@@@@@@@%%ooooooooooooooooooooooooooooooo%%%%%%%%%%%%%%%=============================:::::::::::::=====================================%%%%%%%%%%%%%%oooooo",
"%%%%%%%%%%%%%%%%%%%%%%%%%%%%%%%%%%%%%%%%%%%%%%%%%%%%%%%%%%%%%%%%%%%%%%%%%%%%%%%%%%%%%%%%%%%%%%%%%%oooooooooooooooooooooooooooooooooooooooooooooooooooooooooooooooo@@@@@@@@@@@@@@@@@@@@@@@@@@@@%oooooooooooooooooooooooooooooooo%%%%%%%%%%%%%%%%%%%%%%%%%%%%%%%%%%%%%%%%%%%%%%%%%%%%%%%%%%%%%%%%%oooooooooooooooo%%%%ooooooooooooooooooooooooooooooooooooooooooooooooooooooooooooooooooooooooooooooooooooooooooooooooooooooooooooooooooooooooooooooooooooooooooo@@@++@@@@@@@@@@@@@@@@@@@@@@@@@@@%%ooooooooooooooooooooooooooooooo%%==========================::===============::::::::::::=====================================%%%%%%%%%%%%%%oooooo",
"%%%%%%%%%%%%%%%%%%%%%%%%%%%%%%%%%%%%%%%%%%%%%%%%%%%%%%%%%%%%%%%%%%%%%%%%%%%%%%%%%%%%%%%%%%%%%%%%%%oooooooooooooooooooooooooooooooooooooooooooooooooooooooooooooooooo%%%%%%%%%%%%%%%%%%%%%%%%%%%ooooooooooooooooooooooooooooooooo%%%%%%%%%%%%%%%%%%%%%%%%%%%%%%%%%%%%%%%%%%%%%%%%oooooo%%%%%oooooooooooooooooooooo%%%ooooooooooooooooooooooooooooooooooooooooooooooooooooooooooooooooooooooooooooooooooooooooooooooooooooooooooooooooooooooooooooooooooooooooooo@@@@+@@@@@@@@@@@@@@@@@@@@@@@@@@@%%ooooooooooooooooooooooooooooooo%==========================::=================:::::::===:====================================%%%%%%%%%%%%%oooooooo",
"%%%%%%%%%%%%%%%%%%%%%%%%%%%%%%%%%%%%%%%%%%%%%%%%%%%%%%%%%%%%%%%%%%%%%%%%%%%%%%%%%%%%%%%%%%%%%%%%%%ooooooooooooooooooooooooooooooooooooooooooooooooooooooooooooooooo%%%%%%%%%%%%%%%%%%%%%%%%%%%%ooooooooooooooooooooooooooooooooo%%%%%%%%%%%%%%%%%%%%%%%%%%%%%%%%%%%%%%%%%%%o%%oooooooooo%oooooooooooooooooooooooooooooooooooooooooooooooooooooooooooooooooooooooooooooooooooooooooooooooooooooooooooooooooooooooooooooooooooooooooooooooooooooooooooooooooooooo@@@@@@@@@@@@@+@@@@@@@@@@@@@@@@@@%%oooooooooooooooooooooooooooooo%%%=========================::=====%=============:::::=============%%====%%%%====%%====%=====%=%%%%%%%%%%%%oooooooo",
"%%%%%%%%%%%%%%%%%%%%%%%%%%%%%%%%%%%%%%%%%%%%%%%%%%%%%%%%%%%%%%%%%%%%%%%%%%%%%%%%%%%%%%%%%%%%%%%%%%ooooooooooooooooooooooooooooooooooooooooooooooooooooooooooooooooo%%%%%%%%%%%%%%%%%%%%%%%%%%%%ooooooooooooooooooooooooooooooooo%%%%%%%%%%%%%%%%%%%%%%%%%%%%%%%%%%%%%%%%%%oo%%ooooooooooooooooooooooooooooooooooooooooooooooooooooooooooooooooooooooooooooooooooooooooooooooooooooooooooooooooooooooooooooooooooooooooooooooooooooooooooooooooooooooooooooooooo@@@@@@@@@@@@@++@@@@@@@@@@@@@@@@@%%%%ooooooooo%%ooooooooooooooo%%%%%========================:==:===%%%%===========::::=============%%%%%%%%%%%%%%%%%%%%%%%%%%%%%%%%%%%%%%%%%%ooooooo",
"%%%%%%%%%%%%%%%%%%%%%%%%%%%%%%%%%%%%%%%%%%%%%%%%%%%%%%%%%%%%%%%%%%%%%%%%%%%%%%%%%%%%%%%%%%%%%%%%%%ooooooooooooooooooooooooooooooooooooooooooooooooooooooooooooooooo%%%%%%%%%%%%%%%%%%%%%%%%%%%%ooooooooooooooooooooooooooooooooo%%%%%%%%%%%%%%%%%%%%%%%%%%%%%%%%%%%%%%%%%%oooooooooooooooooooooooooooooooooooooooooooooooooooooooooooooooooooooooooooooooooooooooooooooooooooooooooooooooooooooooooooooooooo+o@@ooooooo@@@@@@@@@oooooooooooooooooooooooooooooooo@@@+@@@@@@@@@@@@@@@@@@@@@@@@&@%%%%%%%%%%%%oo%%%%oooo%%%%%%%%%%%%%%==============================%%%%%%==========================%%%%%%%%%%%%%%%%%%%%%%%%%%%%%%%%%%%%%%%%%%%%oooooo",
"%%%%%%%%%%%%%%%%%%%%%%%%%%%%%%%%%%%%%%%%%%%%%%%%%%%%%%%%%%%%%%%%%%%%%%%%%%%%%%%%%%%%%%%%%%%%%%%%%%oooooooooooooooooooooooooooooooooooooooooooooooooooooooooooooo%%%%%%%%%%%%%%%%%%%%%%%%%%%%%%%%oooooooooooooooooooooooooooooooo%%%%%%%%%%%%%%%%%%%%%%%%%%%%%%%%%%%%%%%%%%oooooooooooooooooooooooooooooooooooooooooooooooooooooooooooooooooooooooooooooooooooooooooooooooooooooooooooooooooooooooooooooooooo@@@@@@@@@@@@@@@@@@@@oooooooooooooooooooooooooooooooo@@ooooooooooo%%%%%%%%%%%@@%%==%%%%%%%%%%%%%%%%%%%%%%%%%%%%%%%%%%%%%=============================%%%%%%%=%=======================%%%%%%%%%%%%%%%%%%%%%%%%%%%%%%%%%%%%%%%%%%%%%ooooo",
"%%%%%%%%%%%%%%%%%%%%%%%%%%%%%%%%%%%%%%%%%%%%%%%%%%%%%%%%%%%%%%%%%%%%%%%%%%%%%%%%%%%%%%%%%%%%%%%%%%oooooooooooooooooooooooooooooooooooooooooooooooooooooooooooooo%%%%%%%%%%%%%%%%%%%%%%%%%%%%%%%%oooooooooooooooooooooooooooooooooooooooooooooooo%%oooooooooooooooooooooooooooooooooooooooooooooooooooooooooooooooooooooooooooooooooooooooooooooooooooooooooooooooooooooooooooooo@@@oooooooooo@++oooo@@@@@@@@@@@@@+@@@@++@@@@@@@@@oooooooooooooooooooooooooooooooooooooooooooo%%%%%%%%%%%%%==%%%%%%%%%%%%%%%%%%%%%%%%%%%%%%%%%%%%%%====%%=====%===================%%%%%%%%%=======================%%%%%%%%%%%%%%%%%%%%%%%%%%%%%%%%%%%%%%%%%%%%%oooo",
"%%%%%%%%%%%%%%%%%%%%%%%%%%%%%%%%%%%%%%%%%%%%%%%%%%%%%%%%%%%%%%%%%%%%%%%%%%%%%%%%%%%%%%%%%%%%%%%%%%oooooooooooooooooooooooooooooooooooooooooooooooooooooooooooooo%%%%%%%%%%%%%%%%%%%%%%%%%%%%%%%%oooooooooooooooooooooooooooooooooooooooooooooooo%%oooooooooooooooooooooooooooooooooooooooooooooooooooooooooooooooooooooooooooooooooooooooooooooooooooooooooooooo@@@@@@@@@@@@@@@@@@@@@@@@@@@@@@+@@@@@@@@@@@@@+@@@@++@@@@+@@@@@@@@@ooooooooooooooooooooooooooooooooooooooooooo%%%%%%%%==========%%%%%%%%%%%%%%%%%%%%%%%%%%%%%%%%%%%%%%%%%%%%%%%%==================%%%%%%%%%======================%=%%%%%%%%%%%%%%%%%%%%%%%%%%%%%%%%%%%%%%%%%%%%%%ooo",
"%%%%%%%%%%%%%%%%%%%%%%%%%%%%%%%%%%%%%%%%%%%%%%%%%%%%%%%%%%%%%%%%%oooo%%%%%%%%%%%%%%%%%%%%%%%%%%%%%oooooooooooooooooooooooooooooo%%%%%%%%%%%%%%%%oooo%%%%%%%%%%%%%%%%%%%%%%%%%%%%%%%%%%%%%%%%%%%%oooooooooooooooooooooooooooooooooooooooooooooooo%ooooooooooooooooooooooooooooooooooooooooooooooooooooooooooooooooooooooooooooooooooooooooooooooooooooooooooooooo@@@@@@@@@@@@@@@@++@@@@@@@@@@@@@@@@@@@@@@@@+++@@@@@@@@@@@@@@@@@@@@ooooooooooooooooooooooooooooooooooooooooooo%%%%%%%==============%%%%%%%%%%%%%%%%%%%%%%%%%%%%%%%%%%%%%%%%%%%%%=%====%%========%%%%%%%%%%%%%=%%================%%%%%%%%%%%%%%%%%%%%%%%%%%%%%%%%%%%%%%%%%%%%%%%%%%%%",
"%%%%%%%%%%%%%%%%%%%%%%%%%%%%%%%%%%%%%%%%%%%%%%%%%%%%%%%%%%%%%%%%oooooo%%%%%%%%%%%%%%%%%%%%====%%%%oooooooooooooooooooooooooooooo%%%%%%%%%%%%%%%%%%%%%%%%%%%%%%%%%%%%%%%%%%%%%%%%%%%%%%%%%%%%%%%%oooooooooooooooooooooooooooooooooooooooooooooooooooooooooooooooooooooooooooooooooooooooooooooooooooooooooooooooooooooooooooooooooooooooooooooooooooooooooooooooo@@@@@@@@@@@@@@@@++@@@@@@@@@@@@@@@@@@@@@@@@@++@@@@@@@@@@@@@@@@++@@ooooooooooooooooooooooooooooooooooooooooooo%%%%%%%===============%%%%%%%%%%%%%%%%%%%%%%%%%%%%%%%%%%%%%%%%%%%%%%%%%%%%%======%%%%%%%%%%%%%%%%%%==========%=%%%%%%%======%%%%%%%%%%%%%%%%%%%%%%%%%%%%%%%%%%%%%%%%%%",
"%%%%%%%%%%%%%%%%%%%%%%%%%%%%%%%%%%%%%%%%%%%%%%%%%%%%%%%%%%%%%%%%oooo%o%%%%%%%%%%%%%%%%%%%====%%%%%oooooooooooooooooooooooooooooo%%%%%%%%%%%%%%%%%%%%%%%%%%%%%%%%%%%%%%%%%%%%%%%%%%%%%%%%%%%%%%%%oooooooooooooooooooooooooooooooooooooooooooooooooooooooooooooooooooooooooooooooooooooooooooooooo%%%%%%%%%%%%%%%%%%%%%%%%%%%%%%%%oooooooooooooooooooooooooooooooo@@@@+@@@@@++@@@@@@@@@@@@@@@@@@@@@@@@@@@@@@@@@@@@@@@@@@@@@@@@@@@@@ooooooooooooooooooooooooooooooooooooooooooo%%%%%%%================%%%%%%%%%%%%%%%%%%%%%%%%%%%%%%%%%%%%%%%%%%%%%%%%%%%%%=====%%%%%%%%%%%%%%%%%%=========%%%%%%%%%%%======%%%%%%%%%%%%%%%%%%%%%%%%%%%%%%%%%%%%%%%%%",
"%%%%%%==%%%%%%%%%%%%%%%%%%%%%%%%%%%%%%%%%%%%%%%%%%%%%%%%%%%%%%%%%ooo%%%%%%%%%%%%%%%%%%%%%=====%%%%oooooooooooooooooooooooooooooo%%%%%%%%%%%%%%%%%%%%%%%%%%%%%%%%%%%%%%%%%%%%%%%%%%%%%%%%%%%%%%%%oooooooooooooooooooooooooooooooooooooooooooooooooooooooooooooooooooooooooooooooooooooooooooooooo%%%%%%%%%%%%%%%%%%%%%%%%%%%%%%%%oooooooooooooooooooooooooooooooo@@@@++@@@@@+@@@@@@@@@@@@@@@@@@@@@@@@@@@@@@@@@@@@@@@@@@@@@@@@@@@@@ooooooooooooooooooooooooooooooooooooooooooo%%%%%%%================%%%%%%%%%%%%%%%%%%%%%%%%%%%%%%%%%%%%%%%%%%%%%%%%%%%%%%%%%%%%%%%%%%%%%%%%%%%%%=======%%%%%%%%%%%========%%%%%%====%%%%%%%%%%%%%%%%%%%%%%%%%%%%%%",
"%%%%%====%%%%%%%%%%%%%%%%%%%%%%%%%%%%%%%%%%%%%%%%%%%%%%%%%%%%%%%%%%%%%%%%%%%%%%%%%%%%%%%%=====%%%%oooooooooooooooooooooooooooooo%%%%%%%%%%%%%%%%%%%%%%%%%%%%%%%%%%%%%%%%%%%%%%%%%%%%%%%%%%%%%%%%oooooooooooooooooooooooooooooooooooooooooooooooooooooooooooooooooooooooooooooooooooooooooooooooo%%%%%%%%%%%%%%%%%%%%%%%%%%%%%%%%oooooooooooooooooooooooooooooooo@@@@@+@@@@@@@@@@@@+@@@@@@@@@@@+@@@@@+@@@@@@@@+@@@@@@@@++@@@@++@@oooooooooooooooooooooooooooooooooooooooooooo%%%%%%%%==%%%%========%%%%%%%%%%%%%%%%%%%%%%%%%%%%%%%%%%%%%%%%%%%%%%%%%%%%%%%%%%%%%%%%%%%%%%%%%%%%%%%%=%%%%%%%%%==%%%%===================%%%%%%%%%%%%%%%%%%%%%%%%%%%%%",
"%%%%%%===%=%%%%%%%%%%%%%%%%%%%%%%%%%%%%%%%%%%%%%%%%%%%%%%%%%%%%%%%%%%%%%%%%%%%%%%%%%%%%%%====%%%%%oooooooooooooooooooooooooooooo%%%%%%%%%%%%%%%%%%%%%%%%%%%%%%%%%%%%%%%%%%%%%%%%%%%%%%%%%%%%%%%%oooooooooooooooooooooooooooooooooooooooooooooooooooooooooooooooooooooooooooooooooooooooooooooooo%%%%%%%%%%%%%%%%%%%%%%%%%%%%%%%%oooooooooooooooooooooooooooooooo@@+@@@@@@@@@@@@@@@+@@@XXX@+@@++@@@+++@@@@@@@++@@@+++@@+@@@@++@@@ooooooooooooooooooooooooooooooooooooooooooo%%%%%%%%%%%%%%%%==%=%%%%%%%%%%%%%%%%%%%%%%%%%%%%%%%%%%%%%%%%%%%%%%%%%%%%%%%%%%%%%%%%%%%%%%%%%%%%%%%%%%%%%%%=====%====%====================%%%%%======%%%%%%%%%%%%%%%%%%",
"%%%%%%====%%%%%%%%%%%%%%%%%%%%%%%%%%%%%%%%%%%%%%%%%%%%%%%%%%%%%%%%%%%%%%%%%%%%%%%%%%%%%%%%===%%%%%%%oooooooooooooooooooooooooooooooooooooooooooooooooooooooooooooooooooooooooooooooooooooooooooooooooooooooooooooooooooooooooooooooooooooooooooooooooooooooooooooooooooooooooooooooooooooooooooooooooooooooooooooooooooooooooooooooooooooooooooooooooooooooooooo@@@@o@@@@++@@@@@@@X@XXXXXXXX@@X@@@@@@@@@@@@@@@@@@@@@@@@@@@oooooooooooooooooooooooooooooooooooooo%%%%%%%%%%%%%%%%%%%%%%%%%%====%%%%%%%%%%%%%%%%%%%%%%%%%%%%%%%%%%%%%%%%%%%%%%%%%%%%%%%%%%%%%%%%%%%%%%%%%%%%%%%%%%%%%%%%====%%%=======================%%%%%%%%%=======%%%%%%%%%ooooo",
"%%==%%==%%=%%%%%%%%%%%%%%%%%%%%%%%%%%%%%%%%%%%%%%%%%%%%%%%%%%%%%%%%%%%%%%%%%%%%%%%%%%%%%%%%%%%%%%%%%oooooooooooooooooooooooooooooooooooooooooooooooooooooooooooooooooooooooooooooooooooooooooooooooooooooooooo%%%%%%%%%%%%%%%%%ooooooooooooooooooooooooooooooooooooooooooooooooooooooooooooooooooooooooooooooooooooooooooooooooooooooooooooooooooooooooooooooooo@@@@@@@@++@@@@@@XXXXXXXXXXXX@@@@@@@@@@@@@@@@@@@@ooo@oooooooooooooooooooooooooooooooooooooooooooo%%%%%%%%%%%%%%%%%%%%%=========%%%%%%%%%%%%%%%%%%%%%%%%%%%%%%%%%%%%%%%%%%%%%%%%%%%%%%%%%%%%%%%%%%%%%%%%%%%%%%%%%%%%%%%%====%%%======:================%%%%%%%%%%%%%%%%%%%%%%%ooooo@@",
"%%===%%%%%==%%%%%%%%%%%%%%%ooo%%%%%%%%%%%%%%%%%%%%%%%%%%%%%%%%%%%%%%%%%%%%%%%%%%%%%%%%%%%%%%%%%%%%%%ooooooooooooooooooooooooooooooooooooooooooooooooooooooooooooooooooooooooooooooooooooooooooooooooooooooooo%%%%%%%%%%%%%%%%%%ooooooooooooooooooooooooooooooooooooooooooooooooooooooooooooooooooooooooooooooooooooooooooooooooooooooooo@ooooooooooooooooooooooo@@@@@@@@XXXXXX@@XXXXXXXXXXXX@@@@@@@@oooooooooooooooooooooooooooooooooooooooooooooooooooooooooooo%%%%%%%%%%%%%%%%%%%%%%%%%%%%%%%%%%%%%%%%%%%%%%%%%%%%%%%%%%%%%%%%%%%%%%%%%%%%%%%%%%%%%%%%%%%%%%%%%%%%%%%%%%%%%%%%%%%%%%%%%%%%%======:===:=============%%%@%%%%%%%%%%%%%%%ooo@@XXXXX",
"%%===%%%%%%%%%%%%%%%%%%%%%%ooo%%%%%%%%%%%%%%%%%%%%%%%%%%%%%%%%%%%%%%%%%%%%%%%%%%%%%%%%%%%%%%%%%%%%o%ooooooooooooooooooooooooooooooooooooooooooooooooooooooooooooooooooooooooooooooooooooooooooooooooooooooooo%%%%%%%%%%%%%%%%%%ooooooooooooooooooooooooooooooooooooooooooooooooooooooooooooooooooooooooooooooooooooooooooooooooooo@@@@@@@@@@@@@@@@@@@@@@@@@@@@@@@@@@@@@@XXXXXXXXXXXXXXXXXXXX@@@@@@@@oooooooooooooooooooooooooooooooooooooooooooooooooooooooooooo%%%%%%%%%%%%%%%%%%%%%%%%%%%%%%%%%%%%%%%%%%%%%%%%%%%%%%%%%%%%%%%%%%%%%%%%%%%%%%%%%%%%%%%%%%%%%%%%%%%%%%%%%%%%%%%%%%%%%%%%%%%%%%==%==================%=%%%%%%@%%%%%%%%o@@@@@@XXXXXXX",
"%%==%%%%%%%%%=%%%%%o%%%%%ooooo%%%%%%%%%%%%%%%%%%%%%%%%%%%%%%%%%%%%%%%%%%%%%%%%%%%%%%%%%%%%%%%%%%%%ooooooooooooooooooooooooooooooooooooooooooooooooooooooooooooooooooooooooooooooooooooooooooooooooooooooooooo%%%%%%%%%%%%%%%%%%oooooooooooooooooooooooooooooooooooooooo@oooooooooooooooooooooooooooooooooooooooooooooooooooooooo@@@@@@@@@@@@@@@@@@@@@@@@@@@@@@@@@@@@@@@@XXXXXXXXXXXXXXXXXXXX@@@@@@oooooooooooooooooooooooo%%%%%%oooooooooooooooooooooooooooooooo%%%%%%%%%%%%%%%%%%%%%%%%%%%%%%%%%%%%%%%%%%%%%%%%%%%%%%%%%%%%%%%%%%%%%%%%%%%%%%%%%%%%%%%%%%%%%%%%%%%%%%%%%%%%%%%%%%%%%%%%%%@@@@@@@@=====&=============%%%%%@@%%@@@@@XXXXXXXXXXXXXXX",
"==%%%%%%%%%%%=%%%%oo%%%%ooooo%%%%%%%%%%%%%%%%%%%%%%%%%%%%%%%%%%%%%%%%%%%%%%%%%%%%%%%%%%%%%%%%%%%%%ooooooooooooooooooooooooooooooooooooooooooooooooooooooooooooooooooooooooooooooooooooooooooooooooooooooooooo%%%%%%%%%%%%%%%%%%oooooooooooooooooooooooooooooooooooooooo@ooooooooooooooooooooooo@oooooooooooooooooooooooooooooooo@@@@@@@@@@@@@@@@@@@@@@@@@@@@@@@@@@XXXXXXXXXXXX@@@@@@@@@@@@@@@@oooooooooooooooooooooo%%%%oo%%%%%%oooooooooooooooooooooooooooooooo%%%%%%%%%%%%%%%%%%%%%%%%%%%%%%%%%%%%%%%%%%%%%%%%%%%%%%%%%%%%%%%%%%%%%%%%%%%%%%%%%%%%%%%%%%%%%%%%%%%%%%%%%%%%%%%%%%%%%%%%%%%@%%@&&=====&&========@@@%%%@@@@@XXX@@XXXXXX..XXXXXXX@@@",
"==%%%%%===%%%%%%%%%%%%ooo%%%%%%oo%%%%%%%%%%%%%%%%%%%%%%%%%%%%%%%%%%%%%%%%%%%%%%%%%%%%%%%%%%%%%%%%%ooooooooooooooooooooooooooooooooooooooooooooooooooooooooooooooooooooooooooooooooooooooooooooooooooooooooooo%%%%%%%%%%%%%%%%%%ooooooooooooooooooooooooooooooooooooooooooooooooooooooooooooooo@ooooooooooooooooooooo@@@@@@@@@@@@@@@@@@@@@@@XXX@@@@@@XXXX@@XXXX@@XXXXXXXX@@@@X@@@@@@@@@@@@@@@oooooooooooooooooooo%%%%%%%%%%oooooooooooooooooooooooooooooooooooooo%%%%%%%%%%%%%%%%%%%%%%%%%%%%%%%%%%%%%%%%%%%%%%%%%%%%%%%%%%%%%%%%%%%%%%%%%%%%%%%%%%%%%%%%%%%%%%%%%===%%%%%%%%%%%%%%%%%%%%%%%%%==========&==@@@@@@@@@XXXXXXXXXXXXXXXX@@@@@@@%o@o@o%%",
"===%%%%===%%%%o%%%%%%%oo%%%%%%%oo%%%%%%%%%%%%%%%%%%%%%%%%%%%%%%%%%%%%%%%%%%%%%%%%%%%%%%%%%%%%%%%%%ooooooooooooooooooooooooooooooooooooooooooooooooooooooooooooooooooooooooooooooooooooooooooooooooooooooooooo%%%%%%%%%%%%%%%%%%ooooooooooooooooooooooooooooooooooooooooooooooooooooooooooooooo@@@@@@@@@@@@@@@@@@@@@@@@@@@@@@@@@@@XXX@@@@@XXXXX@@@@@@XXXX@@XXX@@@@@@@@@@@@@@@@@@@@@@@oooooooooooooooooooo%%%%%ooo%%%%oooooooooooooooooooooooooooooooooooooooooooo%%%%%%%%%%%%%%%%%%%%%%%%%%%%%%%%%%%%%%%%%%%%%%%%%%%%%%%%%%%%%%%%%%%%%%%%%%%%%%%%%%%%%%%%%%%%%%%%%===%%%%%%%%%%%%%%%%%%%===%==========&&&@@@@@@@@XXXXXXXXXXXXXXXX@@@%%%%%%%%%oooo%%",
"%%====%%==%%%%%%==%%%%%%%%%%%%%%%%%%%%%%%%%%%%%%%%%%%%%%%%%%%%%%%%%%%%%%%%%%%%%%%%%%%%%%%%%%%%%%%%ooooooooooooooooooooooooooooooooooooooooooooooooooooooooooooooooooooooooooooooooooooooooooooooooooooooooooo%%%%%%%%%%%%%%%%ooooooooooooooooooooooooooooooooooo@@@@@@oooooo@@@@oooo@@@@@@@oooo@@@@@@@@@@@@@@@@@@@@@@@@@@@@@@@@@@XX@@@@@@@@@@@@@@@@@@@@@@@XXX@@@@@@@@@@@@@@@@@oooooooooooooooooooo%%%%%%%%%%%%ooooooooooooooooooooooooooooooooooooooooooooooooooooooooooooooooooooooooooooooooo%%%%%%%%%%%%%%%%%%%%%%%%%%%%%%%%%%%%%%%%%%%%%%%%%%%%%%%%%%%%%%%%%%%%%%%%%%%%%%%%%%%%%%%%%%%%%%%=%&@@@#@@#@XXXXXX@XXXXXXXX@@@@@@%%%%%%%%%%%%%%oooooo",
"======%%======%%==%%==%%%%%o%%%%%%%%%%%%%%%%%%%%%%%%%%%%%%%%%%%%%%%%%%%%%%%%%%%%%%%%%%%%%%%%%%%%%%ooooooooooooooooooooooooooooooooooooooooooooooooooooooooooooooooooooooooooooooooooooooooooooooooooooooooooo%%%%%%%%%%%%%%%%ooooooooooooooooooooooooooooooooooo@@@@@@@@@@@@@@@@@@@@@@@@@@@@@@@@@@@@@@@@@@@@@@@@@@@@X@XX@@XXX@@@@@@@@@@@@@@@@@@@@@@@@@@@@@@@@@@@@oo@oooooooooooooooo%%%%%%%%%%%%%%%%%%%%ooooooooooooooooooooooooooooooooooooooooooooooooooooooooooooooooooooooooo%oooooooooooooo%%%%%%%%%%%%%%%%%%%%%%%%%%%%%%%%%%%%%%%%%%%%%%%%%%%%%%%%%%%%%%%%%%%%%%======%%%%%%%%%@@@@@@@@XXX@@XXXXXXXXXXXX@@XXX@@@@@@@%%%%%=%%%%%%%%@%%ooooooo",
"====::====%=::===%%%=====%%%%%%%%%%%%%%%%%%%%%%%%%%%%%%%%%%%%%%%%%%%%%%%%%%%%%%%%%%%%%%%%%%%%%%%%%ooooooooooooooooooooooooooooooooooooooooooooooooooooooooooooooooooooooooooooooooooooooooooooooooooooooooooo%%%%%%%%%%%%%%%%%ooooooooooooooooooooooooooooooooo@@@@@@++@@@@@@@@@@@@@@@@@+@@@@@@@@@XXXXXXXXXXXXXXXXXXXXXXXXXXXXXX@@@@@@@@@@@@oooo@@@@@@oo@@@@@@@@oooooooooooooo%%oooo%%%%%%%%%%%%%%%ooooooooooooooooooooooooooooooooooooooooooooooooooooooooooooooooooooooooooooooooooooooooooooo%%%%%%%%%%%%%%%%%%%%%%%%%%%%%%%%%%%%%%%%%%%%%%%%%%%%%%%%%%%%%%%%%%%%%%%%%%==%%%%%%@@@@@@XXXXXXXXXXXXXXXXXX@@@@@@@@@@%%%%%%%%%%%%%%%%%ooo@@@ooooooo",
"::==:::=====::====%=====%%====%%%%%%%%%%%%%%%%%%%%%%%%%%%%%%%%%%%%%%%%%%%%%%%%%%%%%%%%%%%%%%%%%%%%ooooooooooooooooooooooooooooooooooooooooooooooooooooooooooooooooooooooooooooooooooooooooooooooooooooooooooo%%%%%%%%%%%%%%%%%ooooooooooooooooooooooooooooooooo@+@@@@+++@@@@@@@@@@@@@@@@@@@@@@X@@XXXXXXXXXXXXXXXXXXXXXXXXXXXXX@@@@@ooooo@@@@oooooooooooo@@@@oooooooooooo%%%%%%%%oooo%%%%%%oooooooooooooooooooooooooooooooooooooooooooooooooooooooooooooooooooooooooooooooooooooooooooooooooooooo%%%%%%%%%%%%%%%%%%%%%%%%%%%%%%%%%%%%%%%%%%%%%%%%%%%%%%%%%%%%%%%%%%%%%%%%%%%%@@@@@@@XXXXXXXXXXXXXX@@@XXX@@@@@@@%%@@@@%%%%%%%%%%%%%%%ooooo@@@ooooooo",
"<::===:::::====:::::===%%==::=%%%%%%%%%%%%%%%%%%%%%%%%%%%%%%%%%%%%%%%%%%%%%%%%%%%%%%%%%%%%%%%%%%%oooooooooooooooooooooooooooooooooooooooooooooooooooooooooooooooooooooooooooooooooooooooooooooooooooooooooooo%%%%%%%%%%@@@@@@@+@ooooooooooooooooooooooooooooooo@@@@@@@@@@@@@@@@@@@@@@@@X@@XXXXXXXXXXXXXXXXXXXXXXXXXXXXXXXXXXX@@@@ooooooooooooooooooooooooooooooooo%%%%%%%%oo%%%%%%%%oooooooooooooooooooooooooooooooooooooooooooooooooooooooooooooooooooooooooooooooooooooooooooooooooooooooooooo%%%%%%%%%%%%%%%%%%%%%%%%%%%%%%%%%%%%%%%%%%%%%%%%%%%%%%%%%%%%%%%%%%%%%%@@@@@@XXXXXXXXXXXXXXXXXXX@@@@@@&&&&&@@%%%%%%%%%%%%%%%%%%%%%%%%ooooo@@@oo@@oo",
"<<:==:::::::===:::::======::===%%%%%%%%%%%%%%%%%%%%%%%%%%%%%%%%%%%%%%%%%%%%%%%%%%%%%%%%%%%%%%%%%ooooooooooooooooooooooooooooooooooooooooooooooooooooooooooooooooooooooooooooooooooooooooooooooooooooooooooooo@@@@@@@@@@@@@@@@@+@ooooooooooooooooooooooooooooooo@@@@@@@@@@@@@@@@@@@XX@XX@@@XX@XXXXXXXXXXXXXXXXXXXXXXXXXXXXXXX@@@@@ooooooooooooooooooooooooooooooo%%%%%%%%%%%%%%oooooooooooooooooooooooooooooooooooooooooooooooooooooooooooooooooooooooooooooooooooooooooooooooooooooooooooooooooo%%%%%%%%%%%%%%%%%%%%%%%%%%%%%%%%%%%%@@@@@@@@%%%%@@@@@@@@%%%%@@@@%%@@@@@@@@XXXXXXXXXXXX@@@@@@@@@@@@@@@======%=%%%%%%%%%%%%%%%%%%%%%%%oooooo@@oo@@oo",
":::<:::::::<:=::==::==:::::======%%%%%%%%%%%%%%%%%%%%%%%%%%%%%%%%%%%%%%%%%%%%%%%%%%%%%%%%%%%%%%%ooooooooooooooooooooooooooooooooooooooooooooooooooooooooooooooooooooooooooooooooooooooooooooooooooooo@@@@@@@@@@@@@@@@@@@@@@@@@@@ooooooooooooooooooooooooooooooo@@@@@@@X@XX@X@@XX@XXX@@@@@XXX@@@@XXXXXXXXXXXXXX@@@@@@@#@@@@@@@@@%oooooooooooo%%%%%ooo%%%%%%%%oooo%%%%%%%%ooooooooooooooooooooooooooooooooooooooooooooooooooooooooooooooooooooooooooooooooooooooooooooooooooooooooooooooooooooooooo%%%%%%%%%%%%%%%%%%%%%%%%%%%%%%%%%%%@@@@@@@@@@@@@@@@@@@@@@@@@@@@@@@@XXXX@XX@X@@@@@@@@@%%%%%%%%%%=@@@%%%===%%%%%%%%%%%=%%%%%%%%%%%%%%oooooooooooooo",
":::<<<:::::::::::=::==:::========%%%%%%%%%%%%%%%%%%%%%%%%%%%%%%%%%%%%%%%%%%%%%%%%%%%%%%%%%%%%%%%oooooooooooooooooooooooooooooooooooooooooooooooooooooooooooooooooooooooooooooooooooooooooooooooo@@@@@@@@@@@@@@@@@@@@@@@@@@@@@@@@@@@@@@@@@@@@@@@@@@@@@@@@@@@@@@@@@XX@@@XXXXXX@@XX@XXX@@@@@+XX@@@@@@@@@@@@@@@@@@@@@@@@@@@@@@@@@@@%%ooooooooooooooooooooooooooooooooooooooooooooooooooooooooooooooooooooooooooooooooooooooooooooooooooooooooooooooooooooooooooooooooooooooooooooooooooooooooooooooooo%%%%%%%%%%%%%%%%%%%%%%%%%%%%%%%%%%%%%@@@@@@@@@@@@@@@@@XXXXXXXXXXXXXXX@@@@@@@@%%%%=%%%===%%%%%==========%%@%%%%%%%%%%%%%%%%%%%%%%%%oooooooooooooo",
"::::<:<:::::::<<==::::::=========%%%%%%%%%%%%%%%%%%%%%%%%%%%%%%%%%%%%%%%%%%%%%%%%%%%%%%%%%%%%%%%oooooooooooooooooooooooooooooooooooooooooooooooooooooooooooooooooooooooooooooooooooooooooooooooo@@@@@@@@+++@@@+@@@@++@@@@@@@@@@@++@@@@+@@@@@@@@@@@@@@@@@@@@@@@@@@XXXXX@@@XXXXXXXXXXX@@@@XXXX@@@@@@@@@@@@@@@@@@@@@@@@@%%%%%%%%%%%%%oooooooooooooooooooooooooooooooooooooooooooooooooooooooooooooooooooooooooooooooooooooooooooooooooooooooooooooooooooooooooooooooooooooooooooooooooooooooooooooooo%%%%%%%%%%%%%%%%%%%%%%%%%%%%%%%@@@@@@@@@@@@@@@@@XXXXXXXXXXXXX@@@@@@@@@@@%%%===%%%%=======%%%%============%%%%%%%%%%%%%%%@@%%%%%%%%%%%%oooooooooo",
"::::::::::::::::==::::::===:====%%%%%%%%%%%%%%%%%%%%%%%%%%%%%%%%%%%%%%%%%%%%%%%%%%%%%%%%%%%%%%%%oooooooooooooooooooooooooooooooooooooooooooooooooooooooooooooooooooooooooooooooooooooooooooooooo@@@@@@@@++@@@@+@@@@@+@@@@@@@@@@@+@@@@++@@@@@@@@@@@@@@@@@@@@@@@@@@@XXXX@@@@XX@@XXXXXX@@@@XXXX@@@@@@@@@@@@%%%%%%%%%%%%%%%%%%%%%%%%ooooooooooooooooooooooooooooooooooooooooooooooooooooooooooooooooooooooooooooooooooooooooooooooooooooooooooooooooooooooooooooooooooooooooooooooooooooooooooooooooo%%%%%%%%%%%%%%%%%%%%%%%%%%%%%%%@@@@@XXX@@XXXX@@@@XXXX@@@@@@@@@@@@@@%%%%%%%%%===%%%%=%%%%%%%%%%==========%%%%%%%%%%%%%%%%@@@@o%%%%%%%%%%oooooooooo",
"<:::=:::::::=====:::=======:===%%%%%%%%%%%%%%%%%%%%%%%%%%%%%%%%%%%%%%%%%%%%%%%%%%%%%%%%%%%%%%%%%oooooooooooooooooooooooooooooooooooooooooooooooooooooooooooooooooooooooooooooooooooooooooooooooo@@@@@@@@@@@@@@@@@@@@@@@@@+@@@@++@@@@@@@@@@@@@+@@@@@@++@@@@+@@+@@@@@@@@@@@@@@@@@@@@@@@@@@@@@@@@@@@%%o%%%%%%%%%%%%%%%%%%%%%%%%%%%%%oooooooooooooooooooooooooooooooooooooooooooooooooooooooooooooooooooooooooooooooooooooooooooooooooooooooooooooooooooooooooooooooooooooooooooooooooooooooooooooooooo%%%%%%%%%%%%%%%%%%%%%%%%%@@@@@@@@@@X@@@@@XXX@@@@@@@@@@@@@@@%%%%%%%%%%%%%%%%%%%%%%%%%%%%%%%========%%%%%%%%%%%%%%%%%%%%%@@%%%%%%%%%%%%oooooooooo",
"::::===:::::=====:::==%%=======%%%%%%%%%%%%%%%%%%%%%%%%%%%%%%%%%%%%%%%%%%%%%%%%%%%%%%%%%%%%%%%%%oooooooooooooooooooooooooooooooooooooooooooooooooooooooooooooooooooooooooooooooooooooooooooooooo@@@@@@@@@@@@@@@@@@@@@@@@+@+@@@++@@@@@@@@+@@@@+@@@@@@++@@@@++@++@@@@@@@@@@@@@@@@@@@@@@@@@@@@@@@@oo%oo%%%%%%%%%%%%%%%%%%%%%%%%%%%%ooooooooooooooooooooooooooooooooooooooooooooooooooooooooooooooooooooooooooooooooooooooooooooooooooooooooooooooooooooooooooooooooooooooooooooooooooooooooooooooooo%%%%%%%%%%%%%%%%%%%%%%%%%%%@@@@@@@@@@@@@@@@@@@@@@@@@@%@@@%%@@%%%%%%%%%%%%%%%%%%%%%%%%%%%%%%====%====%%%%%%%%%%%%%%%%%%%%%%%%%%%%%%%%%%%oooooooooo",
"==::::====================%%%%%%%%%%%%%%%%%%%%%%%%%%%%%%%%%%%%%%%%%%%%%%%%%%%%%%%%%%%%%%%%%%%%%%oooooooooooooooooooooooooooooooooooooooooooooooooooooooooooooooooooooooooooooooooooooooooooooooo@@++@+@@@@@@@@@@@@++@++@@@@@@@@@@@@@@@@@+@@@@@@@@@@@@+@@@@@@@@@@@@@@&&@@@@@@@@@@@@@@@@@@@@@@@oooo%%%%%%%%%%%%%%%%%%%%%%%%%%%%%%%ooooooooooooooooooooooooooooooooooooooooooooooooooooooooooooooooooooooooooooooooooooooooooooooooooooooooooooooooooooooooooooooooooooooooooooooooooooooooooooooooo%%%%%%%%%%%%%%%%%%%%%%%%%%%%%@@@@@@@@@@@@@@@@@@@@@@@@@@%%%%%%%%%%%%%%%%%%%%%%%%%%%%%%%%%%%%%%%%====%%%%%%%%%%%%%%%%%%%%%%%%%oo%%%%%%%%%oooooooooo",
"%==:::============%%=====%%o%%%%%%%%%%%%%%%%%%%%%%%%%%%%%%%%%%%%oooooooo%%oooooooooooooooooooooooooooooooooooooooooooooooooooooooooooooooooooooooooooooooooooooooooooooooooooooooooooooooooooooo@@+++@@@@@@@@@@@@@+@@+@@@@@@@@@@@@@@@@@@++@@@@@@@@@@+@@@@@@@@@@@@@&&&=====&&====%%%%%%%%%%%%%%%%%%%%%%%%%%%%%%%%%%%%%%%%%%%%%%%%ooooooooooooooooooooooooooooooooooooooooooooooooooooooooooooooooooooooooooooooooooooooooooooooooooooooooooooooooooooooooooooooooooooooooooooooooooooooooooooooooo%%%%%%%%%%%%%%%%%%%%%%%%%%%%%%%%%%%@@@@@@oo%%%%%%%%%%%@%%%%%%%%%%%%%%%%%%%%%%%%%%%%%%%%%%%%%%%%%%%%%%%%%%%%%%%%%%%%%%%%%%%%oooo%%%%%%%%oooooooooo",
"==========%%=====%%%==%%%%%%%%%%%%%%%%%%%%%%%%%%%%%%%%%%%%%%%%%%%ooooooo%ooooooooooooooooooooooooooooooooooooooooooooooooooooooooooooooooooooooooooooooooooooooooooooooooooooooooooooooooooooooo@@@@@@@@++@@@@@@@@@@@@@@@@@@@@@@++@@@@@@@@@@@@@@@@@@@@@@@@@@@o%%@@==::===&&&=====@%%%%%%%%%%%%%%%%%%%%%%%%%%%%%%%%%%%%%%%%%%%%%%ooooooooooooooooooooooooooooooooooooooooooooooooooooooooooooooooooooooooooooooooooooooooooooooooooooooooooooooooooooooooooooooooooooooooooooooooooooooooooooooooo%%@@@@@@@@@@@@@@@@@@@@@@@@@@%%%%%%%%%%%%%%%%%%%%%%%%%%%%%%%%%%%%%%%%%%%%%%%%%%%%%%%%%%%%%%%%%%%%%%%%%%%%%%%%%%%%%%%%%%%%%%ooooo%%%%%%%%oooooooooo",
"==%%======%%==%%%%o%%%%%%%%%%%%%%%%%%%%%%%%%%%%%%%%%%%%%%%%%%%%ooooooooooooooooooooooooooooooooooooooooooooooooooooooooooooooooooooooooooooooooooooooooooooooooooooooooooooooooooooooooooooooooo@@@@@@@@@@@@@@@@@@@@@@@@@@@@@@@@@+@@+++@@@@@@@@@@@@@@@@@@@oooo%%====::===========%%%%%%%%%%%%%%%%%%%%%%%%%%%%%%%%%%%%%%%%%%%%%%%oooooooooooooooooooooooooooooooooooooooooooooooooooooooooooooooooooooooooooooooooooooooooooooooooooooooooooooooooooooooooooooooooooooooooooooooooooooooooooooo@@o%%@@@@@@@@@@@@@@@@@@@@@@@@@%%%%%%%%%%%%%%%%%%%%%%%%%%%%%%%%%%%%%%%%%%%%%%%%%%%%%%%%%%%%%%%%%%%%%%%%%%%%%%%%%%%%%%%%%%%%%%oooooo%%%%%%%%%ooooooooo",
"==%%%%%====%%%%%%=%%%%oo%%%%%%%oooo%%%%%%%%%%%%%%%%%%%%%%%%%%%%ooooooooooooooooooooooooooooooooooooooooooooooooooooooooooooooooooooooooooooooooooooooooooooooooooooooooooooooooooooooooooooooooo@@@@@@@@@@@@@@@@@@@@@@@@@@@@@@@@@@@@@@@@@@@@@@@@@@@@oooooooooo%%================%%%%%%%%%%%%%%%%%%%%%%%%%%%%%%%%%%%%ooooooooooooooooooooooooooooooooooooooooooooooooooooooooooooooooooooooooooooooooooooooooooooooooooooooooooooooooooooooooooooooooooooooooooooo@@@@@@@@@@@@@@@@@@@@@@@@@@@@@@@@@@@@@@@@@@@@@@@@@@@@@@@@@@@@%%%%%%%%%%%%%%%%%%%%%%%%%%%%%%%%%%%%%%%%%%%%%%%%%%%%%%%%%%%%%%%%%%%%%%%%%%%%%%%%%%%%%%%%%%ooooooooo%%%%%%%%%%%%%%oooo",
"=%=%%%%%===%%%%%%=%%%%oo%%%%%%ooooo%%%%%%%%%%%%%%%%%%%%%%%%%%%%ooooooooooooooooooooooooooooooooooooooooooooooooooooooooooooooooooooooooooooooooooooooooooooooooooooooooooooooooooooooooooooooooo@@@@@@@@@@@@@@@@@@@@@@@@@@@@@@@@@@@@@@@@@@@@@@oooooooooooooooo%%===============%%%%%%%%%%%%%%%%%%%%%%%%%%%%%%%oo%%%%ooooooooooooooooooooooooooooooooooooooooooooooooooooooooooooooooooooooooooooooooooooooooooooooooooooooooooooooooooooooooooooooooooooooooooooo@@@@@@@@@@@@@@@@@@@@@@@@@@@@@@@@@@@@@@@@@@@@@@@@@@@@@@@@@@@@%%%%%%%%%%%%%%%%%%%%%%%%%%%%%%%%%%%%%%%%%%%%%%%%%%%%%%%%%%%%%%%%%%%%%%%%%%%%%%%%%%%%%%%%ooooooooooo%%%%%%%%%%%%%%oooo",
"%%==%%%%%%%%%%%%%%%%%%%%%%oooo%%ooo%%%%%%%%%%%%%%%%%%%%%%%%%%%%ooooooooooooooooooooooooooooooooooooooooooooooooooooooooooooooooooooooooooooooooooooooooooooooooooooooooooooooooooooooooooooooooo@@++@@@@@@@@@@@@@@++@@@@@@@@@@@@@@@@@@@@ooooooooooooooooooooo%%%============%%%%%%%%%%%%oooo%%%%%%%%%%%%oooooooooo%%ooooooooooooooooooooooooooooooooooooooooooooooooooooooooooooooooooooooooooooooooooooooooooooooooooooooooooooooooooooooooooooooooooooooooooooo@@@@@@@@@@@@@@@@@@@@@@@@@@@@@@@@%%%%%%%%%%%%%%%%%%%%%%%%%%%%%%%%%%%%%%%%%%%%%%%%%%%%%%%%%%%%%%%%%%%%%%%%%%%%%%%%%%%%%%%%%%%%%%%%%%%%%%%%%%%%%%%%%%%%ooooooooooo%%%%%%%%%%%%%%oooo",
"%%===%%%%%%%%%%%%%%%%%%%%%oooo%%%%%%%%%%%%%%%%%%%%%%%%%%%%%%%%%ooooooooooooooooooooooooooooooooooooooooooooooooooooooooooooooooooooooooooooooooooooooooooooooooooooooooooooooooooooooooooooooooo@@@+@@@@@@@@@@@@@@@+@@@@@@@@@%%%@@ooooooooooooooooooooooooooo%%%%===========%%%%%%%%%%%%oooooo%%%%%oooooooooooooo%%%ooooooooooooooooooooooooooooooooooooooooooooooooooooooooooooooooooooooooooooooooooooooooooooooooooooooooooooooooooooooooooooooooooooooooooooo@@@@@@@@@@@@@@@@@@@@@@@@@@@@@@@@%%%%%%%%%%%%%%%%%%%%%%%%%%%%%%%%%%%%%%%%%%%%%%%%%%%%%%%%%%%%%%%%%%%%%%%%%%%%%%%%%%%%%%%%%%%%%%%%%%%%%%%%%%%%%%%%%%%%ooooooooooo%%%%%%%%%%%%%%oooo",
"%%%%===%%%%%%%%%%%%%%%%%ooo%%%%%%%%%%%%%%%%%%%%%%%%%%%%%%%%%%%%oooooooooooooooooooooooooooooooooooooooooooooooooooooooooooooooooooooooooooooooooooooooooooooooooooooooooooooooooooooooooooo%oooo@@@@@@@@+@@@@%%%%%%%%%%=%%====%%%%%%oooooooooooooooooooooooo%%%%%=======%%=%%%%%ooooooooooooooooooooooooooooooooooooooooooooooooooooooooooooooooooooooooooooooooooooooooooooooooooooooooooooooooooooooooooooooooooooooooooooooooooooooooooooooooooooooooooooooooo@@@@@@@@@@@@@@@@@@@@@@@@@@@@@@@@%%%%%%%%%%%%%%%%%%%%%%%%%%%%%%%%%%%%%%%%%%%%%%%%%%%%%%%%%%%%%%%%%%%%%%%%%%%%%%%%%%%%%%%%%%%%%%%%%%%%%%%%%%%%%%%%%%%%ooooooooooo%%%%%%%%%%%%%%oooo",
"%%%%====%%%%%%%%%%%%%%%%oo%%%%%%%%%%%%%%%%%%%%%%%%%%%%%%%%%%%%%ooooooooooooooooooooooooooooooooooooooooooooooooooooooooooooooooooooooooooooooooooooooooooooooooooooooooooooooooooooooo%%%%%%%%oooooo%%%%%%o%%%%==%============%%%%%%oooooooooooooooooooooooo%%%%%%===%%%%%%%%%%%ooooooooooooooooooooooooooooooooooooooooooooooooooooooooooooooooooooooooooooooooooooooooooooooooooooooooooooooooooooooooooooooooooooooooooooooooooooooooooooooooooooooooooooooooo@@@@@@@@@@@@@@@@@@@@@@@@@@@@@@@@%%%%%%%%%%%%%%%%%%%%%%%%%%%%%%%%%%%%%%%%%%%%%%%%%%%%%%%%%%%%%%%%%%%%%%%%%%%%%%%%%%%%%%%%%%%%%%%%%%%%%%%%%%%%%%%%%%%%%oooooooooo%%%%%%%%%%%%%%oooo",
"%%%=====%%==%%%%%%%%%%%%%%%%%%%%%%%%%%%%%%%%%%%%%%%%%%%%%%%%%%%ooooooooooooooooooooooooooooooooooooooooooooooooooooooooooooooooooooooooooooooooooooooooooooooooooooooooooooooooooooo%%%%%%%%%%ooooo%%%%%%%%%==================%%%%%%oooooooooooooooooooooooo%%%%%%%=%%%%%%%%%oooooooooooooooooooooooooooooooooooooooooooooooooooooooooooooooooooooooooooooooooooooooooooooooooooooooooooooooooooooooooooooooooooooooooooooooooooooooooooooooooooooooooooooooooooo%@@@@@@@@@@@@@@@@@@@@@@@@@@@@@@%%%%%%%%%%%%%%%%%%%%%%%%%%%%%%%%%%%%%%%%%%%%%%%%%%%%%%%%%%%%%%%%%%%%%%%%%%%%%%%%%%%%%%%%%%%%%%%%%%%%%%%%%%%%%%%%%%%%%%oooooooooo%%%%%%%%%%%%%%oooo",
"%%==========%%%%%%%%%%%%%%%%%%%%ooooooooooooooo%%%%%%%%%%%%%%%%ooooooooooooooooooooooooooooooooooooooooooooooooooooooooooooooooooooooooooooooooooooooooooooooooooooooooooooo%%%%%%%%%%%%%%%%%%%%o%%%%=====%%==================%%%%%%%oooooooooooooooooooooo%%%%%%%%%%%%%%%%%ooooooooooooooooooooooooooooooooooooooooooooooooooooooooooooooooooooooooooooooooooooooooooooooooooooooooooooooooooooooooooooooooooooooooooooooooooooooooooooooooooooooooooooooooooooooooooooooooooooooooooooooooooooo%%%%%%%%%%%%%%%%%%%%%%%%%%%%%%%%%%%%%%%%%%%%%%%%%%%%%%%%%%%%%%%%%%%%%%%%%%%%%%%%%%%%%%%%%%%%%%%%%%%%%%%%%%%%%%%%%%%%%%oooooooo%%%%%%%%%%%%%%%%ooo",
"%%==========%%%%%%%%%o%%%%%oooooooooooooooooooo%%%%%%%%%%%%%%%%oooooooooooooooooooooooooooooooooooooooooooooooooooooooooooooooooooooooooooooooooooooooooooooooooooooooooooo%%%%%%%%%%===========%=%=====================:=======%%%%%%%%%%%%%%%%%%%%%%%%%%%%%%%%%o%%%%%%%oooooooooooooooooooooooooooooooooooooooooooooooooooooooooooooooooooooooooooooooooooooooooooooooooooooooooooooooooooooooooooooooooooooooooooooooooooooooooooooooooooooooooooooooooooooooooooooooooooooooooooooooooooooooo%%%%%%%%%%%%ooo%%%%%%%%%%%%%%oo%%%%%%%%%%%%%%%%%%%%%%%%%%%%%%%%%%%%%%%%%%%%%%%%%%%%%%%%%%%%%%%%%%%%%%%%%%%%%%%%%%%%%%%%%%%%%%%%o%%%%%%%%%%%%oooo%",
"%%%%===%====%%%%%%%%%%%%%%ooooooooooooooooooooooo%%%%%%%%%%%%%%%%%%%%%%%%%%%%%%%%%%%%%%%%%%%%%%oooooooooooooooo%%%%%%%%%%%%%%%%ooooooooooooooooooooooooooooooooooooo%%%%%%%%%%%%%%%%===========:====::::===========::::=========%%%%%%%%%%%%%%%%%%%%%%%%%%%%%%%%oooooo%%ooooooooooooooooooooooooooooooooooooooooooooooooooooooooooooooooooooooooooooooooooooooooooooooooooooooooooooooooooooooooooooooooooooooooooooooooooooooooooooooooooooooooooooooooooooooooooooooooooooooooooooooooooooooooooooooooooooooooooooooooooooooooo%%%%%%%%%%%%%%%%%%%%%%%%%%%%%%%%%%%%%%%%%%%%%%%%%%%%%%%%%%%%%%%%%%%%%%%%%%%%%%%%%%%%%%%%%%%%%%%%%%%%%%%%%%%%%%oo%",
"%%==%%%%%%=%%%%%%%%%%%%%%oooooooooooooooooooooooo%%%%%%%%%%%%%%%%%%%%%%%%%%%%%%%%%%%%%%%%%oo%%%oooooooooooooooo%%%%%%%%%%%%%%%%oooooooooooooooooooooooooooooooooooo%%%%%%%%%%%%%%=%%==========:::::::====::::::===========%%====%%%%%%%%%%%%%%%%%%%%%%%%%%%%%%%%ooooooooooooooooooooooooooooooooooooooooooooooooooooooooooooooooooooooooooooooooooooooooooooooooooooooooooooooooooooooooooooooooooooooooooooooooooooooooooooooooooooooooooooooooooooooooooooooooooooooooooooooooooooooooooooooooooooooooooooooooooooooooooooooooo%%%%%%%%%%%%%%%%%%%%%%%%%%%%%%%%%%%%%%%%%%%%%%%%%%%%%%%%%%%%%%%%%%%%%%%%%%%%%%%%%%%%%%%%%%%%%%%%%%%%%%%%%%%%%%ooo",
"%%%%%%%%%%%%%%%%%%%%%%%%ooooooooooooooooooooooooo%%%%%%%%%%%%%%%%%%%%%%%%%%%%%%%%%%%%%%%%ooo%%%oooooooooooo%%%%%%%%%%%%%%%%%%%%oooooooooooooooooooooooooooooooooooo%%%%%%%%%%%%%=%%%=========:::<<:::=====::::===%====%=%%%%%==%%%%%%%%%%%%%%%%%%%%%%%%%%%%%%%%%ooooooooooooooooooooooooooooooooooooooooooooooooooooooooooooooooooooooooooooooooooooooooooooooooooooooooooooooooooooooooooooooooooooooooooooooooooooooooooooooooooooooooooooooooooooooooooooooooooooooooooooooooooooooooooooooooooooooooooooooooooooooooooooooooo%%%%%%%%%%%%%%%%%%%%%%%%%%%%%%%%%%%%%%%%%%%%%%%%%%%%%%%%%%%%%%%%%%%%%%%%%%%%%%%%%%%%%%%%%%%%%%%%%%%%%%%%%%%%%%ooo",
"%%%%%%%%%%%%%%%%%%%oooooooooooooooooooooooooooooo%%%%%%%%%%%%%%%%%%%oooo%%%%%%%%oo%%%%%%ooooooooooooooooooo%oo%%%%%%%%%%%%%%%oooooooooooooooooooooooooooooooooooooo%%%%%%%%%%%%%%%%=======::::::<<<::=====:::==%%%%%%%%%%%%%%%%%%%%%%%%%%%%%%%%%%%%%%%%%%%%%%%%%ooooooooooooooooooooooooooooooooooooooooooooooooooooooooooooooooooooooooooooooooooooooooooooooooooooooooooooooooooooooooooooooooooooooooooooooooooooooooooooooooooooooooooooooooooooooooooooooooooooooooooooooooooooooooooooooooooooooooooooooooooooooooooooooooo%%%%%%%%%%%%%%%%%%%%%%%%%%%%%%%%%%%%%%%%%%%%%%%%%%%%%%%%%%%%%%%%%%%%%%%%%%%%%%%%%%%%%%%%%%%%%%%%%%%%%%%%%%%%%%ooo",
"%%%%%%%%%%%%%%%%%%ooooooooooooooooooooooooooooooooo%%%%%%%%%%%%ooooooooooooooooooooooooooooooooo@@@@@@@@@@@@@@@@@@@@@@@@@@@@@@@@ooooooooooooooooooooooooooooooooo%%%%%%%%%%%%%%%%=========::::::::::::========%%%%%%%%%%%%==%%%%%%%%%%%%%%%%%%%%%%%%%%%%%%%%%%%%ooooooooooooooooooooooooooooooooooooooooooooooooooooooooooooooooooooooooooooooooooooooooooooooooooooooooooooooooooooooooooooooooooooooooooooooooooooooooooooooooooooooooooooooooooooooooooooooooooooooooooooooooooooooooooooooooooooooooooooooooooooooooooooooooo%%%%%%%%%%%%%%%%%%%%%%%%%%%%%%%%%%%%%%%%%%%%%%%%%%%%%%%%%%%%%%%%%%%%%%%%%%%%%%%%%%%%%%%%%%%%%%%%%%%%%%%%%%%%%%ooo",
"%%%%%%%%%%%%%%%ooooooooooooooooooooooooooooooo@@ooo%%%%%%%%%%%%ooooooooooooooooooooooooooo@@@@@@@@@@@@@@@@@@@@@@@@@@@@@@@@@@@@@@ooooooooooooooooooooooooooooooooo%%%%%%%%%%%%%%%===================:::::==%%%%%%%%%%%%%%%===%%%%ooo%%%%%%%%%%%%%%%%%%%%%%%%%%%%%ooooooooooooooooooooooooooooooooooooooooooooooooooooooooooooooooooooooooooooooooooooooooooooooooooooooooooooooooooooooooooooooooooooooooooooooooooooooooooooooooooooooooooooooooooooooooooooooooooooooooooooooooooooooooooooooooooooooooooooooooooooooooooooooooo%%%%%%%%%%%%%%%%%%%%%%%%%%%%%%%%%%%%%%%%%%%%%%%%%%%%%%%%%%%%%%%%%%%%%%%%%%%%%%%%%%%%%%%%%%%%%%%%%%%%%%%%%%%%%%ooo",
"%%%%%%%%%%%%%%%ooooooooooooooooooooooooooooooo@@ooooo%%%%%%%%%%ooooooooooooooooooooo@@@@@@@@@@@@@@@@@@@@@@@@@@@@@@@@@@@@@@@@@@@@ooooooooooooooooooooooooooooooooo%%%%%%%%%%%%%%%===============%%====:::==%%o%%%%%%%%%%%%%%%%%%%ooo%%%%%%%%%%%%%%%%%%%%%%%%%%%%%ooooooooooooooooooooooooooooooooooooooooooooooooooooooooooooooooooooooooooooooooooooooooooooooooooooooooooooooooooooooooooooooooooooooooooooooooooooooooooooooooooooooooooooooooooooooooooooooooooooooooooooooooooooooooooooooooooooooooooooooooooooooooooooooooo%%%%%%%%%%%%%%%%%%%%%%%%%%%%%%%%%%%%%%%%%%%%%%%%%%%%%%%%%%%%%%%%%%%%%%%%%%%%%%%%%%%%%%%%%%%%%%%%%%%%%%%%%%%%%%o%o",
"%%%%%%%%%%%%%%%ooooooooooooooooooooo@@++@@oo@@@@oooo@@@+%%%%%%%ooooooooooooooo@@@@@@@@@@@@@@@@@@@@@@@@@@@@@@@@@@@@@@@@@@@@@@@@@@ooooooooooooooooooooooooooooooooo%%%%%%%%%%%%%%%===============%%%%%=====%%%%%%%%%====%%%%%%%%%%ooo%%%%%%%%%%%%%%%%%%%%%%%%%%%%%ooooooooooooooooooooooooooooooooooooooooooooooooooooooooooooooooooooooooooooooooooooooooooooooooooooooooooooooooooooooooooooooooooooooooooooooooooooooooooooooooooooooooooooooooooooooooooooooooooooooooooooooooooooooooooooooooooooooooooooooooooooooooooooooooo%%%%%%%%%%%%%%%%%%%%%%%%%%%%%%%%%%%%%%%%%%%%%%%%%%%%%%%%%%%%%%%%%%%%%%%%%%%%%%%%%%%%%%%%%%%%%%%%%%%%%%%%%%%%%%o%%",
"%%%%%%%%%%%%%%%ooooooooooooooooo@@@@@@++@@@@@@@@@@@@@@@+@@@@@@@@oooooooo@@@@@@@@@@@@@@@@@@++@@@@@@@@@@@@@@@@@@@@@@@@@@@@@@@@@@@@ooooooooooooooooooooooooooooooooo%%%%%%%%%%%%%%%%==============%%%%%%%%%%%%%%%%%%=====%%%%oo%%%%%%%%%%%%%%%%%%%%%%%%%%%%%%%%%%%%ooooooooooooooooooooooooooooooooooooooooooooooooooooooooooooooooooooooooooooooooooooooooooooooooooooooooooooooooooooooooooooooooooooooooooooooooooooooooooooooooooooooooooooooooooooooooooooooooooooooooooooooooooooooooooooooooooooooooooooooooooooooooooooooooo%%%%%%%%%%%%%%%%%%%%%%%%%%%%%%%%%%%%%%%%%%%%%%%%%%%%%%%%%%%%%%%%%%%%%%%%%%%%%%%%%%%%%%%%%%%%%%%%%%%%%%%%%%%%%%%%%",
"%%%%%%%%%%@@%%%ooooooooooo@@ooo@@@@@@@@@@@@@@@++@@@@@@++@@@@@@@@@oo@@@@@@@@@@@@@@@@@@@@@@@@+@@@@@@@@@@@+@@@@@@@@@@@@@@@+@@@@@%%ooooooooooooooooooooooooooooooooo%%%%%%%%%%%%%%%%==================%%ooo%%%======%%==%%%%oooooo%%%%%%%%%%%%%%%%%%%%%%%%%%%%%%%%%%ooooooooooooooooooooooooooooooooooooooooooooooooooooooooooooooooooooooooooooooooooooooooooooooooooooooooooooooooooooooooooooooooooooooooooooooooooooooooooooooooooooooooooooooooooooooooooooooooooooooooooooooooooooooooooooooooooooooooooooooooooooooooooooooooo%%%%%%%%%%%%%%%%%%%%%%%%%%%%%%%%%%%%%%%%%%%%%%%%%%%%%%%%%%%%%%%%%%%%%%%%%%%%%%%%%%%%%%%%%%%%%%%%%%%%%%%%%%%%%%%%%",
"%%%%@@@@@@@@@@@@%@@@@@@@@@@@@@@@@@@@@@@@@@@@@@++@@@@@@@@@@@@@@@@@@@@@@@@@@@@@@@@@@@@@@@@@@@+@@@@@@@@@@@+@@@@@@@@@@@@@@@+@@@@@%%ooooooooooooooooooooooooooooooooo%%%%%%%%%%%%%%%%%=================%%oooo%%=====%%%%%%%%oooooooooooo%%%%%%%%%%%%%%%%%%%%%%%%%%%%%ooooooooooooooooooooooooooooooooooooooooooooooooooooooooooooooooooooooooooooooooooooooooooooooooooooooooooooooooooooooooooooooooooooooooooooooooooooooooooooooooooooooooooooooooooooooooooooooooooooooooooooooooooooooooooooooooooooooooooooooooooooooooooooooooooo%%%%%%%%%%%%%%%%%%%%%%%%%%%%%%%%%%%%%%%%%%%%%%%%%%%%%%%%%%%%%%%%%%%%%%%%%%%%%%%%%%%%%%%%%%%%%%%%%%%%%%%%%%%%%%%",
"@@@@@@@@@@@@@@@@@@@@@@@@@++@+@+@@@@@@@@@@@++@@@@@@@@@@@@@@@@@@@@@@@@@@@@@@@@@@@@@@@@@@@@@@@@@@@@%%%%%%%%%%%%%%%%%%%%o%%%%%%%%%%ooooooooooooooooooooooooooooooooo%%%%%%%%%%%%%%%%%===================%%%%%%====%%%%%%oo%%%%%oooooooo%%%%%%%%%%%%%%%%%%%%%%%%%%%%%ooooooooooooooooooooooooooooooooooooooooooooooooooooooooooooooooooooooooooooooooooooooooooooooooooooooooooooooooooooooooooooooooooooooooooooooooooooooooooooooooooooooooooooooooooooooooooooooooooooooooooooooooooooooooooooooooooooooooooooooooooooooooooooooooooo%%%%%%%%%%%%%%%%%%%%%%%%%%%%%%%%%%%%%%%%%%%%%%%%%%%%%%%%%%%%%%%%%%%%%%%%%%%%%%%%%%%%%%%%%%%%%%%%%%%%%%%%%%%%%%%",
"@@@@@@@@@@@@@@@@@@@@@@@@@@+@@++@@@@@@@@@@@@@@@@@@@@@@@@@@@@@@@@@@@@@@@@@@@@@@@@@@@@@@@@@@@@@@@@@%%%%%%%%%%%%%%%%%%%%oo%%%%%%%%%ooooooooooooooooooooooooooooooooo%%%%%%%%%%%%%%%%%%========================%%%%%%%oooooo%%%%%%oooooo%%%%%%%%%%%%%%%%%%%%%%%%%%%%%ooooooooooooooooooooooooooooooooooooooooooooooooooooooooooooooooooooooooooooooooooooooooooooooooooooooooooooooooooooooooooooooooooooooooooooooooooooooooooooooooooooooooooooooooooooooooooooooooooooooooooooooooooooooooooooooooooooooooooooooooooooooooooooooooooo%%%%%%%%%%%%%%%%%%%%%%%%%%%%%%%%%%%%%%%%%%%%%%%%%%%%%%%%%%%%%%%%%%%%%%%%%%%%%%%%%%%%%%%%%%%%%%%%%%%%%%%%%%%%%%%",
"@@@@@@@@@@@@@@@@@@@@@@@@@@@@@@@@@@@@@@@+@@@@@@@@@@@@@@@+@@@@@@@@@@@@@@@@@@@@@@@@@@@@@@@@@@@@@@@%%%%%%%%%%%%%%%%%%%%%%%%%%%%%%%%ooooooooooooooooooooooooooooooooo%%%%%%%%%%%%%%%%%%%%%%===========%===:===%%%%%%oooooooo%%%%%%%ooooo%%%%%%%%%%%%%%%%%%%%%%%%%%%%%ooooooooooooooooooooooooooooooooooooooooooooooooooooooooooooooooooooooooooooooooooooooooooooooooooooooooooooooooooooooooooooooooooooooooooooooooooooooooooooooooooooooooooooooooooooooooooooooooooooooooooooooooooooooooooooooooooooooooooooooooooooooooooooooooooo%%%%%%%%%%%%%%%%%%%%%%%%%%%%%%%%%%%%%%%%%%%%%%%%%%%%%%%%%%%%%%%%%%%%%%%%%%%%%%%%%%%%%%%%%%%%%%%%%%%%%%%%%%%%%%%",
"@@@@@@@@@@@@@@@@@@@@@@@@@@@@@@@@@@@@@@+@@@@@@@@@@@@@@@@++@@@@@@@@@@@@@@@@@@@@@@@@@@@@@@@@@%%%%%%==%%%%%%%%%%%%%%%%%%%%%%%%%%%%%%oooooooooooooooooooooooooooooooo%%%%%%%%%%%%%%%%%%%%%%%========%%%==:====%%%ooooo%%%%%%%%%%%%%%%%%%%%%%%%%%%%%%%%%%%%%%%%%%%%%%%ooooooooooooooooooooooooooooooooooooooooooooooooooooooooooooooooooooooooooooooooooooooooooooooooooooooooooooooooooooooooooooooooooooooooooooooooooooooooooooooooooooooooooooooooooooooooooooooooooooooooooooooooooooooooooooooooooooooooooooooooooooooooooooooooooo%%%%%%%%%%%%%%%%%%%%%%%%%%%%%%%%%%%%%%%%%%%%%%%%%%%%%%%%%%%%%%%%%%%%%%%%%%%%%%%%%%%%%%%%%%%%%%%%%%%%%%%%%%%%%%%",
"@@@@@@@++@@@@++@@@@@@@+@@@@@@@@@@@@@@@@@@@@@@@@@@@@@@@@@@@@@@@@@@@@@@@@@@@@@@@@@@@@@====%%%%===========%%%%%%%%%%%%%%%%%%%%%%%%%oooooooooooooooooooooooooooooooo%%%%%%%%%%%%%%%%%%%%%%========%%%%%%%%%ooo%oooooo%%%%%%%%o%%%%%%%%%%%%%%%%%%%%%%%%%%%%%%%%%%%%%%ooooooooooooooooooooooooooooooooooooooooooooooooooooooooooooooooooooooooooooooooooooooooooooooooooooooooooooooooooooooooooooooooooooooooooooooooooooooooooooooooooooooooooooooooooooooooooooooooooooooooooooooooooooooooooooooooooooooooooooooooooooooooooooooooooo%%%%%%%%%%%%%%%%%%%%%%%%%%%%%%%%%%%%%%%%%%%%%%%%%%%%%%%%%%%%%%%%%%%%%%%%%%%%%%%%%%%%%%%%%%%%%%%%%%%%%%%%%%%%%%%",
"@@@@@@@+@@@@++@@@@@@@@@@@@@@@@@@@@@@@@@@@@@@@@@@@@++@@@@@@@@@@@@@@@@@@@@@@@@@@%%%%%%====%%%%============%%=%%%%%%%%%%%%%%%%%%%%%oooooooooooooooooooooooooooooooo%%%%%%%%%%%%%%%%%%%%%%%%%%%%%%%%%%%%oooooo%%ooooo%%%%%%%ooo%%%%%%%%%%%%%%%%%%%%%%%%%%%%%%%%%%%%%ooooooooooooooooooooooooooooooooooooooooooooooooooooooooooooooooooooooooooooooooooooooooooooooooooooooooooooooooooooooooooooooooooooooooooooooooooooooooooooooooooooooooooooooooooooooooooooooooooooooooooooooooooooooooooooooooooooooooooooooooooooooooooooooooo%%%%%%%%%%%%%%%%%%%%%%%%%%%%%%%%%%%%%%%%%%%%%%%%%%%%%%%%%%%%%%%%%%%%%%%%%%%%%%%%%%%%%%%%%%%%%%%%%%%%%%%%%%%%%%%==",
"@@@@@@@@@@@@@@@@@@@@@@@+@@@@@@@@@@@@@@@@@@@@@@@@@@++@@@@@@@@@@@@@@@@@@@@==========%%=%==%%=================%=%%%%%%%%%%%%%%%%%%%oooooooooooooooooooooooooooooooo%%%%%%%%%%%%%%%%%%%%%%%%%%%%%%%%%%oooooooo%%%%%%%%%%%%%%%o%%%%%%%%%%%%%%%%%%%%%%%%%%%%%%%%%%%%%%ooooooooooooooooooooooooooooooooooooooooooooooooooooooooooooooooooooooooooooooooooooooooooooooooooooooooooooooooooooooooooooooooooooooooooooooooooooooooooooooooooooooooooooooooooooooooooooooooooooooooooooooooooooooooooooooooooooooooooooooooooooooooooooooooo%%%%%%%%%%%%%%%%%%%%%%%%%%%%%%%%%%%%%%%%%%%%%%%%%%%%%%%%%%%%%%%%%%%%%%%%%%%%%%%%%%%%%%%%%%%%%%%%%%%%%%%%%%%%%%===",
"@@@@@@@@@@@@@@@@@@@@@@+++@@@@@@@@@@@@@@@@@@@@@@@@@@+@@@@@@@@@@@@@@==%%%%%=========%%=========================%%%%%%%%%%%%%%%%%%%oooooooooooooooooooooooooooooooo%%%%%%%%%%%%%%%%%%%%%%%%%%%%%%%%%ooooooooo%%%%%%%ooo%%%%%%%%oooo%%%%%%%%%%%%%%%%%%%%%%%%%%%%%%%%ooooooooooooooooooooooooooooooooooooooooooooooooooooooooooooooooooooooooooooooooooooooooooooooooooooooooooooooooooooooooooooooooooooooooooooooooooooooooooooooooooooooooooooooooooooooooooooooooooooooooooooooooooooooooooooooooooooooooooooooooooooooooooooooooo%%%%%%%%%%%%%%%%%%%%%%%%%%%%%%%%%%%%%%%%%%%%%%%%%%%%%%%%%%%%%%%%%%%%%%%%%%%%%%%%%%%%%%%%%%%%%%%%%%%%%%%%%%%%%%===",
"@@@@@@@@@@@@@@@@@@@@@@@@+@@@@@@@@@+@@@@@@@@@@@@@@@@@@@@@@@@@@@@@&============================================%%%%%%%%%%%%%%%%%oooooooooooooooooooooooooooooooooo%%%%%%%%%%%%%%%%%%%%%%%%%%%%%%%ooooooooooo%%%%%%%ooooo%%%%%%ooooo%%%%%%%%%%%%%%%%%%%%%%%%%%%%%%%ooooooooooooooooooooooooooooooooooooooooooooooooooooooooooooooooooooooooooooooooooooooooooooooooooooooooooooooooooooooooooooooooooooooooooooooooooooooooooooooooooooooooooooooooooooooooooooooooooooooooooooooooooooooooooooooooooooooooooooooooooooooooooooooooo%%%%%%%%%%%%%%%%%%%%%%%%%%%%%%%%%%%%%%%%%%%%%%%%%%%%%%%%%%%%%%%%%%%%%%%%%%%%%%%%%%%%%%%%%%%%%%%%%%%%%%%%%%%%%%%%%",
"XXXXX@X@XXXXXXXXXXXXX@@@XXXXX@@@@@@+@@@@@@@@@@@@@@@@@@@@@@@@@@@&&=============================================%%%%%%%%%%%%%%oooooooooooooooooooooooooooooooooooo%%%%%%%%%%%%%%%%%%%%%%%%%%%%%%oooooooooo%ooo%%%%%ooooo%%%%%%oooooo%%%%%%%%%%%%%%%%%%%%%%%%%%%%%%ooooooooooooooooooooooooooooooooooooooooooooooooooooooooooooooooooooooooooooooooooooooooooooooooooooooooooooooooooooooooooooooooooooooooooooooooooooooooooooooooooooooooooooooooooooooooooooooooooooooooooooooooooooooooooooooooooooooooooooooooooooooooooooooooo%%%%%%%%%%%%%%%%%%%%%%%%%%%%%%%%%%%%%%%%%%%%%%%%%%%%%%%%%%%%%%%%%%%%%%%%%%%%%%%%%%%%%%%%%%%%%%%%%%%%%%%%%%%%%%%%%",
"@@@@@@@@@@@@@@@@@@@@@@@@@@@@@@@@@@@@@@@@@@@@@@@@@@@@&@@@@@&&&&&&=============================================%=%%%%%%%%%%%%%oooooooooooooooooooooooooooooooooooo%%%%%%%%%%%%%%%%%%%%%%%%%%%%%%oooooooooo%ooooo%%%%%%oooooooooooooo%%%%%%%%%%%%%%%%%%%%%%%%%%%%%%ooooooooooooooooooooooooooooooooooooooooooooooooooooooooooooooooooooooooooooooooooooooooooooooooooooooooooooooooooooooooooooooooooooooooooooooooooooooooooooooooooooooooooooooooooooooooooooooooooooooooooooooooooooooooooooooooooooooooooooooooooooooooooooooooo%%%%%%%%%%%%%%%%%%%%%%%%%%%%%%%%%%%%%%%%%%%%%%%%%%%%%%%%%%%%%%%%%%%%%%%%%%%%%%%%%%%%%%%%%%%%%%%%%%%%%%%%%%%%%%%%%",
"@@@@@@@@@@@@@@@@@@@@@@@@@@@@@@@@@@%%%%%%%%%%%%==%%==============================================================%%%%%%%%%%%%oooooooooooooooooooooooooooooooooooo%%%%%%%%%%%%%%%%%%%%%%%%%%%%%oooooooooooooooooooo%%%%ooooooooo%%%%%%%%%%%%%%%%%%%%%%%%%%%%%%%%%%oooooooooooooooooooooooooooooooooooooooooooooooooooooooooooooooooooooooooooooooooooooooooooooooooooooooooooooooooooooooooooooooooooooooooooooooooooooooooooooooooooooooooooooooooooooooooooooooooooooooooooooooooooooooooooooooooooo%%%%%%%%oooo%%%%%%%%oooo%%%%%%%%%%%%%%%%%%%%%%%%%%%%%%%%%%%%%%%%%%%%%%%%%%%%%%%%%%%%%%%%%%%%%%%%%%%%%%%%%%%%%%%%%%%%%%%%%%%%%%%%%%%%%%%%%%%%%%",
"@@@@@@@@@@@@@@@@@@@@@@@@@@@@@@@@@@%%%%%==========================================================================%%%%%%%%%%%oooooooooooooooooooooooooooooooooooo%%%%%%%%%%%%%%%%%%%%%%%%%%%%%ooooooooooooooooooooo%%%%oooooo%%%%%%%%%%%%%%%%%%%%%%%%%%%%%%%%%%%oooooooooooooooooooooooooooooooooooooooooooooooooooooooooooooooooooooooooooooooooooooooooooooooooooooooooooooooooooooooooooooooooooooooooooooooooooooooooooooooooooooooooooooooooooooooooooooooooooooooooooooooooooooooooooooooooo%%%%%%%%%%%%%%%%%%%%%%%%%%%%%%%%%%%%%%%%%%%%%%%%%%%%%%%%%%%%%%%%%%%%%%%%%%%%%%%%%%%%%%%%%%%%%%%%%%%%%%%%%%%%%%%%%%%%%%%%%%%%%%%%%%%%%%%%%%%%%%%%%",
"@@@@@@@@@@@@@@@@@@@@@@@@@@@@@@@@%%%%%%===========================================================================%%%%%%%%%%%oooooooooooooooooooooooooooooooooooo%%%%%%%%%%%%%%%%%%%%%%%%%%%%%%%ooooooooooooooooooo%%%%%%ooo%=====%%%%%%%%%%%%%%%%%%%%%%%%%%%%%%oooooooooooooooooooooooooooooooooooooooooooooooooooooooooooooooooooooooooooooooooooooooooooooooooooooooooooooooooooooooooooooooooooooooooooooooooooooooooooooooooooooooooooooooooooooooooooooooooooooooooooooooooooooooooooooooo%o%%%%%%%%%%%%%%%%%%%%%%%%%%%%%%%%%%%%%%%%%%%%%%%%%%%%%%%%%%%%%%%%%%%%%%%%%%%%%%%%%%%%%%%%%%%%%%%%%%%%%%%%%%%%%%%%%%%%%%%%%%%%%%%%%%%%%%%%%%%%%%%%%",
"@@@@@@@@@@@@@@@@@@@@@@@@&&&&&&&=======================::::::::=:================================::::=============%%%%%%%%%%%oooooooooooooooooooooooooooooooooooo%%%%%%%%%%%%%%%%%%%%%%%%%%%%%%%oooooooooooooooooooo%%%%%========%%%%%%%%%%%%%%%%%%%%%%%%%%%%%%%ooooooooooooooooooooooooooooooooooooooooooooooooooooooooooooooooooooooooooooooooooooooooooooooooooooooooooooooooooooooooooooooooooooooooooooooooooooooooooooooooooooooooooooooooooooooooooooooooooooooooooooooooooooooooooooooo%%o%%%%%%%%%%%%%%%%%%%%%%%%%%%%%%%%%%%%%%%%%%%%%%%%%%%%%%%%%%%%%%%%%%%%%%%%%%%%%%%%%%%%%%%%%%%%%%%%%%%%%%%%%%%%%%%%%%%%%%%%%%%%%%%%%%%%%%%%%%%%%%%%%",
"o%%%%%%%@%@@@@@%======&&==============================::::::::::=================================:::=============%%%%%%%%%%%oooooooooooooooooooooooooooooooooooo%%%%%%%%%%%%%%%%%%%%%%%%%%%%%%%oooooooooooooooooooo%%%%==::::==%%%%%%%%%%%%%%%%%%%%%%%%%%%%%%%%ooooooooooooooooooooooooooooooooooooooooooooooooooooooooooooooooooooooooooooooooooooooooooooooooooooooooooooooooooooooooooooooooooooooooooooooooooooooooooooooooooooooooooooooooooooooooooooooooooooooooooooooooooooooooooooooo%%%%%%%%%%%%%%%%%%%%%%%%%%%%%%%%%%%%%%%%%%%%%%%%%%%%%%%%%%%%%%%%%%%%%%%%%%%%%%%%%%%%%%%%%%%%%%%%%%%%%%%%%%%%%%%%%%%%%%%%%%%%%%%%%%%%%%%%%%%%%%%%%%%%",
"%%%%%%%============:::======::========================:::::::::==================================:::=============%%%%%%%%%%%oooooooooooooooooooooooooooooooooooo%%%%%%%%%%%%%%%%%%%%%%%%%%%%%%%ooooo%%%%%%%%o%oo%%%%%%%=:::::==%%%%%%%%%%%%%%%%%%%%%%%%%%%%%%%%ooooooooooooooooooooooooooooooooooooooooooooooooooooooooooooooooooooooooooooooooooooooooooooooooooooooooooooooooooooooooooooooooooooooooooooooooooooooooooooooooooooooooooooooooooooooooooooooooooooooooooooooooooooooooooooooo%%%%%%%%%%%%%%%%%%%%%%%%%%%%%%%%%%%%%%%%%%%%%%%%%%%%%%%%%%%%%%%%%%%%%%%%%%%%%%%%%%%%%%%%%%%%%%%%%%%%%%%%%%%%%%%%%%%%%%%%%%%%%%%%%%%%%%%%%%%%%%%%%%%%",
"%%%%================::=:=::::::=======================::::::::====================================::===========%=%%%%%%%%%%%oooooooooooooooooooooooooooooooooooo%%%%%%%%%%%%%%%%%%%%%%%%%%%%%%%ooooo%%%%%%%%%%%%%%%%%%===::===%%%%%%%%%%%%%%%%%%%%%%%%%%%%%%%%%ooooooooooooooooooooooooooooooooooooooooooooooooooooooooooooooooooooooooooooooooooooooooooooooooooooooooooooooooooooooooooooooooooooooooooooooooooooooooooooooooooooooooooooooooooooooooooooooooooooooooooooooooooooooooooooooo%%%%%%%%%%%%%%%%%%%%%%%%%%%%%%%%%%%%%%%%%%%%%%%%%%%%%%%%%%%%%%%%%%%%%%%%%%%%%%%%%%%%%%%%%%%%%%%%%%%%%%%%%%%%%%%%%%%%%%%%%%%%%%%%%%%%%%%%%%%%%%%%%%%%",
"==%================:::=:::::::========================================%%%===%%==%%%%======%=%%==============%%%%%%%%%%%%%%%%oo%ooooooooooooooooooooooooooooooooo%%%%%%%%%%%%%%%%%%%%%%%%%%%%%%%ooo%%%%%%%%%%%=%%==%%==========%%%%%%%%%%%%%%%%%%%%%%%%%%%%%%%%%ooooooooooooooooooooooooooooooooooooooooooooooooooooooooooooooooooooooooooooooooooooooooooooooooooooooooooooooooooooooooooooooooooooooooooooooooooooooooooooooooooooooooooooooooooooooooooooooooooooooooooooooooooooooooooooooo%%%%%%%%%%%%%%%%%%%%%%%%%%%%%%%%%%%%%%%%%%%%%%%%%%%%%%%%%%%%%%%%%%%%%%%%%%%%%%%%%%%%%%%%%%%%%%%%%%%%%%%%%%%%%%%o%%%%%%%%%%%%%%%%%%%%%%%%%%%%%%%%%%%%",
"====================::==:=========================================%%%%%%%%%%%%%%%%%%%%%%%%%%%%%============%%%%%%%%%%%%%%%%%%oooooooooooooooooooooooooooooooooo%%%%%%%%%%%%%%%%%%%%%%%%%%%%%%%%%oo%%%%%%%%%%%=%%=======%%%%%%%%%%%%%%%%%%%%%%%%%%%%%%%%%%%%%%%%oooooooooooooooooooooooooooooooooooooooooooooooooooooooooooooooooooooooooooooooooooooooooooooooooooooooooooooooooooooooooooooooooooooooooooooooooooooooooooooooooooooooooooooooooooooooooooooooooooooooooooooooooooooooooooooo%%%%%%%%%%%%%%%%%%%%%%%%%%%%%%%%%%%%%%%%%%%%%%%%oooooo%%%%%%%%%%%%%%%%%%%%%%%%%%%============%%%%%%%%%%%%%%%%%%o%%%%%%%%%%%%%%%%%%%%%%%%%%%%%%%%%%%%%",
"==%%==%===========================================================%%%%%%%%%%%%%%%%%%%%%%%%%%%%========%%%===%%%%%%%%%%%%%%%%%%%%%%%%%%%%%%%%%%%%%%%%%%%%%%%%%%%%%%%%%%%%%%%%%%%%%%%%%%%%%%%%%%%%%%%%%%%%%%%%=%%%%%%%%%=%%%%%%%%%%%%%%%%%%%%%%%%%%%%%%%%%%%%%%%%oooooooooooooooooooooooooooooooooooooooooooooooooooooooooooooooooooooooooooooooooooooooooooooooooooooooooooooooooooooooooooooooooooooooooooooooooooooooooooooooooooooooooooooooooooooooooooooooooooooooooooooooooo%%%%%%%%%%%%%%%%%%%%%%%%%%%%%%%%%%%%%%%%%%%%%%%%%%%%%%%%%%%%%%oo%%%%%%%%%%%%%%%%%%%%%%%%%%%%%%==========%%%%%%%%%%%%%%%%%%oooooo%%%%%%%%%%%%%%%%%%%%%%%%%%%%%%===",
"==%%======%%======%========%=====================================%%%%%%%%%%%%%%%%%%%%%%%%%%%%%%%%%====%%%%%%%%%%%%%%%%%%%%%%%%%%%%%%%%%%%%%%%%%%%%%%%%%%%%%%%%%%%%%%%%%%%%%%%%%%%%%%%%%%%%%%%%%%%%%%%%%%%%%%%%%%%%%%%%%%%oo%%%%%%%%%%%%%%%%%%%%%%%%%%%%%%%%%%%%oooooooooooooooooooooooooooooooooooooooooooooooooooooooooooooooooooooooooooooooooooooooooooooooooooooooooooooooooooooooooooooooooooooooooooooooooooooooooooooooooooooooooooooooooooooooooooooooooooooooooooooooooo%%%%%%%%%%%%%%%%%%%%%%%%%%%%%%%%%%%%%%%%%%%%%%%%%%%%%%%%%%%%%oooo%%%%%%%%%%%%%%%%%%%%%%%%%%%=============%%%%%%%%%%%%%%%%oooooooo%%%%%%%%%%%%%%%%%%%%%%%%%%%%%%%=",
"=%%%====%%====%===%%%%====%%%%==================================%%%%%%%%%%%%%%%%%%%%%%%%%%%%%%%%%%%=%%%%%%%%%%%%%%%%%%%%%%%%%%%%%%%%%%%%%%%%%%%%%%%%%%%%%%%%%%%%%%%%%%%%%%%%%%%%%%%%%%%%%%%%%%%%%%%%%%%%%%%%%%%%%%%%%%%%oo%%%%%%%%%%%%%%%%%%%%%%%%%%%%%%%%%%%%%ooooooooooooooooooooooooooooooooooooooooooooooooooooooooooooooooooooooooooooooooooooooooooooooooooooooooooooooooooooooooooooooooooooooooooooooooooooooooooooooooooooooooooooooooooooooooooooooooooooooooooooooooo%%%%%%%%%%%%%%%%%%%%%%%%%%%%%%%%%%%%%%%%%%%%%%%%%%%%%%%%%oooooooooooooo%%%%%%%%%%%%%%%%%%%%%%=============%%%%%%%%%%%%%%%%oooooooo%%%%%%%%%%%%%%%%%%%%%%%%%%%%%%%%",
"=%%%%===%%==%%%=%%%%%%==%%%%%%=================================%%%%%%%%%%%%%%%%%%%%%%%%%%%%%%%%%%%%%%%%%%%%%%%%%%%%%%%%%%%%%%%%%%%%%%%%%%%%%%%%%%%%%%%%%%%%%%%%%%%%%%%%%%%%%%%%%%%%%%%%%%%%%%%%%%%%%%%%%%%%%%%%%%%%%%%%%%%%%%%%%%%%%%%%%%%%%%%%%%%%%%%%%%%%%%%%ooooooooooooooooooooooooooooooooooooooooooooooooooooooooooooooooooooooooooooooooooooooooooooooooooooooooooooooooooooooooooooooooooooooooooooooooooooooooooooooooooooooooooooooooooooooooooooooooooooooooooooooooo%%%%%%%%%%%%%%%%%%%%%%%%%%%%%%%%%%%%%%%%%%%%%%%%%%%%%%%%oooooooooooooooo%%%%%%%%%%%%%%%%%%%%%=============%%%%======%%%%%%oooooooo%%%%%%%%=%%%%%%%%%==%%%%%%%%%%%%",
"=%=%%%%=====%%%%%===%%%%%%==%%%%==============================%%%%%%%%%%%%%%%%%%%%%%%%%%%%%%%%%%%%%%%%%%%%%%%%%%%%%%%%%%%%%%%%%%%%%%%%%%%%%%%%%%%%%%%%%%%%%%%%%%%%%%%%%%%%%%%%%%%%%%%%%%%%%%%%%%%%%%%%%%%%%%%%%%%%%%%%%%%%%%%%%%%%%%%%%%%%%%%%%%%%%%%%%%%%%%%%%ooooooooooooooooooooooooooooooooooooooooooooooooooooooooooooooooooooooooooooooooooooooooooooooooooooooooooooooooooooooooooooooooooooooooooooooooooooooooooooooooooooooooooooooooooooooooooooooooooooooooooooooooo%%%%%%%%%%%%%%%%%%%%%%%%%%%%%%%%%%%%%%%%%%%%%%%%%%%%%%%%oooooooooooooooo%%%%%%%%%%%%%%%%%%%%%%====%%===============%=%%%%ooo%%%ooo%%%%%%%=====%=======%%%%%%%%%%%%",
"%===%%%%==%%%%%%%%==%%%%%%==%%%%==============================%%%%%%%%%%%%%%%%%%%%%%%%%%%%%%%%%%%%%%%%%%%%%%%%%%%%%%%%%%%%%%%%%%%%%%%%%%%%%%%%%%%%%%%%%%%%%%%%%%%%%%%%%%%%%%%%%%%%%%%%%%%%%%%%%%%%%%%%%%%%%%%%%%%%%%%%%%%%%%%%%%%%%%%%%%%%%%%%%%%%%%%%%%%%%%%%%ooooooooooooooooooooooooooooooooooooooooooooooooooooooooooooooooooooooooooooooooooooooooooooooooooooooooooooooooooooooooooooooooooooooooooooooooooooooooooooooooooooooooooooooooooooooooooooooooooooooooooooooooo%%%%%%%%%%%%%%%%%%%%%%%%%%%%%%%%%%%%%%%%%%%%%%%%%%%%%%%%oooooooooooooooo%%%%%%==%%%%%%%%%%%%%%%%%%%%%================%%%%ooo%%%ooo%%%%%%%=============%%%%%%=%%%%%",
"%%====%%%%%=%===%%%=%%==%%%%%%=================================%%%%%%%%%%%%%%%%%%%%%%%%%%%%%%%%%%%%%%%%%%%%%%%%%%%%%%%%%%%%%%%%%%%%%%%%%%%%%%%%%%%%%%%%%%%%%%%%%%%%%%%%%%%%%%%%%%%%%%%%%%%%%%%%%%%%%%%%%%%%%%%%%%%%%%%%%%%%%%%%%%%%%%%%%%%%%%%%%%%%%%%%%%%%%%%%ooooooooooooooooooooooooooooooooooooooooooooooooooooooooooooooooooooooooooooooooooooooooooooooooooooooooooooooooooooooooooooooooooooooooooooooooooooooooooooooooooooooooooooooooooooooooooooooooooooooooooooooooo%%%%%%%%%%%%%%%%%%%%%%%%%%%%%%%%%%%%%%%%%%%%%%%%%%%%%%%%oooooooooooooooo%%%%=====%%%%%%%%%%%%%%%%%%%%%===============%%%%%%%%%%%%%ooooo%%%==:::=======%%%%%=====%%",
"%%%===%%%%%%====%%%%%====%%%%%==%==============================%%%%%%%%%%%%%%%%%%%%%%%%%%%%%%%%%%%%%%%%%%%%%%%%%%%%%%%%%%%%%%%%%%%%%%%%%%%%%%%%%%%%%%%%%%%%o@@@@%%%%%%%%%%%%%%%%%%%%%%%%%%%%%%%%%%%%%%%%%%%%%%%%%%%%%%%%%%%%%%%%%%%%%%%%%%%%%%%%%%%%%%%%%%%%%%%ooooooooooooooooooooooooooooooooooooooooooooooooooooooooooooooooooooooooooooooooooooooooooooooooooooooooooooooooooooooooooooooooooooooooooooooooooooooooooooooooooooooooooooooooooooooooooooooooooooooooooooooooo%%%%%%%%%%%%%%%%%%%%%%%%%%%%%%%%%%%%%%%%%%%%%%%%%%%%%%%%oooooooooooooooo%%%======%%%%%%%%%%%%%%%%%%%%%%=============%%%%%%%%%%%%%%%oooo%%%=::::::=====%%%%========",
"=%%%%=%%=====%%%===%%%%%%%%%==%%===============================%%%%%%%%%%%%%%%%%%%%%%%%%%%%%%%%%%%%%%%%%%%%%%%%%%%%%%%%%%%%%%%%%%%%%%%%%%%%%%%%%%%%%@@@@@@@@@@@@%%%%%%%%%%%%%%%%%%%%%%%%%%%%%%%%%%%%%%%%%%%%%%%%%%%%%%%%%%%%%%%%%%%%%%%%%%%%%%%%%%%%%%%%%%%%%%%ooooooooooooooooooooooooooooooooooooooooooooooooooooooooooooooooooooooooooooooooooooooooooooooooooooooooooooooooooooooooooooooooooooooooooooooooooooooooooooooooooooooooooooooooooooooooooooooooooooooooooooooooo%%%%%%%%%%%%%%%%%%%%%%%%%%%%%%%%%%%%%%%%%%%%%%%%%%%%%%%%%%%%oooooooo%%%%%%%%%===%%%%%%%%%%%%%%%%%%%%%%%%============%%%%%%%%%%%%%%%%o%%%%%=::<<:=======%==%==::===",
"=%%%%%%%===%=%%%===%%%%%%%%%==%%===============================%%%%%%%%%%%%%%%%%%%%%%%%%%%%%%%%%%%%%%%%%%%%%%@@@%%%%%%%%%%%%%%%%%%%%%%%%%%%%%%@@oo@@@@@@@@@@@@@@%%%%%%%%%%%%%%%%%%%%%%%%%%%%%%%%%%%%%%%%%%%%%%%%%%%%%%%%%%%%%%%%%%%%%%%%%%%%%%%%%%%%%%%%%%%%%%%ooooooooooooooooooooooooooooooooooooooooooooooooooooooooooooooooooooooooooooooooooooooooooooooooooooooooooooooooooooooooooooooooooooooooooooooooooooooooooooooooooooooooooooooooooooooooooooooooooooooooooooooooo%%%%%%%%%%%%%%%%%%%%%%%%%%%%%%%%%%%%%%%%%%%%%%%%%%%%%%%%%%%%%%%%oooo%%%%%%%%%%%%%%%%%%%%%%%%%%%%%%%%%%%%===========%%%======%=%%=%%%%%%%%==::<::=========%===:<:=%",
"%%%===%%%%%%==%%%%%%==%%%=%%%%%%%%===%%%==%%====%%%%==========%%%%%%%%%%%%%%%%%%%%%%%%%%%%%%%%%%%%@@%%%%%%%%%%%%%%%%%%@@%%%%%%%%%%%%%%%%@@@@@@@@o@@@@@@@@@@@@@@@%%%%%%%%%%%%%%%%%%%%%%%%%%%%%%%%%%%%%%%%%%%%%%%%%%%%%%%%%%%%%%%%%%%%%%%%%%%%%%%%%%%%%%%%%%%%%%%ooooooooooooooooooooooooooooooooooooooooooooooooooooooooooooooooooooooooooooooooooooooooooooooooooooooooooooooooooooooooooooooooooooooooooooooooooooooooooooooooooooooooooooooooooooooooooooooooooooooooooooooooo%%%%%%%%%%%%%%%%%%%%%%%%%%%%%%%%%%%%%%%%%%%%%%%%%%%%%%%%%%%%%%%%%%%%%%%%%%%%%%%%%%%%%%%%%%%%%%%%%%%%%%%===========%%%%%===========%%%%%===:::<::============%=33=%",
"%%%%%%%%%%%%==%%%%%%==%%%%%%%%%%%%%%%%%%%%%%%%%%%%%%%%%%%%%%%%%%%%%%%%%%%%%%%%%%%%%%%%%%%%%%%%%%%%@@@@@@@@@@@@@@@%%%@@@@@@@@@@@@%%%%@@@@@@@@@@@@@@@@@@@@@@@@@@%%%%%%%%%%%%%%%%%%%%%%%%%%%%%%%%%%%%%%%%%%%%%%%%%%%%%%%%%%%%%%%%%%%%%%%%%%%%%%%%%%%%%%%%%%%%%%%%%ooooooooooooooooooooooooooooooooooooooooooooooooooooooooooooooooooooooooooooooooooooooooooooooooooooooooooooooooooooooooooooooooooooooooooooooooooooooooooooooooooooooooooooooooooooooooooooooooooooooooooooooooo%%%%%%%%%%%%%%%%%%%%%%%%%%%%%%%%%%%%%%%%%%%%%%%%%%%%%%%%%%%%%%%%%%%%%%%%%%%%%%%%%%%%%%%%%%%%%%%%%%%%%%%============%%%============%%%%====:::<::=========:::%=44=o",
"==%%%%%%%%%%==%%%%%%%%%%%===%%%%%%%%%%%%%%%%%%%%%%%%%%%%%%%%%%%%%%%%%%%%%%%%%%%%%%%%%%%%%%%%%%%%@@@@@@@@@@@@@@@@@@@@@@@@@@@@@@@@@@@@@@@@@@@@@@@@@@@@@@@@@@%%%%%%%%%%%%%%%%%%%%%%%%%%%%%%%%%%%%%%%%%%%%%%%%%%%%%%%%%%%%%%%%%%%%%%%%%%%%%%%%%%%%%%%%%%%%%%%%%%%%%ooooooooooooooooooooooooooooooooooooooooooooooooooooooooooooooooooooooooooooooooooooooooooooooooooooooooooooooooooooooooooooooooooooooooooooooooooooooooooooooooooooooooooooooooooooooooooooooooooooooooooooooooo%%%%%%%%%%%%%%%%%ooooooooooooooo%%oooooooooooooo%%%%%%%%%%%%%%%%%%%%%%%%%%%%%%%%%%%%%%%%%%%%%%%%%%%%%%%==========%%=====================::::::::::====::<<3<=:77:o",
"=%%%%%%%%%%%%%%%%=%%%%%%%%%%%%%%%%%%%%%%%%%%%%%%%%%%%%%%%%%%%%%%%%@@@@@@%%%@%%%%%%%%%%%%%%%%%%%%@@@@@@@@@@@@@@@@@@@@@@@@@@@@@@@@@@@@@@@@@@@@@@@@@@@@%%%%%%%%%%%%%%%%%%%%%%%%%%%%%%%%%%%%%%%%%%%%%%%%%%%%%%%%%%%%%%%%%%%%%%%%%%%%%%%%%%%%%%%%%%%%%%%%%%%%%%%%%%%%oooooooooooooooooooooooooooooooooooooooooooooooooooooooooooooooooooooooooooooooooooooooooooooooooooooooooooooooooooooooooooooooooooooooooooooooooooooooooooooooooooooooooooooooooooooooooooooooooooooooooooooooo%%%%%%%%%%%%%%%%oooooooooooooooooooooooooooooooo%%%%%%%%%%%%%%%%%%%%%%%%%%%%%%%%%%%%%%%%%%%%%%%%%%%%%%=========%%%%%========:=========::::::::::::====:::<<:=:66:o",
"%%%%%%%%%%==%%%%%%=%%%%=%%%%%%%%%%%%%%%%%%%%%%%%%%%%%%%%%%%%%%%%%%%%%%%%%%%%%%%%%%%%%%@@@@@@%%%@@@@@@@@@@@@@@@@@@@@@@@@X@@@@XXX@@@@@@@@@@@@@@@%%%%%%%%%%%%%%%%%%%%%%%%%%%%%%%%%%%%%%%%%%%%%%%%%%%%%%%%%%%%%%%%%%%%%%%%%%%%%%%%%%%%%%%%%%%%%%%%%%%%%%%%%%%%%%%%%%oooooooooooooooooooooooooooooooooooooooooooooooooooooooooooooooooooooooooooooooooooooooooooooooooooooooooooooooooooooooooooooooooooooooooooooooooooooooooooooooooooooooooooooooooooooooooooooooooooooooooooooooo%%%%%%%%%%%%%%%%oooooooooooooo%%oooooooooooooooo%%%%%%%%%%%%%%%%%%%%%%%%%%%%%%%%%%%%%%%%%%%%%%%%%%%%%=%=======%%%%%%===::====:==:=:=:::::::::::=========%%=%%=::=%",
"%%%%%%=%%%==%%%%%%%%%%==%%%%%%%%%%%%%%%%%%%%%%%%%%%%%%%%%%%%%%%@%%%@@@@@@@@@@@@@@@@@@@@@@@@@@@@@@@@@@@@@@@@@@XXX@@@@XXXX@@@@XXX@@@@@@@@@%%%%%%%%%%%%%%%%%%%%%%%%%%%%%%%%%%%%%%%%%%%%%%%%%%%%%%%%%%%%%%%%%%%%%%%%%%%%%%%%%%%%%%%%%%%%%%%%%%%%%%%%%%%%%%%%%%%%%%%ooooooooooooooooooooooooooooooooooooooooooooooooooooooooooooooooooooooooooooooooooooooooooooooooooooooooooooooooooooooooooooooooooooooooooooooooooooooooooooooooooooooooooooooooooooooooooooooooooooooooooooooooo%%%%%%%%%%%%%%%%%oooooooooooo%%%ooooooooooooooo%%%%%%%%%%%%%%%%%%%%%%%%%%%%%%%%%%%%%%%%%%%%%%%%%%%============%%%%%%==:::::::::::::::::::::::=======%%=%%%%%%%==%%",
"%%==%%%%%%=%%%==%%==%%%=%%=%%%%%%%%%%%%%%%%%%%%%%%%%%%%%%%%%%%%@%@@@@@@@@@@@@@@@@@@@@@@@@@@@@@@@@@@XXX@@@XXX@@@@XXXX@@@@@@@@@@@@@@%%%%%%%%%%%%%%%%%%%%%%%%%%%%%%%%%%%%%%%%%%%%%%%%%%%%%%%%%%%%%%%%%%%%%%%%%%%%%%%%%%%%%%%%%%%%%%%%%%%%%%%%%%%%%%%%%%%%%%%%%%%%%ooooooooooooooooooooooooooooooooooooooooooooooooooooooooooooooooooooooooooooooooooooooooooooooooooooooooooooooooooooooooooooooooooooooooooooooooooooooooooooooooooooooooooooooooooooooooooooooooooooooooooooooooo%%%%%%%%%%%%%%%%%%%%%%%%%%%%%%%%%%%%%%%%%%%%%%%%%%%%%%%%%%%%%%%%%%%%%%%%%%%%%%%%%%%%%%%%%%%%%%%%%%%=============%%%====:::::::==:::::<<<<::::=======%%=====%%%::=%",
"%%==%%%%==%%%%==%%==%%%%%===%%%%%%%%%%%%%%%%%%%%%%%%%%%%%%%%%%@@@@@@@@@@@@@@@@@@@@@@@@@@@@XX@@@@XXXXXX@@@@XX@@@@@@@@@@@@@@@@@@@@@%%%%%%%%%%%%%%%%%%%%%%%%%%%%%%%%%%%%%%%%%%%%%%%%%%%%%%%%%%%%%%%%%%%%%%%%%%%%%%%%%%%%%%%%%%%%%%%%%%%%%%%%%%%%%%%%%%%%%%%@@@@@@@@ooooooooooooooooooooooooooooooooooooooooooooooooooooooooooooooooooooooooooooooooooooooooooooooooooooooooooooooooooooooooooooooooooooooooooooooooooooooooooooooooooooooooooooooooooooooooooooooooooooooooooooooooo%%%oooo%%%%%%%%%%%%%%%%%%%%%%%%%%%%%%%%%%%%%%%%%%%%%%%%%%%%%%%%%%%%%%%%%%%%%%%%%%%%%%%%%%%%%%%%%%=====================:===:::::::::::<<<::::=====:=%%%=====%%=:%%",
"=%==%%%%===%%%%%====%%%%%=====%%%%%%%%%%%%%%%%%%%%%%%%%%%%%%%@%@@@@@@@@@@@@@@@X@@@@@XXXXXXXXXXXX@@@@@@@@@@@@@@@@@@@@@@@@@@@@@@@%%%%%%%%%%%%%%%%%%%%%%%%%%%%%%%%%%%%%%%%%%%%%%%%%%%%%%%%%%%%%%%%%%%%%%%%%%%%%%%%%%%%%%%%%%%%%%%%%%%%%%%%%%%%%%%%%%%%%%%%%%%%%%%%oooooooooooooooooooooooooooooooooooooooooooooooooooooooooooooooooooooooooooooooooooooooooooooooooooooooooooooooooooooooooooooooooooooooooooooooooooooooooooooooooooooooooooooooooooooooooooooooooooooooooooooooooooooooooooooooooo%%%%%%%%%%%%%%%%%%%%%%%%%%%%%%%%%%%%%%%%%%%%%%%%%%%%%%%%%%%%%%%%%%%%%%%%%%=%=============%%%%===========:=::::::::::::::::===%=%===%%====:=oo%%%%",
"=%%%==%%=%%%==%%%===%%%%%====%%%%%%@%%%%%%%%@@@@%%%%%%@@%%%%%%@@@@@X@@@@XX@@@@XX@@XXXXXXXXXXXXXX@@@@@@@@@@@@@@@@@@@@@@@@@@@@@@@%%%%%%%%%%%%%%%%%%%%%%%%%%%%%%%%%%%%%%%%%%%%%%%%%%%%%%%%%%%%%%%%%%%%%%%%%%%%%%%%%%%%%%%%%%%%%%%%%%%%%%%%%%%%%%%%%%%%%%%%%%%%%%%%oooo@@@@@@@@@@@@+@@@@@@@+@@@@@@@@oooooooooooooooooooooooooooooooooooooooooooooooooooooooooooooooooooooooooooooooooooooooooooooooooooooooooooooooooooooooooooooooooooooooooooooooooooooooooooooooooooooooooooooooooooooooooooooooooo%%%%%%%%%%%%%%%%%%%%%%%%%%%%%%%%%%%%%%%%%%%%%%%%%%%%%%%%%%%%%%%%%%%%%%%%%===============%%%%=====:======:====::::::::::::=======::%%===:::%%%=%%",
"=%%%==%%%%%%==%%==%%%%==%%%%==%%@@@@@@@@@@@@@@@@@@@@@@@@@@@@@@@@@@@XXXXXXXXXXXXX@XX@@@XX@@@XX@@@@@@@@@@@@@@@@@@@@@@@@@@@@@@@@@@%%%%%%%%%%%%%%%%%%%%%%%%%%%%%%%%%%%%%%%%%%%%%%%%%%%%%%%%%%%%%%%%%%%%%%%%%%%%%%%%%%%%%%%%%%%%%%%%%%%%%%%%%%%%%%%%%%%%%%%%%%%%%%%%%oooo@@@@@@@@@@@@@@@@@@@@@@@@@@@@ooooooooooooooooooooooooooooooooooooooooooooooooooooooooooooooooooooooooooooooooooooooooooooooooooooooooooooooooooooooooooooooooooooooooooooooooooooooooooooooooooooooooooooooooooooooooooooooooo%%%%%%%%%%%%%%%%%%%%%%%%%%%%%%%%%%%%%%%%%%%%%%%%%%%%%%%%%%%%%%%%%%%%%%%%%%===============%%%%===:::=:=========:::<<::::::::=====:<:=====:<<::<:=%",
"%%%%==%%%%%%==%%==%%%====%%%==%%@@@@@@@@@@@@@@@@@@@@@@@@@@@@@@@@XXXXXXXXXXXXXXXXXXXX@@X@@@@@@@@@@@@@%%%%%%@@%%%%@@%%%%%%@@@@%%%%%%%%%%%%%%%%%%%%%%%%%%%%%%%%%%%%%%%%%%%%%%%%%%%%%%%%%%%%%%%%%%%%%%%%%%%%%%%%%%%%%%%%%%%%%%%%%%%%%%%%%%%%%%%%%%%%%%%%%%%%%%%%%%%%ooooo@@@@@@@@@@@@@@@@@@@@@@@@@@@oooooooooooooooooooooooooooooooooooooooooooooooooooooooooooooooooooooooooooooooooooooooooooooooooooooooooooooooooooooooooooooooooooooooooooooooooooooooooooooooooooooooooooooooooooooooooooooooo%%%%%%%%%%%%%%%%%%%%%%%%%%%%%%%%%%%%%%%%%%==%%%%====%%%%%%%%%%%%%%%%%%%%%%%===============%%%%==::::::=======::::::::::::=::=:===:<<::====<<<<<:=%",
"====%%%%==%%%%@%==%%=%%%====%%@@@@@@@@@@@@@@@@@@@@@@@@@@@@@@@@X@XXXXXXXXXXXXX@@@XX@@@@@@@@@@@@@@@@%%%%%%%@@@%%%%%%%%%%%%%%@@%%%%%%%%%%%%%%%%%%%%%%%%%%%%%%%%%%%%%%%%%%%%%%%%%%%%%%%%%%%%%%%%%%%%%%%%%%%%%%%%%%%%%%%%%%%%%%%%%%%%%%%%%%%%%%%%%%%%%%%%%%%%%%%%%%%%oooo@@@@@@@@@@@@@@@@@@@@@@@@@@@@ooooooooooooooooooooooooooooooooooooooooooooooooooooooooooooooooooooooooooooooooooooooooooooooooooooooooooooooooooooooooooooooooooooooooooooooooooooooooooooooooooooooooooooooooooooooooooooooo%%%%%%%%%%%%%%%%%%%%%%%%%%%%%%%%%%%%%%%%%%============%%%%%%%%%%%%%%%%%%%%%%===============%%%%==:::::::=====::::::::::::===::::===<<<::====:===%%o",
"@&&&@@@@&&@@@@@@@@@&&@@@@&&&@@@@@@@@@@@@@@@@@@@@@@@@@@@@@@@@@@X@XXXXXXXXXX@@@@@@@@@@@@@@@@@@@@@@@%%%%%%%%%%%%%%%%%%%%%%%%%%%%%%%%%%%%%%%%%%%%%%%%%%%%%%%%%%%%%%%%%%%%%%%%%%%%%%%%%%%%%%%%%%%%%%%%%%%%%%%%%%%%%%%%%%%%%%%%%%%%%%%%%%%%%%%%%%%%%%%%%%%%%%%%%%%%%%o@@@@@@@@@@@@@@@@@@@@@@@@@@@@@@@@oooooooooooooooooooooooooooooooooooooooooooooooooooooooooooooooooooooooooooooooooooooooooooooooooooooooooooooooooooooooooooooooooooooooooooooooooooooooooooooooooooooooooooooooooo%o%%oo%%oooo%%%%%%%%%%%%%%%%%%%%%%%%%%%%%%%%%%%%%%%%%%==============%%%%%%%%%%%%%%%%%%%%%===============%%%%=::::::::====:::::::::::::====:::===<<<:::==:::=%%oo",
"@@@&@@@@@@@@@&&@@@@@@@&@@@@@@@@@@@@@XX@@@@@@XX@@@@XXXX@@XXXXXX@@@@@@@@@@@@@@@@@@@@@@@@@@@@@@@@@@%%%%%%%%%%%%%%%%%%%%%%%%%%%%%%%%%%%%%%%%%%%%%%%%%%%%%%%%%%%%%%%%%%%%%%%%%%%%%%%%%%%%%%%%%%%%%%%%%%%%%%%%%%%%%%%%%%%%%%%%%%%%%%%%%%%%%%%%%%%%%%%%o@@@@@@@%@@@@@@@@@@@@@@@@@@@@@@@@@@@@@@@@@@@@@@@oooooooooooooooooooooooooooooooooooooooooooooooooooooooooooooooooooooooooooooooooooooooooooooooooooooooooooooooooooooooooooooooooooooooooooooooooooooooooooooooooooooooooooooo%%%%%%%%%%%%%%%%%%%%%%%%%%%%%%%%%%%%%%%%%%%%%%%%%%%%%%%%%=%======::======%=%%%%oo%%%%%%%%%%%%%==============%%%%=::::::::=====:::::::::::======::=:=:::::::<242<:=%o",
"@@@@@@@@@@@@@@@@@@@@@@&@@@@@@@@@@@@XXX@@@@@@XXX@@@XXXX@@XXXX@@@@@@@@@@@@@@@@@@%%%%%%%%%%@@%%%%%%%%%%%%%%%%%%%%%%%%%%%%%%%%%%%%%%%%%%%%%%%%%%%%%%%%%%%%%%%%%%%%%%%%%%%%%%%%%%%%%%%%%%%%%%%%%%%%%%%%%%%%%%%%%%%%%%%%%%%%%%%%%%%%%%%%%%%%%%%%%%%@@@@@@@@@@@@@@@@@@@@@@@ooooooooooooooooooooooooooooooooooooooooooooooooooooooooooooooooooooooooooooooooooooooooooooooooooooooooooooooooooooooooooooooooooooooooooooooooooooooooooooooooooooooooooooooooooooooooooooooooooooooooo%%%%%%%%===%%%%%%%%%%%%%%==%===%%%%====%%%%%%%%%%%%%%%%%%%=======::::=======%%%%o%%%%%%%%%%%%%%%=============%%%==:::::::::==::::::::::=:========:=::=:::=::<322<:=%o",
"@@@@@@@@@@@@@@@@@@@@@@@@@@@@@@@@@@@XXXX@@XXXXX@@@XXX@@@@@X@@@@@@@@@@@@%%@@@@@@%%%%%%%%%@@@@@@@@%%%%%%%%%%%%%%%%%%%%%%%%%%%%%%%%%%%%%%%%%%%%%%%%%%%%%%%%%%%%%%%%%%%%%%%%%%%%%%%%%%%%%%%%%%%%%%%%%%%%%%%%%%%%%%%%%%%%%%%%%%%%%@@@@@%%@@@@@@@@@@@@@@@@@@@@@@@@@@@@@oooooooooooooooooooooooooooooooooooooooooooooooooooooooooooooooooooooooooooooooooooooooooooooooooooooooooooooooooooooooooooooooooooooooooooooooooooooooooooooooooooooooooooooooooooooooooooooooooooooooooooo%%%%%=============================================%%%%%%%%%========:::=======%%%%%%%%%%%%%%%%%%%%%==%%%%%%=========::::::::::::::::::::==============:=:<<==%%%=:::=%%",
"@@@@@@@@@@@@@@@@@@@@@@@@@@@@@@@@@@@@@@@@@@@@@@@@@@@@@@@@@@@@@@@@@%%%%%%%%%%%%%%%%%%%%%%%@@@@%%%%%%%%%%%%%%%%%%%%%%%%%%%%%%%%%%%%%%%%%%%%%%%%%%%%%%%%%%%%%%%%%%%%%%%%%%%%%%%%%%%%%%%%%%%%%%%%%%%%%%%%%%%%%%%%%%%%@@@@@@@@@@@@@@@@@@@@@@@@@@@@@@@@@@@@@@@@%%%%oooooooooooooooooooooooooooooooooooooooooooooooooooooooooooooooooooooooooooooooooooooooooooooooooooooooooooooooooooooooooooooooooooooooooooooooooooooooooooooooooooooooooooooooooooooooooooooooooooooooooooooooo%%%%================================================%%%%%%%=======::::=======%%%%%%%%%%%%%%%%%%%%%%%%%%%%%========:::::::::::::::::::::========%========::==%%%%====%%",
"@@@@@@@@@@@@@@@@@@@@@@@@@@@@@@@@X@@@@@@@X@@@@@@@@@@@@@@@@@@@@@@@@%%%%%%%%%%%%%%%%%%%%%%%%%%%%%%%%%%%%%%%%%%%%%%%%%%%%%%%%%%%%%%%%%%%%%%%%%%%%%%%%%%%%%%%%%%%%%%%%%%%%%%%%%%%%%%%%%%%%%%%%%%%%%%%%%%%%%%%%%%%%%%%@@@@@@@@@@@@@@@@@@@@@@@@@@@@@@@@@@oo%%%%%%%%%%%oooooooooooooooooooooooooooooooooooooooooooooooooooooooooooooooooooooooooooooooooooooooooooooooooooooooooooooooooooooooooooooooooooooooooooooooooooooooooooooooooooooooooooooooooooooooooooooooooooooooooooooo%%%%===============================================%%%%%%%%================%%%%%%%%%%%%%%%%%%%%%%%%%%%%%%============:::::<<<<<<<:::::========%%%%===%%===:::::::%%oo",
"@@@@@@@@@@@@@@@@@@@@@@@@@@@@@@@@@@@@@@@@@@@@@@@@@@@@@@@@@@@@@@@@@%%%%%%%%%%%%%%%%%%%%%%%%%%%%%%%%%%%%%%%%%%%%%%%%%%%%%%%%%%%%%%%%%%%%%%%%%%%%%%%%%%%%%%%%%%%%%%%%%%%%%%%%%%%%%%%%%%%%%%%%%%%%%%%%%%%%%%%%%%%%%%%@@@@@@@@@@@@@@@@@@@@@@@@@@%%@@%%oooo%%%%%%%%%%%ooooooooooooooooooooooooooooooooooooooooooooooooooooooooooooooooooooooooooooooooooooooooooooooooooooooooooooooooooooooooooooooooooooooooooooooooooooooooooooooooooooooooooooooooooooooooooooooooooooooooooooooo%%%%==%%==========================================%%%%%%=%=================%%%%%%%%%%%%%%%%%%%%%%%%%%%%%=============:::<<<<<<<<<::::=======%%%%%%==oo%==:::::::%%oo",
"@@@@@@@@@@@@@@@@@@@@@@@@@@@@@@@@@@@@@@@@@@@@@@@@@@@@@@@@@@@@@@@@%%%%%%%%%%%%%%%%%%%%%%%%%%%%%%%%%%%%%%%%%%%%%%%%%%%%%%%%%%%%%%%%%%%%%%%%%%%%%%%%%%%%%%%%%%%%%%%%%%%%%%%%%%%%%%%%%%%%%%%%%%%%%%%%%%%%%%%%%%%%%%%oo@@@@@@@@@@@@@@@%%%%%%%%%%%%%%%%%%%%%%%%%%%%%%%%ooooooooooooooooooooooooooooooooooooooooooooooooooooooooooooooooooooooooooooooooooooooooooooooooooooooooooooooooooooooooooooooooooooooooooooooooooooooooooooooooooooooooooooooooooooooooooooooooooooooooooooooo%%%%%%%====%%%%%%%%==============================%%%%%====================%%%%%%%%%%%%%%%%%%%%%%%%%%%%==============:::<<<<<<<<<:::::=:::==%%%oo%::oo%=====%%==%%%%",
"@@@@@@@@@@@@@@@@@@@@@@@@@@@@@@@@@@@@@@@@@@@@@@%%%%@@@@@@%%%%%@@%%%%ooooo%%ooo%%%%%%%%%%%%%%%%%%%%%%%%%%%%%%%%%%%%%%%%%%%%%%%%%%%%%%%%%%%%%%%%%%%%%%%%%%%%%%%%%%%%%%%%%%%%%%%%%%%%%%%%%%%%%%%%%%%%%%%%%%%%%%%%%%ooooooooo%%%%%%%%%%%%%%%%%%%%%%%%%%%%%%%%%%%%%%%%oooooooooooooooooooooooooooooooooooooooooooooooooooooooooooooooooooooooooooooooooooooooooooooooooooooooooooooooooooooooooooooooooooooooooooooooooooooooooooooooooooooooooooooooooooooooooooooooooooooooooooooooo%%%%%====%%%%%%%%===============================%========================%%%%%%%%%%%%%%%%%%%%%%%==%========::===%%=:::::<<<<:::<<::==::::===%%%%::%%%====%o%====%%",
"@@@@@@@@@@@@@@@@@@@@@@@@@@@@@@@@@@@@@@@@@@@@@@@@@@@@@@@@@@@@@@%%%%%%%%%%%%%%%%%%%%%%%%%%%%%%%%%%%%%%%%%%%%%%%%%%%%%%%%%%%%%%%%%%%%%%%%%%%%%%%%%%%%%%%%%%%%%%%%%%%%o%%%%%%%%%%%%%%%%%%%%%%%%%%%%%%%%%%%%%%%%%%%%oooooooo%%%%%%%%%%%%%%%%%%%%%%%%%%%%%%%%%%%%%%%%%oooooooooooooooooooooooooooooooooooooooooooooooooooooooooooooooooooooooooooooooooooooooooooooooooooooooooooooooooooooooooooooooooooooooooooooooooooooooooooooooooooooooooooooooooooooooooooooooooooooooooooooooo%%o%::::=%%%%%%===::==:::===::========================================%%%%%%%%%%%%%%%%%%%%%%%%%=%====:===:::::==%%::==%=<<<:%%:<3<===::::===::==<:%%%=::=%%%=::=::",
"@@@@@@@@@@@@@@@@%%%%%%%%%%%%%%%%%%%%%%%%%%%%%%%%%%%%%%%%%%%%%%%%%%%%%%%%%%%%%%%%%%%%%%%%%%%%%%%%%%%%%%%%%%%%%%%%%%%%%%%%%%%%%%%%%%%%%%%%%%%%%%%%%%%%%%%%%%%%%%%%@@@@@@@@@@@@@@@@@@@@@@@@@@@@@@%%%%%%%%%%%%%%%%%%oooooo%%%%%%%%%%%%%%%%%%%%%%=%==%%%%==%%%%%%%%%%ooooooooooooooooooooooooooooooooooooooooooooooooooooooooooooooooooooooooooooooooooooooooooooooooooooooooooooooooooooooooooooooooooooooooooooooooooooooooooooooooooooooooooooooooooooooooooooooooooooooooooooooo%==%=<<:=%%%%==========:::===::========================================%%%%%%%%%%%%%%%%%%%%%%%%%====:::::::::::====::==%=<<<:==:223:=::::====::=:<<====:::===:<<<::",
"@@@@@@@@@@@@@@@@%%%%%%%%%%%%%%%%%%%%%%%%%%%%%%%%%%%%%%%%%%%%%%%%%%%%%%%%%%%%%%%%%%%%%%%%%%%%%%%%%%%%%%%%%%%%%%%%%%%%%%%%%%%%%%%%%%%%%%%%%%%%===%%%%%%%%%%%%%%%%@@@@@@@@@@@@@@@@@@@@@@@@@@@@@@@@%%%%%%%%%%%%%%%%%oooooo%%%%%%%%%%%%%%%%%%%=============%%%%%%%%%%ooooooooooooooooooooooooooooooooooooooooooooooooooooooooooooooooooooooooooooooooooooooooooooooooooooooooooooooooooooooooooooooooooooooooooooooooooooooooooooooooooooooooooooooooooooooooooooooooooooooooooooooo%:<<<<::=%o%%::<<:===========::========================================%%%%%%%%%%%%%%%%%%%%%%%%%===::::::::<<<<:===::==%=<<<<::<3<<33<:::====%==:<<::::::<<<<<364:%",
"@@@@@@@@@@@@@@@@%%%%%%%%%%%%%%%%%%%%%%%%%%%%%%%%%%%%%%%%%%%%%%%%%%%%%%%%%%%%%%%%%%%%%%%%%%%%%%%%%%%%%%%%%%%%%%%%%%%%%%%%%%%%%%%%%%%%%%%%%%%%===%%%%%%%%%%%%%%%%@@@@@@@@@@@@@@@@@@@@@@@@@@@@@@@@%%%%%%%%%%%%%%%%%oooooo%%%%%%%%%%%%%%%%%%%=============%%%%%%%%%%ooooooooooooooooooooooooooooooooooooooooooooooooooooooooooooooooooooooooooooooooooooooooooooooooooooooooooooooooooooooooooooooooooooooooooooooooooooooooooooooooooooooooooooooooooooooooooooooooooooooooooooooo%<23<<:=%%oo%:<33::==:::===::::::======================================%%%%%%%%%%%%%%%%%%%%%%%%%%%==::::::::<<:::=::::==:<<<<::<<::33<::=======:<<<::::::<<:<<364=%",
"%%%%%%%%%%%%oooo%%%%%%%%%%%%%%%%%%%%%%%%%%%%%%%%%%%%%%%%%%%%%%%%%%%%%%%%%%%%%%%%%%%%%%%%%%%%%%%%%%%%%%%%%%%%%%%%%%%%%%%%%%%%%%%%%%%%%%%%%%%%@%%%%%%%%%%%%%%%%%%@@@@@@@@@@@@@@@@@@@@@@@@@@@@@@@@%%%%%%%%%%%%%%%%%oooo%%%%%%%%%%%%%%%%%%%%%%============%%%%%%%%%%ooooooooooooooooooooooooooooooooooooooooooooooooooooooooooooooooooooooooooooooooooooooooooooooooooooooooooooooooooooooooooooooooooooooooooooooooooooooooooooooooooooooooooooooooooooooooooooooooooooooooooooooo%:<3<:==%%%oo=:<<3<==<33<::<<3<<::======================================%%%%%%%%%%%%%%%%%%%%%%%%%%%%%%%%=======::::<<:::::::::::===::::=%%%=::<<<::::=%%%==%=::<:=%",
"%%%%%%%%%%%%oooo%%%%%%%%%%%%%%%%%%%%%%%%%%%%%%%%%%%%%%%%%%%%%%%%%%%%%%%%%%%%%%%%%%%%%%%%%%%%%%%%%%%%%%%%%%%%%%%%%%%%%%%%%%%%%%@@%%%%%%%%%@@@@@@@@@@@%%@%%%%%%%%@@@@@@@@@@@@@@@@@@@@@@@@@@@@@@@@%%%%%%%%%%%%%%%%%%ooo%%%%%%%%%%%%%%%%%%%%%%============%%%%%%%%%%ooooooooooooooooooooooooooooooooooooooooooooooooooooooooooooooooooooooooooooooooooooooooooooooooooooooooooooooooooooooooooooooooooooooooooooooooooooooooooooooooooooooooooooooooooooooooooooooooooooooooooooooo%=:<<=%%%=%o%==:<<<==<33<:=<<3<::========================================%%%%%%%%%%%%%%%%%%%%%%%%%oooo%%=======::<<<<<::::======%%%====%%%==:<<:::===%%%%==%%=::==%",
"%%%%%%%%%%%%%%%%%%%%%%%%%%%%%%%%%%%%%%%%%%%%%%%%%%%%%%%%%%%%%%%%%%%%%%%%%%%%%%%%%%%%%%%%%%%%%%%%%%%%%%%%%%%%%%%%%%%%%%%%%%%%%@@@@@@@@@@@XXXXXXXXX@@@@@@@@@%%%%%@@@@@@@@@@@@@@@@@@@@@@@@@@@@@@@@%%%%%%%%%%%%%%%%%%%%%%%%%%%%%%%%%%%%%%%%%%%============%%%%%%%%%%ooooooooooooooooooooooooooooooooooooooooooooooooooooooooooooooooooooooooooooooooooooooooooooooooooooooooooooooooooooooooooooooooooooooooooooooooooooooooooooooooooooooooooooooooooooooooooooooooooooooooooooooooo%::=%%=:=%%%==:::%%:<<:%%=:::===========================================%%%%%%%%%%%%%%%%%%%%%%%%%ooo%==::====<<<<::<<::==%%%%%ooo%%%%oo=======%%%%%%%%====:<<::==",
"%%%%%%%%%%%%%%%%%%%%%%%%%%%%%%%%%%%%%%%%%%%%%%%%%%%%%%%%%%%%%%%%%%%%%%%%%%%%%%%%%%%%%%%%%%%%%%%%%%%%%%%%%%%%%%%%%%%%%%%%%%%@@@@@@@XXX@XXXXXXXXXXX@@@@@@@@%%%%%%@@@@@@@@@@@@@@@@@@@@@@@@@@@@@@@@%%%%%%%%%%%%%%%%%%%%%%%%%%%%%%%%%%%%%%%%%%%============%%%%%%%%%%oooooooooooooooooooooooooooooooooooooooooooooooooooooooooooooooooooooooooooooooooooooooooooooooooooooooooooooooooooooooooooooooooooooooooooooooooooooooooooooooooooooooooooooooooooooooooooooooooooooooooooooo%oo%===%%=:::===:::=%%==:=%%====================================::==========%%%%%%%%%%%%%%%%%%%%%%%%ooo%=:::====<<<::::::==%%%%%%oo%%%%%==:<::==%%%%o%%====::<<<:::=",
"%%%%%%%%%%%%%%%%%%%%%%%%%%%%%%%%%%%%%%%%%%%%%%%%%%%%%%%%%%%%%%%%%%%%%%%%%%%%%%%%%%%%%%%%%%%%%%%%%%%%%%%%%%%%%%%@@@@@@@@@@@@@@@@@XXXXXXXXXXXX@@@@@@@@@%%%%%%%%%%@@@@@@@@@@@@@@@@@@@@@@@@@@@@@@@@%%%%%%%%%%%%%%%%%%%%%%%%%%%%%%%%%%%%%%%%%%==============%%%%%%%%%oooooooooooooooooooooooooooooooooooooooooooooooooooooooooooooooooooooooooooooooooooooooooooooooooooooooooooooooooooooooooooooooooooooooooooooooooooooooooooooooooooooooooooooooooooooooooooooooooooooooooooo%%%%%====%%%:<<<::3<:=::==%=::==%==:========================:=:::::::::========%%%%%%%%%%%%%%%%%%%%%%%%%%%=======:::::===::==%%====%===:::322242<::==%o%::::=:32<::===",
"%%%%%%%%%%%%%%%%%%%%%%%%%%%%%%%%%%%%%%%%%%%%%%%%%%%%%%%%%%%%%%%%%%%%%%%%%%%%%%%%%%%%%%%%%%%%%%%%@@@@@@@@@@@@@@@@@@@@@@@@@@@@@@@@XXXXXXXXX@@@@@@@@@@%%%%%%%%%%%%@@@@@@@@@@@@@@@@@@@@@@@@@@@@@@@@%%%%%%%%%%%%%%%%%%%%%%%%%%%%%%%%%%%%%%%%%%==============%%%%%%%%%%ooooooooooooooooooooooooooooooooooooooooooooooooooooooooooooooooooooooooooooooooooooooooooooooooooooooooooooooooooooooooooooooooooooooooooooooooooooooooooooooooooooooooooooooooooooooooooooooooooooooooooo%%%%=====%%%=<<3<<43==<<=%%=:<:=%%=::========================:::::::::::========%%%%%%%%%%%%%%%%%%%%%%%==%=====:=:==:====:::====::=====::<4642443<<::=%%:<<::<24<::===",
"%%%%%%%%%%%%%%%%%%%%%%%%%%%%%%%%%%%%%%%%%%%%%%%%%%%%%%%%%%%%%%%%%%%%%%%%%%%%%%%%%%%%%%%%%%%%%%%%@@@@@@@@@@@@@@@@@@@@@@@@@@@@@@@@@@@@@@@@@@%%%%%%@@%%%%%%%%%%%%%%@@@@@@@@@@@@@@@@@@@@@@@@@@@@@@%%%%%%%%%%%%%%%%%%%%%%%%%%%%%oo%%%%%%%%%%%%%============%%%%%%%%%%%%ooooooooooooooooooooooooooooooooooooooooooooooooooooooooooooooooooooooooooooooooooooooooooooooooooooooooooooooooooooooooooooooooooooooooooooooooooooooooooooooooooooooooooooooooooooooooooooooooooooooooooo%%%==%%%%%%=:<3<<3<==<3=%%=<<==%==::========================::::::::::::==========%%%%%%%%%%%%%%%%%%%====%%o%=::=%%::==::<:===:<:===%%%:<643<<<3<<::===:<<<<<3343:===",
"%%%%%%%%%%%%%%%%%%%%%%%%%%%%%%%%%%%%%%%%%%%%%%%%%%%%%%%%%%%%%%%%%%%%%%%%%%%%%%%%%%%%%%%%%%%%%%%%@@@@@@@@@@@@@@@@@@@@@@@@@@@@@@@@%%%%%%%%%%%%%%%%%%%%%%%%%%%%%%%%%%%%%%%%%%%%%%%%%%%%%%%%%%%%%%%%%%%%%%%%%%%%%%%%%%%%%%%%%%oooo%%%%%%%%%%%%%==========%%%%%%%%%%%%%ooooooooooooooooooooooooooooooooooooooooooooooooooooooooooooooooooooooooooooooooooooooooooooooooooooooooooooooooooooooooooooooooooooooooooooooooooooooooooooooooooooooooooooooooooooooooooooooooooooooooooo%%%=%%%%%%%=:<<::<:=:3<:==:<<:===:::::=======================:::::::::::==========%%%%%%%%%%%%%%%%%%=::::=%o%=::=%%:::::<<<::::<<:==%%%:<22<:==:<::::::::<<<<:<3<:===",
"%%%%%%%%%%%%%%%%%%%%%%%%%%%%%%%%%%%%%%%%%%%%%%%%%%%%%%%%%%%%@@%%%%%%%%%%%%%%%%%%%%%%%%%%%%%%%%%%@@@@@@@@@@@@@@@@@@@@@@@@@@@@@%%%%%%%%%%%%%%%%%%%%%%%%%%%%%%%%%%%%%%%%%%%%%%%%%%%%%%%%%%%%%%%%%%%%%%%%%%%%%%%%%%%%%%%%%%%%%oo%%o%%%%%%%%%%%%%====%%%%%%%%%%%%%%%%%%oooooooooooooooooooooooooooooooooooooooooooooooooooooooooooooooooooooooooooooooooooooooooooooooooooooooooooooooooooooooooooooooooooooooooooooooooooooooooooooooooooooooooooooooooooooooooooooooooo%%%%oooooo%%%%%%====::::==%=:<33<<<<33<<<:::::::========:===================::::::=========%%%%%%%%%%%%%%%%%=:<33<:===::::==:::::<<<::::::::=:::<<::::%%======::::==::=====:::",
"%%%%%%%%%%%%%%%%%%%%%%%%%%%%%%%%%%%%%%%%%%%%%%%%%%@@@@@@@@@@@@%%%%%%%%%%%%%%%%%%%%%%%%%%%%%%%%%%%%%@@@@@@@@@@@@@@@@@@@@@@@@@@%%%%%%%%%==%%%%%%%%%%%%%%%%%%%%%%%%%%%%%%%%%%%%%%%%%%%%%%%%%%%%%%%%%%%%%%%%%%%%%%%%%%%%%%%%%%oo%%o%%%%%%%%%%%%%%%%%%%%%%%%%%%%%%%%%%%oooooooooooooooooooooooooooooooooooooooooooooooooooooooooooooooooooooooooooooooooooooooooooooooooooooooooooooooooooooooooooooooooooooooooooooooooooooooooooooooooooooooooooooooooooooooooooooooooo%%%%oooooo%%%%%%==:<::::=%o%:<<<<<<<<<<<<:::::::========::============%======:=============%%%%%%%%%%%%%%%%=:<333<<::=::==::=::=:::::::::::::<<<<:=%==%%%%%==:::::====%%%%===:",
"%%%%%%%%%%%%%%%%%%%%%%%%%%%%%%%%%%%%%%%%%%%%%%%%%@@@@@@@@@@@@@@@%%%%%%%%%%%%%%%%%%%%%%%%%%%%%%%%%%%%%%%%%%%%%%%%%%%%%%%%@@@@%%%%%%%%%%%%%%%%%%%%%%%%%%%%%%%%%%%%%%%%%%%%%%%%%%%%%%%%%%%%%%%%%%%%%%%%%%%%%%%%%%%%%%%%%%%%%ooooo%%%%%%%%%%%%%%%%%%%%%%%%%%%%%%%%%%%%oooooooooooooooooooooooooooooooooooooooooooooooooooooooooooooooooooooooooooooooooooooooooooooooooooooooooooooooooooooooooooooooooooooooooooooooooooooooooooooooooooooooooooooooooooooooooooooooooo%%%%ooooo%%%=====:323<:==%%o%===::===:::%%==::==========::==========%%%%%%%===::=======%==%%%%%%%%%%%%%%%%%=<2<:<<<<:=%%%%====%%%=====::::::<<<<:=%o%%=====:<<::::::===%%===%%",
"%%%%%%%%%=====%%%%%%%%%%%%%%%%%%%%%%%%%%%%%%%%@@@@@@@@@@@@@@@@@@%%%%%%%%%%%%%%%%%%%%%%%%%%%%%%%%%%%%%%%%%%%%%%%%%%%%%%%%%%%%%%%%oo%%%%%%%%%%%%%%%%%%%%%%%%%%%%%%%%%%%%%%%%%%%%%%%%%%%%%%%%%%%%%%%%%%%%%%%%%%%%%%%%%%%%%%oooo%%%%%%%%%%%%%%%%%%%%%%%%%%%%%%%%%%%%%%ooooooooooooooooooooooooooooooooooooooooooooooooooooooooooooooooooooooooooooooooooooooooooooooooooooooooooooooooooooooooooooooooooooooooooooooooooooooooooooooooooooooooooooooooooooooooooooooooo%%%%%%oooo%%==:::=:<2<:===%%o%%%%==%%%===%%=============:::==========%%%%%o%%=====%====%%%%%%%%%%%%%%%%%%%%%=<<:==:<::=%oo%===%%%%%====:<<<<<<<<:=%ooo%=====::::===:==%======%%",
"%%%%%%%=======%%%%%%%%%%%%%%%%%%%%%%%%%%%%%%%@@@@@@@@@@@@@@@@@@@o%%%%%%%%%%%%%%%%%%%%%%%%%%%%%%%%%%%%%%%%%%%%%%%%%%%%%%%%%%%%%ooo%%%%%==%%%%%%%%%%%%%%%%%%%%%%%%%%%%%%%%%%%%%%%%%%%%%%%%%%%%%%%%%%%%%%%%%%%%%%%%%%%%%%%%ooo%%%%%==%%%%%%%%%%%%%%%%%%%%%%%%%%%%%%%%ooooooooooooooooooooooooooooooooooooooooooooooooooooooooooooooooooooooooooooooooooooooooooooooooooooooooooooooooooooooooooo%oooooooooooooooooooooooooooooooooooooooooooooooooooooooooooooo%%%%%%%%%%%%%%%%%%%=========%%%%%%o%%%%%::==============::::::========%%======%%ooo%%%%%%%%%%%%%%%%%%%%%%%%%%%%%%%%%======:::=%%%=::========%=<<<<<<<<<:=%oooo%%%%========%%%%%===:===",
"%%%%%%%=======%%%%%%%%%%%%%%%%%%%%%%%%%%%%%%%@@@@@@@@@@@@@@@@@@@@%%%%%%%%%%%%%%%%%%%%%%%%%%%%%%%%%%%%%%%%%%%%%%%%%%%%%%%%%%%%ooooo%%%%==%%%%%%%%%%%%%%%%%%%%%%%%%%%%%%%%%%%%%%%%%%%%%%%%%%%%%%%%%%%%%%%%%%%%%%%%%%%%%%oooo%%%======%%%%%%%%%%%%%%%%%%%%%%%%%%%%%%%ooooooooooooooooooooooooooooooooooooooooooooooooooooooooooooooooooooooooooooooooooooooooooooooooooooooooooooooooooooooooooo%%ooooooooooooooooooooooooooooooooooooooooooooooooooooooooooooo%%%%%%%%%%%%%%%%%%%======%%ooo%%%%%%==%%::==============:::::::::====%%======%%%ooo%%%%%%%%%%%%%%%%%%%%%%%%%%%%%%%%%o%%%==:::=%%==::=======%%=<3<<<<3<<:=%ooo%o%%%=%%%====%%%%%===::=="
};
